darktable/luts/own/velvia.cube
TITLE "Generated by darktable_lut_creator
LUT_3D_SIZE 5
0.0000000000 0.0000000000 0.0000000000
0.2220247239 0.0000000000 0.0000000000
0.6537168622 0.0000000000 0.0000000000
0.7912142277 0.0000000000 0.0020510240
0.8484248519 0.1060681716 0.0176370461
0.0000000000 0.3361896276 0.0000000000
0.1291708946 0.1821801364 0.0000000000
0.7012187839 0.1081494987 0.0000000000
0.8937799931 0.2334476113 0.0009050560
0.8479495645 0.2439270765 0.0783356950
0.0004175059 0.5375338197 0.0577035584
0.0000000000 0.6435547471 0.0000000000
0.5810238123 0.5898457766 0.0000000000
0.9845551252 0.5446121693 0.0000000000
1.0000000000 0.5710762143 0.0544972084
0.0050643939 0.7014274597 0.1034814417
0.0060868096 0.8717297912 0.0303573832
0.2523486614 0.9427385330 0.0000000000
0.8975051641 0.9113531113 0.0000000000
0.9819134474 0.9524301291 0.2005235553
0.0324765369 0.8318688869 0.0908957049
0.0773479193 0.9274637699 0.0828092843
0.2202623338 0.9374921918 0.0714774802
0.6293446422 0.9829529524 0.3486223817
1.0000000000 0.9996809959 0.2841041386
0.0000000000 0.0000000000 0.2967449427
0.2852006257 0.0000000000 0.2914448977
0.6747809649 0.0000000000 0.2109461427
0.8319381475 0.0000000000 0.3148437142
0.8890855908 0.1971096247 0.2157903910
0.0000000000 0.1929186285 0.4190104902
0.2889244556 0.2883742750 0.2860601544
0.7273412943 0.1896804124 0.2101514041
0.9149359465 0.2207317650 0.2720743418
0.9705598354 0.3809420466 0.3124269843
0.0037575534 0.5418314338 0.2709402740
0.0000000000 0.6774200201 0.0808339417
0.6235460043 0.6239239573 0.1012388617
1.0000000000 0.5927774906 0.1750185192
0.9966267943 0.6144806147 0.2957008183
0.0123159485 0.7348895073 0.3327023983
0.0076224450 0.9425859451 0.2732163966
0.3279103041 0.9795814753 0.0237230361
0.9322691560 0.9813842177 0.1976406425
0.9990954399 0.9680138826 0.2654757202
0.0304880142 0.8516214490 0.2095483541
0.0556652062 0.9589474797 0.2842904627
0.0000000000 0.9422416091 0.1871316731
0.6471891999 1.0000000000 0.3752839863
1.0000000000 0.9998863339 0.3592329323
0.0316730440 0.0800829455 0.9752613902
0.3787291050 0.0167331696 0.9408394098
0.7460741997 0.0298750661 0.8990811706
0.9119020104 0.1118140519 0.8651847839
0.9445888400 0.3235845864 0.6120692492
0.0476873890 0.3631532490 0.9819701910
0.3720721304 0.3362362683 0.8888102770
0.7654532194 0.3234155178 0.8267527223
0.9659761786 0.3254533410 0.7873756886
1.0000000000 0.5401808023 0.7128368020
0.0338179804 0.6715292335 0.8612905145
0.0628366321 0.7094201446 0.7225468159
0.6748017073 0.6740106344 0.6771194935
1.0000000000 0.6613074541 0.6421065927
1.0000000000 0.7030509710 0.6508320570
0.0641072243 0.8087699413 0.7536115646
0.0686020032 0.9428161979 0.7304923534
0.4607165754 1.0000000000 0.5513860583
0.9438405037 0.9835891724 0.4966741502
0.9980527163 0.9597047567 0.6253033280
0.0601647906 0.8893263340 0.5301623940
0.1081581041 0.9834837914 0.6744387746
0.1828259826 0.9975397587 0.7106359601
0.6522741318 0.9995377660 0.6388136148
1.0000000000 0.9998281002 0.6082198620
0.2247449905 0.3320422173 0.9901504517
0.5105731487 0.2716975808 0.9689695835
0.7969432473 0.2633527815 0.9553036690
0.9606884122 0.3065489829 0.9551883936
0.9800745845 0.4473567307 0.8954736590
0.2480183095 0.4562144279 0.9982891083
0.4881269038 0.4346005023 0.9905675054
0.7929245234 0.4197819829 0.9819182158
1.0000000000 0.4425458610 0.9883170128
0.9984106421 0.6628373861 1.0000000000
0.2006833851 0.7980046868 0.9956146479
0.3528243005 0.7057884336 1.0000000000
0.7080556750 0.6865861416 1.0000000000
1.0000000000 0.6804802418 1.0000000000
1.0000000000 0.8121985197 0.9435921311
0.2056429237 0.9002495408 0.9670811296
0.2639632523 1.0000000000 1.0000000000
0.5374578238 0.9865114689 1.0000000000
0.9525215030 0.9536497593 0.9539331198
0.9935424328 0.9342844486 0.9428032041
0.1354894787 0.9357645512 0.8331276774
0.1794773191 0.9960939288 0.9448756576
0.3265636265 0.9990679026 1.0000000000
0.7077158093 0.9994663000 0.9132516980
1.0000000000 1.0000000000 0.8945190907
0.3978795707 0.5786424279 0.9977434874
0.6565804482 0.5749601126 0.9969519973
0.8733532429 0.6101679802 0.9994954467
1.0000000000 0.6653689146 0.9979130030
0.9961571693 0.5573236346 0.9820975661
0.4184441864 0.6581664681 0.9979730248
0.6515235901 0.6558095217 0.9999586940
0.8618127704 0.6844960451 0.9999083281
1.0000000000 0.7575636506 1.0000000000
0.9993520379 0.6828796864 0.9988610744
0.4106097221 0.8458904028 0.9989593029
0.5812301636 0.8274162412 0.9985570908
0.8167487383 0.8120365143 1.0000000000
0.9953699112 0.8325250149 0.9991330504
1.0000000000 0.4203144014 1.0000000000
0.3359620273 0.9479274154 0.9956874847
0.4101909697 1.0000000000 0.9992321134
0.6912170053 0.9936447740 1.0000000000
0.9656031132 0.9520882368 0.9968095422
1.0000000000 0.9159069061 0.9989362955
0.2321777493 0.9645579457 0.9599191546
0.2976033986 0.9986551404 0.9938750863
0.4338435531 1.0000000000 0.9997855425
0.8080000877 0.9999436736 0.9996604919
1.0000000000 1.0000000000 0.9998298883
