darktable/luts/own/velvia_profiled_xt3.cube
# Generated by darktable_lut_creator: https://github.com/wilecoyote2015/darktabe_lut_generator
# Calculated for Higlight clipping, gamut compression=3 in color balance and custon x-t3 input profile; tetrahedral interpolation.
TITLE "Custom Profile for Fuji X-T3"
LUT_3D_SIZE 6
0.0000000000 0.0000000000 0.0000000000
0.0816435069 0.0000000000 0.0000000000
0.4823312759 0.0130767468 0.0000000000
0.6534558535 0.0047083362 0.0019626464
0.7633818984 0.0155106280 0.0012288876
0.7994008064 0.0274431780 0.0109976120
0.0000000005 0.0640168115 0.0000018343
0.0777850449 0.0831836760 0.0000000000
0.5544830561 0.1480317712 0.0014329389
0.7044702172 0.0709803402 0.0003772882
0.8005248904 0.1053218022 0.0005999983
0.8288595676 0.0967426896 0.0167024415
0.0014266958 0.2925998271 0.0644223914
0.0000000030 0.4154046476 0.0000000000
0.4428353310 0.4375705421 0.0000000000
0.6560632586 0.3261653483 0.0009365372
0.7879357338 0.3020044863 0.0010236927
0.8523983359 0.2613645792 0.0144174770
0.0038703661 0.4535406530 0.1527607143
0.0021536616 0.5464683175 0.0643748417
0.2168244869 0.5844844580 0.0100561017
0.5229212046 0.5387395024 0.0014690715
0.7507658005 0.5104485750 0.0004973947
0.8508994579 0.4770795107 0.0112116067
0.0070290738 0.5853456855 0.1982322633
0.0068425895 0.6499331594 0.1541893035
0.0599980205 0.7102933526 0.0571250506
0.3575731516 0.7154200673 0.0129247596
0.6804043651 0.7138141990 0.0024756098
0.8402594924 0.6950240731 0.0176390409
0.0150467884 0.6940977573 0.2256132960
0.0183935817 0.7324368954 0.2050983757
0.0373745784 0.7894113660 0.1432364136
0.1999489516 0.8071715832 0.0588887334
0.5411919355 0.8326547742 0.0277979132
0.7993200421 0.8473293781 0.0493319444
0.0000000000 0.0000000000 0.1889189482
0.1415083110 0.0004281269 0.1614247113
0.5110955238 0.0022263180 0.0409454033
0.7808253169 0.0000000000 0.0000000030
0.8127220869 0.0019166691 0.0000000030
0.8385909796 0.0794493705 0.0420233272
0.0000000000 0.1366258413 0.1574636102
0.1635450423 0.1683163494 0.1692219228
0.5489355326 0.1115475222 0.0481394902
0.8393220901 0.1457951367 0.0226215925
0.8839764595 0.2353859991 0.0000000030
0.8770353794 0.1926571727 0.0634997487
0.0074163736 0.3993934691 0.3123785853
0.0000000030 0.4728311300 0.0000000030
0.4445239902 0.4421503842 0.0004172760
0.7838765979 0.4638929665 0.0000000030
0.8737148046 0.4460696876 0.0000000030
0.8987548947 0.4000997245 0.0282035414
0.0085604182 0.5638521314 0.2768346965
0.0081534162 0.6892204285 0.1259831488
0.2673173249 0.6882050633 0.0000000030
0.7359918356 0.7355037928 0.0341063775
0.9311845899 0.7117956281 0.0000000030
0.9130505919 0.6583797336 0.0261111781
0.0100047439 0.7107210159 0.2159227729
0.0105240792 0.8315352201 0.1290510893
0.0000000060 0.7919273973 0.0000000030
0.5449101925 0.8654427528 0.0000000030
0.9187965989 0.9130049944 0.0000000030
0.9486016631 0.8888838291 0.0702977553
0.0277086422 0.7920320034 0.2476904392
0.0446072035 0.8587796092 0.2174756080
0.0756080151 0.8884792328 0.1679573208
0.3061515093 0.8721745610 0.0283277184
0.7776317596 0.9412372708 0.0511048324
0.9513912797 0.9679195881 0.1338755935
0.0264495555 0.0805142224 0.9333931208
0.2478800714 0.0131487977 0.8480067849
0.5664370656 0.0085781971 0.7509523034
0.8576831222 0.0340728946 0.6515311599
0.8921225071 0.0675451308 0.5982856154
0.9160816669 0.2361430973 0.3266276419
0.0241614040 0.2606711686 0.8147652149
0.2274323851 0.2497464865 0.7602735162
0.5766170025 0.2694353759 0.6641295552
0.8742675781 0.2866628766 0.5894627571
0.9503284693 0.3275478184 0.5529225469
0.9346703291 0.3057601154 0.5839791894
0.0209996346 0.5122925043 0.7435786724
0.0994421542 0.5580968857 0.6032590270
0.5431868434 0.5499877334 0.5565368533
0.8359993696 0.5633339286 0.5306711197
0.9876660109 0.5603483915 0.4867783487
1.0000000000 0.5895822048 0.5145428181
0.0317730345 0.6405683756 0.6502091885
0.0441575609 0.7710986137 0.5854363441
0.4414765239 0.7735759616 0.4691204727
0.7799908519 0.7820408344 0.4559695423
1.0000000000 0.7878897786 0.4268114567
1.0000000000 0.7952122092 0.4023148119
0.0248925760 0.7488398552 0.4110859931
0.0541170649 0.8991196752 0.4438708723
0.1291789412 0.9937674403 0.3540265560
0.6193850636 1.0000000000 0.3325532675
1.0000000000 0.9927903414 0.3697242141
1.0000000000 0.9878075123 0.3833515346
0.0461107790 0.8427080512 0.2958136797
0.0997084752 0.9298549294 0.3018268049
0.2150050402 0.9772071838 0.4340637028
0.4165529907 0.9906672835 0.2006665915
0.8437533975 1.0000000000 0.2732079923
1.0000000000 1.0000000000 0.2966420650
0.2389820069 0.2494772375 0.9842359424
0.4212186635 0.2537902892 0.9653452039
0.6342366338 0.2045995891 0.9445347786
0.9142960906 0.2250423580 0.9527866840
0.9504946470 0.2873992622 0.9944169521
0.9682916999 0.3958204985 0.7225530148
0.1733859181 0.4241517484 1.0000000000
0.3739523292 0.4006104767 0.9917248487
0.6169748902 0.3911746144 1.0000000000
0.9028567672 0.4069677591 0.9987934232
0.9843036532 0.4434063137 0.9910489917
0.9879064560 0.5331298113 0.7513149381
0.1023250669 0.6036824584 1.0000000000
0.2705312073 0.5950530171 1.0000000000
0.5772463679 0.5898698568 0.9476425648
0.8470464349 0.5944908261 0.9185838103
1.0000000000 0.6139634848 0.8985048532
1.0000000000 0.6881527305 0.7817786932
0.0921152532 0.7058251500 0.9265945554
0.0755449682 0.8072859049 0.9246806502
0.4970884025 0.7899893522 0.8277806640
0.7919657230 0.8017784357 0.8110076189
1.0000000000 0.8079122901 0.7823870182
0.9994947910 0.8367014527 0.7631679177
0.0793220103 0.7953814864 0.7127370834
0.1690997630 0.9214654565 0.7958548665
0.2838221788 1.0000000000 0.7431272864
0.6783819199 1.0000000000 0.7092719674
0.9908387661 0.9833051562 0.7246538401
1.0000000000 0.9848923087 0.7320083380
0.0888917819 0.8725030422 0.5107256770
0.1591370553 0.9605302215 0.5934820175
0.2229356170 0.9978673458 0.8034477830
0.4591146410 0.9998471737 0.6777040958
0.7782588005 1.0000000000 0.6726780534
1.0000000000 0.9999926090 0.6749348640
0.3652270734 0.4260407686 0.9874744415
0.5744026303 0.3837774098 0.9834935069
0.7336974740 0.3834638894 0.9793007970
0.9602606893 0.3932035565 0.9811423421
0.9962261319 0.4423262775 0.9971568584
0.9945456982 0.5644844770 0.9326129556
0.3630147278 0.6054909825 0.9993388653
0.5048242211 0.5817698836 1.0000000000
0.6957960725 0.5305823684 1.0000000000
0.9435355067 0.5300400853 1.0000000000
1.0000000000 0.5123097301 1.0000000000
0.9983434677 0.6420003772 0.9386901259
0.2859264016 0.6694493294 1.0000000000
0.4211740196 0.6607374549 1.0000000000
0.6303880215 0.6464927793 0.9998030663
0.8920803666 0.6473972201 0.9998948574
1.0000000000 0.6640240550 0.9994669557
0.9999998212 0.7759082317 0.9618772268
0.2400099188 0.7683780789 0.9896004200
0.2717974782 0.8491312861 0.9989664555
0.5529785752 0.8359150887 1.0000000000
0.8191939592 0.8353427649 1.0000000000
1.0000000000 0.8336733580 1.0000000000
1.0000000000 0.8943492770 0.9753973484
0.1827310324 0.8345301747 0.9156171679
0.2316620201 0.9447047710 0.9750370979
0.4213806987 1.0000000000 1.0000000000
0.7394179702 0.9901399016 1.0000000000
0.9768936634 0.9829393625 0.9879009724
0.9995082021 0.9746732712 0.9690243006
0.1652887315 0.9001829624 0.7687134743
0.2388979942 0.9762728810 0.8678944707
0.3595609367 0.9998783469 0.9998373985
0.4961171150 0.9999487996 0.9683895111
0.8593233824 0.9994716644 0.9381425381
1.0000000000 0.9999589324 0.9357985258
0.5308315754 0.6108003855 0.9964510798
0.6384985447 0.5919439197 0.9961348176
0.8035163879 0.5223004222 0.9952623248
0.9365581870 0.6092936993 0.9987267852
0.9916428924 0.5605280399 0.9983013272
0.9981341362 0.6678679585 0.9840846658
0.4912334383 0.7878400683 0.9994163513
0.6344467998 0.7536594272 0.9998092651
0.7940790057 0.7759054899 0.9995561838
0.9310615063 0.7587636113 1.0000000000
0.9999307394 0.8033461571 0.9988840818
0.9995110035 0.7423143387 0.9875259995
0.4066277742 0.8586624861 0.9982098937
0.5436930060 0.8482663631 0.9998283386
0.7214409113 0.8226674795 0.9978713989
0.9072507620 0.8292875886 0.9991548061
0.9994335175 0.8879041672 1.0000000000
0.9999217987 0.7997090816 0.9955917001
0.3614149988 0.8973183632 0.9970636964
0.4345248938 0.9583426118 1.0000000000
0.6507525444 0.9356096387 0.9995281100
0.8695222735 0.9213014245 0.9993220568
0.9857496023 0.9374561906 1.0000000000
0.9997672439 0.7662590146 1.0000000000
0.2890364826 0.9034624696 0.9810726643
0.3459721804 0.9865043163 0.9970385432
0.5446230769 1.0000000000 0.9993422627
0.7994060516 1.0000000000 1.0000000000
0.9671609402 0.9784610271 0.9993029833
0.9990072250 0.9729681015 1.0000000000
0.2528003156 0.9332218170 0.9211955667
0.3301351368 0.9895615578 0.9702968597
0.4181974232 1.0000000000 0.9996002913
0.6094812751 1.0000000000 0.9998669028
0.9058964849 0.9998749495 0.9998037815
1.0000000000 1.0000000000 0.9998954535
