darktable/luts/own/velvia_profiled_xt3.cube
# Generated by darktable_lut_creator: https://github.com/wilecoyote2015/darktabe_lut_generator
# Calculated for Higlight clipping, gamut compression=3 in color balance and custon x-t3 input profile; tetrahedral interpolation.
TITLE "Custom Profile for Fuji X-T3"
LUT_3D_SIZE 11
0.0000000000 0.0000000000 0.0000000000
0.0000000015 0.0000000000 0.0000000000
0.0816435069 0.0000000000 0.0000000000
0.3011694551 0.0000000000 0.0005701417
0.4823312759 0.0130767468 0.0000000000
0.5583437085 0.0065383734 0.0000000007
0.6534558535 0.0047083362 0.0019626464
0.7235653400 0.0162085444 0.0017195484
0.7633818984 0.0155106280 0.0012288876
0.7805985212 0.0114584919 0.0007990012
0.7994008064 0.0274431780 0.0109976120
0.0000000000 0.0000000015 0.0000000000
0.0000000015 0.0000000015 0.0000000000
0.0984157473 0.0016980610 0.0001084117
0.3156665564 0.0000000015 0.0001503255
0.5049778819 0.0000000015 0.0000000000
0.5712203979 0.0021794587 0.0000000007
0.6692897677 0.0022959320 0.0006542162
0.7407076359 0.0329174809 0.0009592739
0.7780897617 0.0366271585 0.0008674190
0.7955853343 0.0365226306 0.0026582505
0.8105500340 0.0488193370 0.0130620534
0.0000000005 0.0640168115 0.0000018343
0.0000000015 0.0771364123 0.0000055015
0.0777850449 0.0831836760 0.0000000000
0.3168885112 0.0859604031 0.0001342312
0.5544830561 0.1480317712 0.0014329389
0.6018891335 0.0820053518 0.0004776470
0.7044702172 0.0709803402 0.0003772882
0.7669126987 0.1075121984 0.0006200320
0.8005248904 0.1053218022 0.0005999983
0.8184161782 0.0984868705 0.0042273379
0.8288595676 0.0967426896 0.0167024415
0.0009039804 0.1835573167 0.0261457209
0.0001703999 0.2715204060 0.0001947517
0.0000000030 0.2720071673 0.0000000000
0.2725060284 0.2666062117 0.0002034445
0.4818237424 0.2801886499 0.0005964764
0.5720877051 0.2159419805 0.0004261558
0.6908066869 0.1891963035 0.0011380531
0.7603995204 0.2142379135 0.0011095606
0.8049643040 0.2014846355 0.0007790912
0.8321249485 0.1850470901 0.0053322162
0.8453266621 0.1714894772 0.0172427166
0.0014266958 0.2925998271 0.0644223914
0.0000568017 0.3591872156 0.0184899792
0.0000000030 0.4154046476 0.0000000000
0.2725731730 0.4165793955 0.0008593395
0.4428353310 0.4375705421 0.0000000000
0.5367206931 0.3607249260 0.0001420524
0.6560632586 0.3261653483 0.0009365372
0.7275514007 0.3205042779 0.0013823902
0.7879357338 0.3020044863 0.0010236927
0.8303191662 0.2820143104 0.0044146706
0.8523983359 0.2613645792 0.0144174770
0.0030133759 0.3737605214 0.1341445744
0.0012522467 0.4180180132 0.0806024000
0.0004174175 0.4805569351 0.0268841628
0.1020143628 0.4904309213 0.0093762865
0.3076978624 0.4958463609 0.0032014425
0.4643720388 0.4672161639 0.0011144988
0.6037257314 0.4470369816 0.0006836792
0.6943932176 0.4253419936 0.0006886902
0.7684343457 0.4061810076 0.0006718611
0.8223531842 0.3892874718 0.0050992807
0.8540019393 0.3661577702 0.0136397406
0.0038703661 0.4535406530 0.1527607143
0.0033257566 0.4944263399 0.1240833402
0.0021536616 0.5464683175 0.0643748417
0.0347226821 0.5775653720 0.0247296449
0.2168244869 0.5844844580 0.0100561017
0.3866667747 0.5678357482 0.0037235341
0.5229212046 0.5387395024 0.0014690715
0.6524575353 0.5227639675 0.0007192546
0.7507658005 0.5104485750 0.0004973947
0.8114838600 0.4981295764 0.0030113787
0.8508994579 0.4770795107 0.0112116067
0.0054954793 0.5210505724 0.1824417412
0.0054340218 0.5522733331 0.1666097194
0.0047485079 0.5999836922 0.1223210022
0.0138968257 0.6443591118 0.0641742423
0.1225308254 0.6601554751 0.0300444812
0.2887476683 0.6555333138 0.0130230160
0.4455389678 0.6378795505 0.0054196999
0.5991458297 0.6253216863 0.0022426536
0.7235431075 0.6170774102 0.0009900248
0.7960822582 0.6047332287 0.0017412999
0.8446949124 0.5873100162 0.0111515010
0.0070290738 0.5853456855 0.1982322633
0.0071031600 0.6090536118 0.1867588609
0.0068425895 0.6499331594 0.1541893035
0.0093763238 0.6938192844 0.1044087410
0.0599980205 0.7102933526 0.0571250506
0.1934048086 0.7176933885 0.0280741304
0.3575731516 0.7154200673 0.0129247596
0.5283690691 0.7142283916 0.0057079662
0.6804043651 0.7138141990 0.0024756098
0.7781720757 0.7071388364 0.0064524040
0.8402594924 0.6950240731 0.0176390409
0.0098768957 0.6424261928 0.2132487595
0.0103143016 0.6595546603 0.2054164857
0.0112382127 0.6931736469 0.1827558279
0.0138653554 0.7333303094 0.1454515010
0.0383156203 0.7547400594 0.1003404558
0.1260227561 0.7663865089 0.0593522675
0.2713730633 0.7722558975 0.0320683643
0.4437986314 0.7792467475 0.0184165966
0.6143459678 0.7866402268 0.0145544605
0.7418375611 0.7884258628 0.0203134511
0.8258543611 0.7840125561 0.0325260945
0.0150467884 0.6940977573 0.2256132960
0.0160039533 0.7062084079 0.2204184085
0.0183935817 0.7324368954 0.2050983757
0.0228319634 0.7661955953 0.1787090153
0.0373745784 0.7894113660 0.1432364136
0.0853573084 0.7994064689 0.0973544121
0.1999489516 0.8071715832 0.0588887334
0.3624950647 0.8187155724 0.0349911936
0.5411919355 0.8326547742 0.0277979132
0.6920816898 0.8430833817 0.0335032009
0.7993200421 0.8473293781 0.0493319444
0.0000000000 0.0000000000 0.0028673105
0.0018141660 0.0000000000 0.0016136559
0.0988294259 0.0000000000 0.0000000015
0.3045004010 0.0000000000 0.0000000015
0.4870333374 0.0017470981 0.0000000015
0.6343561411 0.0000000000 0.0000000015
0.7485679984 0.0028782992 0.0039252918
0.7936747670 0.0277087539 0.0014764505
0.8031984568 0.0148127116 0.0007382268
0.7978150845 0.0074063558 0.0003691149
0.8182030320 0.0434278622 0.0211962219
0.0000000000 0.0026338459 0.0037448907
0.0034019987 0.0049266601 0.0027232042
0.1080118492 0.0101889241 0.0000000015
0.3147446811 0.0000000015 0.0000000015
0.5069175959 0.0000000015 0.0000000015
0.6503396034 0.0000000015 0.0000000015
0.7831928730 0.0000000015 0.0000000015
0.8292676806 0.0802479610 0.0005040571
0.8301796913 0.0614533611 0.0004140956
0.8280676007 0.0614822395 0.0063083307
0.8366639614 0.0824922025 0.0255302954
0.0000000000 0.1149140224 0.0000000015
0.0000000015 0.0881308243 0.0000000015
0.0784712285 0.0908723548 0.0000000015
0.3206464350 0.0787185505 0.0000000015
0.5353285670 0.0711598694 0.0000000015
0.6799638867 0.0958048254 0.0000000015
0.8422316909 0.1286397427 0.0000000015
0.8555603623 0.2186387777 0.0005235338
0.8565721512 0.1718260497 0.0003125441
0.8591384292 0.1536161900 0.0094237644
0.8576126099 0.1429218501 0.0328179337
0.0025415409 0.2151346952 0.0782405809
0.0000000015 0.2558794022 0.0000000015
0.0000000030 0.2600726485 0.0000000015
0.2601079941 0.2535762191 0.0000000015
0.4748343229 0.2620158494 0.0000000015
0.6325502396 0.2856319845 0.0002043439
0.7958621979 0.2806665897 0.0026107153
0.8234791160 0.3460052311 0.0015705969
0.8539684415 0.2848942280 0.0006277147
0.8729944825 0.2551697493 0.0109902183
0.8749954700 0.2326786518 0.0296934936
0.0033193054 0.3350549042 0.1486314535
0.0000000022 0.3906365335 0.0552751869
0.0000000030 0.4619535208 0.0003527679
0.1592871845 0.4387632906 0.0000000015
0.4255260527 0.4263651371 0.0001697524
0.5952389836 0.4286621809 0.0000000015
0.7406622767 0.4285748303 0.0015295063
0.7661913037 0.4211095273 0.0021010726
0.8312914968 0.3840245008 0.0009095967
0.8708967566 0.3589913547 0.0068881041
0.8815490603 0.3305899203 0.0215950459
0.0046000560 0.4549212456 0.2038667649
0.0006865627 0.5211063027 0.0891726241
0.0000000030 0.6082481146 0.0000500915
0.0330525115 0.5741563439 0.0003853582
0.3782438934 0.5595375896 0.0002280406
0.5486975312 0.5450772643 0.0000000015
0.6907417774 0.5477294326 0.0000000015
0.7519025803 0.5084847212 0.0000000015
0.8229742646 0.4911966324 0.0003032004
0.8683062196 0.4796670377 0.0102113103
0.8872542977 0.4478212297 0.0214024633
0.0047273566 0.5333207846 0.1713768393
0.0048546572 0.6117203236 0.1388869137
0.0027178105 0.6644217968 0.0421570130
0.0000000119 0.6957968473 0.0004378011
0.3080529571 0.6800415516 0.0022372196
0.4788037241 0.6518067122 0.0000000015
0.5783711076 0.6013458371 0.0000000015
0.7400581241 0.6042104363 0.0000000020
0.8314056396 0.6024008393 0.0001010685
0.8613325953 0.5946526527 0.0034374604
0.8872125149 0.5669512153 0.0169837009
0.0071205925 0.5885605216 0.2121227682
0.0074808295 0.6413430572 0.1933041066
0.0066578402 0.7012095451 0.1359784454
0.0022192881 0.7555281520 0.0454720818
0.1368711740 0.7516229749 0.0159031022
0.3570454121 0.7386087775 0.0053010359
0.5249480009 0.7193658352 0.0017670136
0.6994409561 0.7153215408 0.0005890062
0.8207176328 0.7154620290 0.0002300259
0.8532197475 0.6989927292 0.0012224964
0.8871031404 0.6801173091 0.0205015969
0.0085626682 0.6496407986 0.2140227705
0.0088463854 0.6895418763 0.1954345703
0.0086761015 0.7407622337 0.1534880400
0.0073895566 0.7871657014 0.0948626995
0.0480869114 0.7769053578 0.0369219333
0.2314687520 0.7872536182 0.0140743246
0.4337756634 0.7906873822 0.0052804467
0.6283882856 0.8019433618 0.0019564852
0.7893008590 0.8101367950 0.0007288380
0.8580296040 0.8028691411 0.0151403034
0.8979114890 0.7906234264 0.0353132188
0.0127247181 0.6995067000 0.2282652408
0.0139628490 0.7271840572 0.2162418365
0.0165577456 0.7700330615 0.1886617094
0.0209815297 0.8129979968 0.1491899490
0.0410834886 0.8205966353 0.0984448195
0.1463478506 0.8267261982 0.0496422239
0.3305232525 0.8349611759 0.0239280630
0.5316537023 0.8512559533 0.0174734574
0.7188348174 0.8668598533 0.0227711778
0.8329947591 0.8714984059 0.0399334915
0.8954660296 0.8685877919 0.0596257932
0.0202166811 0.7457693815 0.2379778326
0.0226507690 0.7649726868 0.2302254438
0.0279385746 0.7979285121 0.2121209055
0.0362369530 0.8328196406 0.1855771691
0.0509761535 0.8472985625 0.1506597549
0.0926745906 0.8424215317 0.0894745365
0.2431164533 0.8498523831 0.0472434349
0.4437376559 0.8697283268 0.0276682470
0.6467347741 0.8926084638 0.0338480845
0.7932155728 0.9081694484 0.0523982458
0.8800242543 0.9148922563 0.0819665417
0.0000000000 0.0000000000 0.1889189482
0.0238166098 0.0000000000 0.1676775217
0.1415083110 0.0004281269 0.1614247113
0.3419538140 0.0000000000 0.1067439243
0.5110955238 0.0022263180 0.0409454033
0.6425864100 0.0000000000 0.0144932922
0.7808253169 0.0000000000 0.0000000030
0.8031887412 0.0000000000 0.0000000030
0.8127220869 0.0019166691 0.0000000030
0.7924317122 0.0000000000 0.0000000030
0.8385909796 0.0794493705 0.0420233272
0.0000000000 0.0320372470 0.1669621319
0.0313207507 0.0372965336 0.1660276204
0.1437720507 0.0379317962 0.1632548124
0.3532379270 0.0000000015 0.1057587489
0.5247431397 0.0000000015 0.0511810482
0.6678922772 0.0000000015 0.0314929225
0.8337233663 0.0000000015 0.0000000030
0.8490497470 0.0221051183 0.0009886358
0.8580728173 0.0892994255 0.0000000030
0.8562081456 0.1155869961 0.0181417819
0.8637211919 0.1425665021 0.0490863360
0.0000000000 0.1366258413 0.1574636102
0.0213193092 0.1516891271 0.1629226506
0.1635450423 0.1683163494 0.1692219228
0.3674024940 0.1358309090 0.0972706228
0.5489355326 0.1115475222 0.0481394902
0.6898154616 0.1372916549 0.0360245109
0.8393220901 0.1457951367 0.0226215925
0.9009703398 0.1812713593 0.0000000030
0.8839764595 0.2353859991 0.0000000030
0.8927755952 0.2275402993 0.0216504186
0.8770353794 0.1926571727 0.0634997487
0.0076246210 0.2746106982 0.2347217351
0.0000000015 0.3402092457 0.0879375115
0.0477920361 0.3127217889 0.0396460444
0.3076165617 0.3038818836 0.0298362840
0.5004274845 0.3064675033 0.0147698186
0.6599155068 0.3242543936 0.0062951539
0.8310372233 0.3364710808 0.0000000030
0.9083837271 0.3362396359 0.0000000030
0.8818540573 0.3368513584 0.0000000030
0.9058766365 0.3269988596 0.0229191780
0.8943794370 0.2999443114 0.0452723317
0.0074163736 0.3993934691 0.3123785853
0.0000000020 0.4540766776 0.1654727906
0.0000000030 0.4728311300 0.0000000030
0.1892860681 0.4489496946 0.0000000030
0.4445239902 0.4421503842 0.0004172760
0.6079864502 0.4481014013 0.0085242772
0.7838765979 0.4638929665 0.0000000030
0.9178260565 0.4592685401 0.0000000030
0.8737148046 0.4460696876 0.0000000030
0.9084041715 0.4377798140 0.0087644961
0.8987548947 0.4000997245 0.0282035414
0.0097942995 0.5086026192 0.3737961948
0.0020596830 0.5644343495 0.2121925801
0.0000000030 0.6161148548 0.0000000030
0.0432930887 0.5775911212 0.0000000030
0.4052272141 0.5692351460 0.0000000030
0.5653190017 0.5714995861 0.0000000030
0.7318092585 0.5804880857 0.0054626022
0.9235198498 0.5815404654 0.0000000030
0.8857287169 0.5810806751 0.0000000030
0.9110477567 0.5888130069 0.0234426260
0.9119076133 0.5332066417 0.0324010290
0.0085604182 0.5638521314 0.2768346965
0.0111595988 0.6496329904 0.2853311002
0.0081534162 0.6892204285 0.1259831488
0.0000000119 0.7102698088 0.0000000030
0.2673173249 0.6882050633 0.0000000030
0.5140987635 0.6834418178 0.0000000030
0.7359918356 0.7355037928 0.0341063775
0.8899005651 0.7028008699 0.0000000030
0.9311845899 0.7117956281 0.0000000030
0.8842859864 0.7018899918 0.0000000030
0.9130505919 0.6583797336 0.0261111781
0.0095138289 0.6438002586 0.2528686821
0.0104672387 0.7237483263 0.2289026529
0.0097748796 0.7978636622 0.1724742055
0.0000000119 0.8695779443 0.0000000030
0.1003412828 0.8192993402 0.0000000030
0.4554613531 0.8123965859 0.0000000030
0.6394274831 0.8181429505 0.0000000030
0.8333168030 0.8223882914 0.0000000030
0.9313063025 0.8286637664 0.0000000030
0.8776090741 0.7868634462 0.0000000030
0.9208772182 0.7744078040 0.0432985909
0.0100047439 0.7107210159 0.2159227729
0.0104956590 0.7776417732 0.1789768636
0.0105240792 0.8315352201 0.1290510893
0.0112732798 0.8652067184 0.0856279656
0.0000000060 0.7919273973 0.0000000030
0.2892739773 0.8462466002 0.0000000030
0.5449101925 0.8654427528 0.0000000030
0.7519482374 0.8998211622 0.0000000030
0.9187965989 0.9130049944 0.0000000030
0.9315680861 0.8994778991 0.0434695780
0.9486016631 0.8888838291 0.0702977553
0.0168867689 0.7493726015 0.2425077111
0.0203174427 0.7925035357 0.2250256985
0.0270342845 0.8421528935 0.1962552518
0.0389972888 0.8817951679 0.1640454531
0.0541820265 0.8718865514 0.1092225909
0.1664913148 0.8723282218 0.0364075340
0.4114462137 0.8874699473 0.0168615226
0.6360496879 0.9168634415 0.0265358221
0.8355498910 0.9391868114 0.0501112342
0.9221198559 0.9447663426 0.0818889886
0.9554917216 0.9436417222 0.1036306843
0.0277086422 0.7920320034 0.2476904392
0.0337727703 0.8219647408 0.2364566326
0.0446072035 0.8587796092 0.2174756080
0.0597907603 0.8875324130 0.1954206675
0.0756080151 0.8884792328 0.1679573208
0.0806997791 0.8532397747 0.0681216195
0.3061515093 0.8721745610 0.0283277184
0.5564427972 0.9080765843 0.0182878505
0.7776317596 0.9412372708 0.0511048324
0.8999171853 0.9604013562 0.0834131613
0.9513912797 0.9679195881 0.1338755935
0.0064041815 0.0259495862 0.5837488770
0.0532305874 0.0142673189 0.5386554003
0.1868863702 0.0026045954 0.5021784306
0.3869898617 0.0004776159 0.4953368008
0.5455725789 0.0000000000 0.4683037698
0.6679830551 0.0000000000 0.4265991747
0.8154633045 0.0000000000 0.3692029119
0.8400914073 0.0043951748 0.3379102647
0.8432437778 0.0122163733 0.2488325089
0.8731357455 0.0851343721 0.0809993967
0.8847501874 0.1588987410 0.0840466544
0.0135451211 0.0716998875 0.5300366282
0.0519071110 0.0615868978 0.5221483707
0.1808222532 0.0455819257 0.5021960735
0.3921873868 0.0254523642 0.4851236641
0.5551293492 0.0281135179 0.4436418414
0.6975502968 0.0459333919 0.4114691019
0.8690924644 0.0541491248 0.3554255664
0.8956045508 0.1005811766 0.3258337975
0.9032736421 0.1657947749 0.1971923113
0.9181198478 0.2574615479 0.0544253401
0.8963646293 0.2326631248 0.0870939121
0.0084055187 0.1906683594 0.5027379394
0.0413115621 0.1924691647 0.5032203197
0.1803786755 0.1943678260 0.4715300798
0.3909048736 0.1845470220 0.4441352189
0.5583029985 0.1862978190 0.4126850963
0.6949715614 0.2069310397 0.3724098802
0.8493163586 0.2199376673 0.3314764202
0.9242058992 0.2393783480 0.2952033579
0.9243361950 0.2726035416 0.2362202555
0.9381421804 0.3316478729 0.0468094759
0.8746094108 0.2078646868 0.1197624877
0.0228738617 0.3469969928 0.4587641060
0.0000000015 0.3858446181 0.4373466074
0.1504169554 0.3886664212 0.4302156866
0.3867163062 0.3908291757 0.3974153697
0.5690623522 0.3973565996 0.3846010864
0.7021622658 0.3966243565 0.3490251005
0.8598961234 0.3842819333 0.3186185062
0.9837895632 0.4086383879 0.2542673647
0.9611068964 0.4148610234 0.2325238734
0.9430002570 0.4166048765 0.0471071191
0.9002264738 0.3801769018 0.0493980572
0.0146244988 0.4694930613 0.5369412303
0.0000000015 0.5491897464 0.4084808528
0.0296175703 0.5569248796 0.3594918549
0.3207795620 0.5285971165 0.3315769434
0.5281936526 0.5242024660 0.3232559562
0.6686017513 0.5230005980 0.3053823113
0.8387051821 0.5359200239 0.2249258310
0.9763368964 0.5254672170 0.2498721182
0.9679331779 0.5380185843 0.2211686224
0.9456211329 0.5402709246 0.0033743065
0.8934811950 0.4625750482 0.0305738039
0.0199068412 0.5619799495 0.5968174338
0.0061790440 0.6231114864 0.4711049497
0.0000000030 0.6810182929 0.3231446147
0.1886701435 0.6472357512 0.2635669708
0.4775957465 0.6309043169 0.2638300061
0.6336692572 0.6398816705 0.2764841318
0.7780328393 0.6372358203 0.2639597058
0.9561782479 0.6502968073 0.2209433317
0.9757791758 0.6402984262 0.1934078187
0.9657722116 0.6345015168 0.0850060061
0.9259201288 0.6107071042 0.0455569178
0.0172443185 0.6070254445 0.4638232291
0.0232656971 0.6952442527 0.5178175569
0.0244602337 0.7412768006 0.3779494464
0.0292231366 0.7717134356 0.2252673060
0.3868469894 0.7504878640 0.1820290536
0.5657504201 0.7291768193 0.2126188725
0.7905076146 0.7890143991 0.2495303005
0.8943763375 0.7580472231 0.2269235402
0.9834150672 0.7570394874 0.2032390684
0.9739393592 0.7545719147 0.1180920079
0.9429581165 0.7400424480 0.0459325016
0.0150198424 0.6673624516 0.3653595150
0.0183013827 0.7512617111 0.3793865740
0.0211712103 0.8347925544 0.3914394677
0.0000000119 0.8997876048 0.2090639621
0.1997784376 0.8746681213 0.1191711947
0.5364791155 0.8683145642 0.1343049705
0.6711518764 0.8448772430 0.1762504131
0.8904604912 0.8873027563 0.2336174250
1.0000000000 0.8834225535 0.1844615340
0.9805389047 0.8876489401 0.1195141822
0.9719719887 0.8779801726 0.1037845910
0.0139676854 0.7255520225 0.2845927775
0.0168784708 0.7985725403 0.2724960744
0.0218383688 0.8668141365 0.2591248155
0.0338198207 0.9341147542 0.2568838894
0.0000000060 0.9353250265 0.0764050260
0.3768282235 0.9572481513 0.0171553809
0.5929321647 0.9787973762 0.0515364744
0.8160439730 0.9923433065 0.0838424191
0.9954659343 0.9977607131 0.1342174858
0.9982985854 0.9985651970 0.1304087341
0.9933595657 0.9927657247 0.1241250858
0.0237687938 0.7880241871 0.2690926492
0.0335699022 0.8504962921 0.2535925210
0.0502613336 0.9024200439 0.2346889675
0.0786843002 0.9380259514 0.2102531195
0.1235487834 0.9419371486 0.1636223346
0.1560179293 0.8988513947 0.0000000119
0.5229371190 0.9246387482 0.0141770290
0.7447545528 0.9632992148 0.0627459437
0.9518035054 0.9876919389 0.1237978861
0.9992415905 0.9956342578 0.1520861536
0.9957534671 0.9972750545 0.1587052792
0.0385305136 0.8346914649 0.2528731823
0.0532922298 0.8813587427 0.2366537303
0.0730145574 0.9122211933 0.2197149396
0.0957677811 0.9220223427 0.2047409117
0.1128512695 0.9060187340 0.1992286891
0.0000000000 0.7989118695 0.0000000119
0.4263085425 0.8758138418 0.0000000119
0.7271272540 0.9351918101 0.0000000119
0.9409025908 0.9764485359 0.0849154070
1.0000000000 0.9952005744 0.1172456667
0.9987650514 0.9997157454 0.2145829201
0.0264495555 0.0805142224 0.9333931208
0.1259834617 0.0441080146 0.8860136271
0.2478800714 0.0131487977 0.8480067849
0.4131298959 0.0006800230 0.7954682708
0.5664370656 0.0085781971 0.7509523034
0.7014459968 0.0319999009 0.7096196413
0.8576831222 0.0340728946 0.6515311599
0.8905447125 0.0456360541 0.6265978813
0.8921225071 0.0675451308 0.5982856154
0.9346019626 0.2509722114 0.4997128248
0.9160816669 0.2361430973 0.3266276419
0.0272379294 0.1474259645 0.8980368972
0.1046056822 0.1270595193 0.8564122319
0.2395055145 0.1075425968 0.8151614666
0.4197532833 0.1052994132 0.7520029545
0.5750177503 0.1414367259 0.7029365301
0.7123213410 0.1799581051 0.6652253270
0.8736554384 0.1960001290 0.6258545518
0.9339829087 0.2070504725 0.5651875138
0.9331759810 0.2652022839 0.5664222836
0.9556438327 0.3572516441 0.5172972679
0.9288929105 0.2985583246 0.3961234391
0.0241614040 0.2606711686 0.8147652149
0.0857100412 0.2598893344 0.7994956970
0.2274323851 0.2497464865 0.7602735162
0.4184675813 0.2431943119 0.7025946975
0.5766170025 0.2694353759 0.6641295552
0.7188114524 0.2870694101 0.6383318901
0.8742675781 0.2866628766 0.5894627571
0.9585382342 0.3103168309 0.5816215873
0.9503284693 0.3275478184 0.5529225469
0.9619487524 0.3971919119 0.4487801790
0.9346703291 0.3057601154 0.5839791894
0.0000000000 0.4222518504 0.6891368032
0.0168439616 0.4204199910 0.7007742524
0.1932542771 0.4193196297 0.6760082841
0.4046119452 0.4151043892 0.6286154389
0.5650322437 0.4198159575 0.6013118029
0.7059075236 0.4199411869 0.5827145576
0.8564429879 0.4218736589 0.5531106591
0.9845499992 0.4276583791 0.5177571774
0.9699126482 0.4445025325 0.5250070691
0.9761888385 0.4828867614 0.3899515271
0.9841437340 0.4799778163 0.5867592096
0.0209996346 0.5122925043 0.7435786724
0.0000000015 0.5641767979 0.6298494935
0.0994421542 0.5580968857 0.6032590270
0.3676747084 0.5483907461 0.5749014616
0.5431868434 0.5499877334 0.5565368533
0.6845456362 0.5523841977 0.5375084877
0.8359993696 0.5633339286 0.5306711197
0.9930058122 0.5517176986 0.4951113462
0.9876660109 0.5603483915 0.4867783487
0.9958456159 0.5963926911 0.3566354215
1.0000000000 0.5895822048 0.5145428181
0.0389169790 0.5933352113 0.7824060917
0.0185371265 0.6391264200 0.6816893220
0.0000000030 0.6902368665 0.5602138638
0.2836509049 0.6711241007 0.5333425999
0.5036313534 0.6593860388 0.5132923126
0.6539554596 0.6617518067 0.5095641613
0.8092615008 0.6675789356 0.4943374395
0.9666975141 0.6736693978 0.4790124595
1.0000000000 0.6748282909 0.4688372612
0.9891300797 0.6918351054 0.3558122516
0.9988364577 0.6840987206 0.4368636310
0.0317730345 0.6405683756 0.6502091885
0.0391578116 0.7213444710 0.7043983340
0.0441575609 0.7710986137 0.5854363441
0.1324726790 0.7954084277 0.4875032902
0.4414765239 0.7735759616 0.4691204727
0.6167971492 0.7711177468 0.4677166045
0.7799908519 0.7820408344 0.4559695423
0.9264159203 0.7720583081 0.4390918612
1.0000000000 0.7878897786 0.4268114567
1.0000000000 0.7941164970 0.4136790931
1.0000000000 0.7952122092 0.4023148119
0.0263212454 0.6955235600 0.5241995454
0.0321708582 0.7786397934 0.5570299625
0.0390533805 0.8633131385 0.5873050094
0.0000000119 0.9372419715 0.4262815118
0.3016857207 0.9080702662 0.3983020186
0.5660123229 0.8984982967 0.3973639905
0.7213377953 0.8868058920 0.4084197879
0.9116368890 0.9075923562 0.3653160334
1.0000000000 0.9015858173 0.3656777442
1.0000000000 0.9076065421 0.3764626086
1.0000000000 0.9005488157 0.3934073746
0.0248925760 0.7488398552 0.4110859931
0.0343887992 0.8254439831 0.4244656563
0.0541170649 0.8991196752 0.4438708723
0.1014594436 0.9672316909 0.4851826727
0.1291789412 0.9937674403 0.3540265560
0.4494470954 0.9942188859 0.3213465810
0.6193850636 1.0000000000 0.3325532675
0.8228889704 1.0000000000 0.3451941013
1.0000000000 0.9927903414 0.3697242141
1.0000000000 0.9941788912 0.3559240103
1.0000000000 0.9878075123 0.3833515346
0.0325110219 0.8009913564 0.3409003019
0.0488716923 0.8661101460 0.3425222635
0.0786563754 0.9223902225 0.3495086133
0.1315907240 0.9656309485 0.3699659109
0.2146284431 0.9916350842 0.4144620001
0.2903914154 0.9826920033 0.2963366807
0.6737650633 0.9992809296 0.3531027138
0.9053176641 1.0000000000 0.3788094819
1.0000000000 1.0000000000 0.3541959226
1.0000000000 1.0000000000 0.3589846790
1.0000000000 1.0000000000 0.4056916237
0.0461107790 0.8427080512 0.2958136797
0.0672908053 0.8924412727 0.2936675847
0.0997084752 0.9298549294 0.3018268049
0.1474545151 0.9549534917 0.3362568319
0.2150050402 0.9772071838 0.4340637028
0.2215505540 0.9422739744 0.2519600093
0.4165529907 0.9906672835 0.2006665915
0.6415365934 1.0000000000 0.2442853898
0.8437533975 1.0000000000 0.2732079923
0.9962328672 1.0000000000 0.3028204143
1.0000000000 1.0000000000 0.2966420650
0.1053183153 0.1805306822 0.9922221303
0.2601218224 0.1642331928 0.9734233022
0.3395339549 0.1289556473 0.9638541937
