darktable/luts/own/velvia.cube
TITLE "Generated by darktable_lut_creator
LUT_3D_SIZE 9
0.0000000000 0.0000000000 0.0000000000
0.0000000000 0.0000000000 0.0000000000
0.2220247239 0.0000000000 0.0000000000
0.4669976532 0.0012866160 0.0000000000
0.6537168622 0.0000000000 0.0000000000
0.7656201124 0.0000000000 0.0000000000
0.7912142277 0.0000000000 0.0020510240
0.8175590634 0.0000000000 0.0000000000
0.8484248519 0.1060681716 0.0176370461
0.0000000000 0.0000000000 0.0000000000
0.0000000000 0.0000000000 0.0000000000
0.2028152943 0.0000000000 0.0000000000
0.5115414858 0.0000000000 0.0000009773
0.6620402932 0.0000000000 0.0000000000
0.7900060415 0.0000000000 0.0000000000
0.8117329478 0.0000000000 0.0000000000
0.8471299410 0.0355363414 0.0000000000
0.8792906404 0.2121363431 0.0352740921
0.0000000000 0.3361896276 0.0000000000
0.0000000000 0.1576053500 0.0000000000
0.1291708946 0.1821801364 0.0000000000
0.5600962043 0.1608654857 0.0000000000
0.7012187839 0.1081494987 0.0000000000
0.8905171156 0.1369217187 0.0000000000
0.8937799931 0.2334476113 0.0009050560
0.9078394175 0.2740483582 0.0000000000
0.8479495645 0.2439270765 0.0783356950
0.0000000000 0.4718166590 0.0184542630
0.0000000000 0.6644165516 0.0000000003
0.0000000000 0.4635372758 0.0000000000
0.4012068212 0.4368810654 0.0000000000
0.6548733711 0.4171537161 0.0000000000
0.8730330467 0.4099640548 0.0000000000
0.8874636292 0.3850758970 0.0000000000
0.9185380936 0.4334001243 0.0000000000
0.8890089393 0.4182708263 0.0000000000
0.0004175059 0.5375338197 0.0577035584
0.0000000000 0.6289417148 0.0229443591
0.0000000000 0.6435547471 0.0000000000
0.1971013546 0.6058332920 0.0000000000
0.5810238123 0.5898457766 0.0000000000
0.7852426171 0.5726101995 0.0000000000
0.9845551252 0.5446121693 0.0000000000
0.8414689302 0.6026563048 0.0000000000
1.0000000000 0.5710762143 0.0544972084
0.0038098216 0.6142352223 0.1100337878
0.0056836582 0.6855096221 0.0501776487
0.0157196131 0.7342404723 0.0000000000
0.0471588373 0.7854304910 0.0000000000
0.4963320494 0.7508140206 0.0000000000
0.7201299667 0.7574012876 0.0000000000
0.9073654413 0.7399188280 0.0000000000
0.8993151784 0.7361931205 0.0000000000
0.9561480284 0.7350413799 0.1200515255
0.0050643939 0.7014274597 0.1034814417
0.0063189664 0.7886196971 0.0969290957
0.0060868096 0.8717297912 0.0303573832
0.0000000000 0.9894050360 0.0000000158
0.2523486614 0.9427385330 0.0000000000
0.6350244880 0.9050451517 0.0000000000
0.8975051641 0.9113531113 0.0000000000
0.9792125225 0.9523501396 0.0029351846
0.9819134474 0.9524301291 0.2005235553
0.0144056538 0.7753598094 0.0960637480
0.0237469133 0.8492921591 0.0886460468
0.0411748588 0.9099646211 0.0803629979
0.0798126310 0.9274940491 0.0281084497
0.1811262071 0.8550714254 0.0000000000
0.4739099741 0.9341753125 0.0000000000
0.8931430578 0.9782365561 0.0000000000
1.0000000000 0.9813610315 0.0686790496
0.9861053228 0.9972133040 0.1465693563
0.0324765369 0.8318688869 0.0908957049
0.0505474173 0.8883779645 0.0857276618
0.0773479193 0.9274637699 0.0828092843
0.1135209873 0.9449629784 0.0852555707
0.2202623338 0.9374921918 0.0714774802
0.4796607494 0.9574053884 0.1700771302
0.6293446422 0.9829529524 0.3486223817
0.9440596700 1.0000000000 0.2760049403
1.0000000000 0.9996809959 0.2841041386
0.0000000000 0.0000000000 0.0021770447
0.0112723410 0.0000000000 0.0104648620
0.2112349272 0.0000000000 0.0000000000
0.4712080061 0.0017838515 0.0000000000
0.6564900279 0.0000000000 0.0000000000
0.7772051692 0.0000000000 0.0000000000
0.7897652984 0.0000000000 0.0385845900
0.8672536612 0.0283886790 0.0401491597
0.8861569762 0.1638008207 0.0284242630
0.0000000000 0.0000000000 0.0101197958
0.0261587799 0.0407689065 0.0281329602
0.2672066987 0.0000000000 0.0000000000
0.5079092979 0.0000000000 0.0000000000
0.6644561291 0.0000000000 0.0000000000
0.7948142290 0.0000000000 0.0000000000
0.8220706582 0.0000000000 0.0100237802
0.8506886959 0.0361869335 0.0432005301
0.9427924156 0.3569456339 0.0274865851
0.0000000000 0.2623791099 0.0000000000
0.0000000000 0.1900905967 0.0000000000
0.1088141054 0.1800051183 0.0000000000
0.5478233695 0.1157652885 0.0000000000
0.6930347681 0.1441228092 0.0000000000
0.9128895998 0.1382082403 0.0000000000
0.8936363459 0.1697848141 0.0000000075
0.9262690544 0.3237657547 0.0028640628
0.9248768687 0.2837231755 0.1096881554
0.0000000000 0.4148438275 0.0553627871
0.0000000000 0.5168192983 0.0000000000
0.0000000000 0.4288384914 0.0000000000
0.3663291037 0.4024976790 0.0000000000
0.6359924078 0.3911993802 0.0000000000
0.8770539761 0.3948954940 0.0000000000
0.9255995750 0.4125880599 0.0000000000
0.8977495432 0.4474112391 0.0000000000
0.9613103271 0.4506314695 0.1007145196
0.0012525178 0.5118430257 0.1317120492
0.0000000000 0.5788538456 0.0688330755
0.0000000000 0.6477252841 0.0000000000
0.1658278406 0.5882617831 0.0000000000
0.6049572825 0.5637051463 0.0000000000
0.7721984982 0.5550996661 0.0000000000
0.9497402906 0.5781030655 0.0000000000
0.9082213640 0.5801072121 0.0000000000
0.9513708353 0.6093509197 0.0886614621
0.0053282999 0.6196622252 0.2222201824
0.0013313611 0.6933465004 0.1275885850
0.0000000000 0.7737361193 0.0000000000
0.0000000000 0.7731713057 0.0000000000
0.4633607268 0.7506065369 0.0000000000
0.7124752402 0.7357385159 0.0000000000
0.9380123019 0.7404325604 0.0000000000
0.9394366145 0.7703664303 0.0267692208
0.9629602432 0.7447485328 0.1287406683
0.0058597084 0.7099030614 0.1786512882
0.0071864319 0.8086195588 0.2102522403
0.0025408149 0.8915438652 0.0910721347
0.0000000000 0.9583094716 0.0000000000
0.2529614568 0.9190768600 0.0000000000
0.6454830170 0.9191584587 0.0000000000
0.8937069178 0.9385474324 0.0000000000
0.9778347015 0.9254221916 0.0238060877
0.9760168791 0.9496946335 0.1428872943
0.0143727297 0.7827078700 0.1450740546
0.0228528287 0.8628606200 0.1605071425
0.0376251377 0.9306700230 0.1826231480
0.0583116822 0.9380055070 0.0843253359
0.1022991836 0.8813443780 0.0000000000
0.5290261507 0.9322051406 0.0000000000
0.8363777995 0.9498691559 0.0000000000
1.0000000000 0.9956350327 0.0421885103
1.0000000000 1.0000000000 0.1692937911
0.0295298193 0.8375164866 0.1216313168
0.0417401977 0.8979725242 0.1289241761
0.0518203527 0.9426788688 0.1405377388
0.0404880084 0.9699027538 0.1561807841
0.0000000000 1.0000000000 0.0443553105
0.3357276917 0.9550879598 0.1616089940
0.6561616063 0.9965746403 0.2831324935
0.9470085502 0.9989183545 0.2829613686
1.0000000000 1.0000000000 0.2740630507
0.0000000000 0.0000000000 0.2967449427
0.0586713552 0.0000000000 0.2914128900
0.2852006257 0.0000000000 0.2914448977
0.5211155415 0.0037802986 0.2303452045
0.6747809649 0.0000000000 0.2109461427
0.8117631674 0.0000000000 0.2422838360
0.8319381475 0.0000000000 0.3148437142
0.8745878935 0.0943430364 0.3189347982
0.8890855908 0.1971096247 0.2157903910
0.0000000000 0.0601246133 0.3091318011
0.0778224543 0.0688077286 0.3024390638
0.2925735712 0.0000000000 0.2943988442
0.5182134509 0.0000000000 0.2046621293
0.6856223345 0.0000000000 0.2095145285
0.8449397683 0.0000000000 0.2063325942
0.8336511850 0.0000000000 0.3342442214
0.9058369994 0.1263632327 0.2681075633
0.9065120220 0.3331850171 0.3000121117
0.0000000000 0.1929186285 0.4190104902
0.0000000000 0.2866860032 0.2705495358
0.2889244556 0.2883742750 0.2860601544
0.6022130847 0.2446895540 0.2235833555
0.7273412943 0.1896804124 0.2101514041
0.9198875427 0.1890145838 0.2516264021
0.9149359465 0.2207317650 0.2720743418
0.9217231274 0.2844927907 0.2726138532
0.9705598354 0.3809420466 0.3124269843
0.0000000000 0.4653330743 0.1660883576
0.0000000000 0.5744036436 0.0792545676
0.0458595008 0.4985826910 0.1201364249
0.4883099794 0.4708498418 0.1444789469
0.6900022626 0.4587801099 0.0937683433
0.9168835878 0.4536069036 0.0699994564
0.9878536463 0.4836128354 0.2630154192
0.9467898607 0.4475116134 0.2119896263
1.0000000000 0.5659230947 0.3490024507
0.0037575534 0.5418314338 0.2709402740
0.0000000000 0.5720168948 0.2064992338
0.0000000000 0.6774200201 0.0808339417
0.2779434025 0.6352537274 0.0730646551
0.6235460043 0.6239239573 0.1012388617
0.8833709955 0.6277831197 0.1182580292
1.0000000000 0.5927774906 0.1750185192
0.9571337104 0.6416805387 0.2373403311
0.9966267943 0.6144806147 0.2957008183
0.0134010203 0.6537971497 0.4073599279
0.0039940835 0.7274494171 0.3139326870
0.0000000000 0.8893255591 0.1503621489
0.0464923382 0.8149615526 0.0634657592
0.4975280166 0.7673323154 0.0545407534
0.7963582873 0.8242914081 0.1791811287
1.0000000000 0.7750100493 0.1209938079
0.9704882503 0.7793454528 0.1963460892
0.9905856252 0.7976036072 0.2464204580
0.0123159485 0.7348895073 0.3327023983
0.0176871195 0.8409684300 0.4120960236
0.0076224450 0.9425859451 0.2732163966
0.0000000000 1.0000000000 0.1415086687
0.3279103041 0.9795814753 0.0237230361
0.6779572368 0.9295973778 0.0584796816
0.9322691560 0.9813842177 0.1976406425
1.0000000000 0.9709538221 0.1646209210
0.9990954399 0.9680138826 0.2654757202
0.0191809889 0.8021202087 0.2642671764
0.0308542866 0.8887632489 0.3150250614
0.0520229153 0.9624608159 0.3724719584
0.0726358518 0.9743627906 0.2529760003
0.1104065478 0.9258080125 0.1505389363
0.5649884939 0.9798167944 0.1149303019
0.9098784328 0.9913553596 0.1013037413
1.0000000000 1.0000000000 0.1958229244
1.0000000000 1.0000000000 0.2480260879
0.0304880142 0.8516214490 0.2095483541
0.0427532308 0.9152277112 0.2427465469
0.0556652062 0.9589474797 0.2842904627
0.0631523505 0.9717027545 0.3398617208
0.0000000000 0.9422416091 0.1871316731
0.3841063380 0.9834136963 0.3200692534
0.6471891999 1.0000000000 0.3752839863
0.9365744591 0.9999678731 0.3529710174
1.0000000000 0.9998863339 0.3592329323
0.0091421008 0.0140710035 0.7205300331
0.0953996480 0.0000000000 0.7181077003
0.3319166899 0.0000000000 0.7175699472
0.5432794690 0.0000000000 0.6971150637
0.7103339434 0.0000000000 0.6310356855
0.8552576303 0.0000000000 0.5937780142
0.8589381576 0.0000000000 0.6017123461
0.9183414578 0.1757226139 0.5205432177
0.9332376122 0.2813851237 0.3635011911
0.0140419584 0.0761517584 0.7292811871
0.1069547385 0.0469352007 0.7537504435
0.3232122958 0.0000000000 0.7127726078
0.5528608561 0.0000000000 0.6869587898
0.7248709798 0.0000000000 0.6320436001
0.8847804070 0.0000000000 0.5876794457
0.8950056434 0.0481871292 0.5714905262
0.9219254255 0.2018187195 0.5816676617
0.9922859669 0.4713231325 0.3541699350
0.0144628184 0.3266947269 0.6960830688
0.0000000000 0.3148510754 0.7103790641
0.3409712613 0.3027646542 0.6609247923
0.5830599070 0.2814062834 0.5918475986
0.7368634939 0.2570299506 0.5733742714
0.9350663424 0.2518547475 0.5123359561
0.9325524569 0.2537714839 0.5618696809
0.9384293556 0.3706177771 0.4757246971
1.0000000000 0.3974056840 0.6167116165
0.0000000000 0.6286768913 0.0000000000
0.0000000000 0.5561295748 0.5609868169
0.1984273344 0.5569107533 0.5718029737
0.5379830003 0.5150693059 0.5161211491
0.7234785557 0.5047519803 0.5215899944
0.9537953138 0.4840088189 0.5016106367
1.0000000000 0.4772902727 0.5027769804
0.9747703075 0.5318876505 0.4972833991
1.0000000000 0.5254604816 0.4933966696
0.0112726605 0.5881443620 0.4402332306
0.0000000000 0.4642269611 0.4594091773
0.0000000000 0.7191514969 0.4953344464
0.3992300034 0.6877281666 0.4654678106
0.6745511293 0.6654214263 0.4339825511
0.8770879507 0.6600158215 0.4611255527
1.0000000000 0.6428837776 0.4444026351
1.0000000000 0.6625997424 0.4717133641
1.0000000000 0.6742556095 0.4762768447
0.0324514247 0.6921105981 0.6372067332
0.0119822500 0.7210058570 0.5849366784
0.0000000000 0.8724802732 0.4877864718
0.1842860430 0.8683131933 0.4037399888
0.5558493137 0.8193623424 0.3859275281
0.8380792737 0.8334373832 0.3385202289
1.0000000000 0.8496145010 0.3984397948
1.0000000000 0.7980051041 0.4002903104
1.0000000000 0.8157797456 0.4492366910
0.0287374035 0.7599566579 0.5396826863
0.0414448306 0.8528699279 0.6491389871
0.0228673350 0.9384321570 0.5277784467
0.0000000000 1.0000000000 0.3650566041
0.4045552015 1.0000000000 0.3345746994
0.7437772155 0.9932065010 0.3513263464
0.9781570435 0.9651271105 0.3325364292
1.0000000000 0.9770246744 0.3604108393
1.0000000000 0.9503332376 0.4230293036
0.0324294157 0.8220329881 0.4408040941
0.0493698530 0.9040222764 0.5184624791
0.0758104324 0.9704337716 0.5912235379
0.1075010002 0.9972804189 0.4668804109
0.2084444165 0.9918412566 0.3633909523
0.6006283760 1.0000000000 0.3359181285
0.9562345743 1.0000000000 0.3108913600
1.0000000000 1.0000000000 0.3010675311
1.0000000000 1.0000000000 0.4083050191
0.0404045545 0.8684638143 0.3552515209
0.0582962334 0.9317371845 0.4154020548
0.0827656165 0.9759616256 0.4849971533
0.1168211922 0.9985036850 0.5794774890
0.0983168185 0.9993296266 0.5122446418
0.4278662205 1.0000000000 0.4279402196
0.6451909542 1.0000000000 0.4892347157
0.9119448066 0.9998504519 0.5008621216
1.0000000000 1.0000000000 0.4729655981
0.0316730440 0.0800829455 0.9752613902
0.2327980250 0.0282290317 0.9547568560
0.3787291050 0.0167331696 0.9408394098
0.5585323572 0.0098187709 0.9084770679
0.7460741997 0.0298750661 0.8990811706
0.9142524600 0.0489867628 0.8662451506
0.9119020104 0.1118140519 0.8651847839
0.9449194670 0.2646971941 0.7662262917
0.9445888400 0.3235845864 0.6120692492
0.0644952133 0.1493293792 0.9963083267
0.2240057886 0.1289693564 0.9872673750
0.3791759610 0.0990384221 0.9459700584
0.5718892813 0.0963742584 0.9093585014
0.7569617033 0.1143838614 0.8910145164
0.9178649187 0.1194724217 0.8398799300
0.9270263314 0.1580884159 0.8345721960
0.9594981670 0.2920813859 0.7296023965
0.9556093216 0.4246714413 0.7064802647
0.0476873890 0.3631532490 0.9819701910
0.1458989829 0.3553749919 0.9285680056
0.3720721304 0.3362362683 0.8888102770
0.5752083659 0.3129240274 0.8574933410
0.7654532194 0.3234155178 0.8267527223
0.9470484257 0.2950683832 0.7949960232
0.9659761786 0.3254533410 0.7873756886
0.9733077288 0.3904181719 0.7022467852
1.0000000000 0.5401808023 0.7128368020
0.0000000000 0.5793342590 0.8198219538
0.0000000000 0.5535271764 0.8468502164
0.2913714051 0.5409258604 0.8012701273
0.5375410318 0.5251982212 0.7645933032
0.7377856970 0.5137786269 0.7336792946
0.9382045269 0.5013732910 0.7172349691
1.0000000000 0.5061988235 0.7169330120
0.9947879314 0.5369092822 0.7059387565
1.0000000000 0.6235207319 0.6963803768
0.0338179804 0.6715292335 0.8612905145
0.0000000000 0.7499403954 0.7655115128
0.0628366321 0.7094201446 0.7225468159
0.4587750137 0.6881573200 0.6865492463
0.6748017073 0.6740106344 0.6771194935
0.8907141685 0.6619492769 0.6534473896
1.0000000000 0.6613074541 0.6421065927
1.0000000000 0.6580045223 0.6831567287
1.0000000000 0.7030509710 0.6508320570
0.0740993619 0.7671816349 0.8864502311
0.0359467492 0.8263102174 0.8076143265
0.0000000000 0.8764184117 0.6826670170
0.2614351213 0.8632647395 0.6149259210
0.6173554063 0.8367338181 0.5894124508
0.8088442087 0.8178809881 0.5895805955
1.0000000000 0.7868503928 0.5575928092
1.0000000000 0.8133487701 0.5991038084
1.0000000000 0.7985422611 0.6479941010
0.0641072243 0.8087699413 0.7536115646
0.0894849077 0.8991715908 0.8347018361
0.0686020032 0.9428161979 0.7304923534
0.0637022555 1.0000000000 0.5852349997
0.4607165754 1.0000000000 0.5513860583
0.7025073171 0.9811170697 0.5052487850
0.9438405037 0.9835891724 0.4966741502
1.0000000000 0.9638583660 0.5574874282
0.9980527163 0.9597047567 0.6253033280
0.0583919585 0.8523545861 0.6350470185
0.0786392391 0.9262608886 0.7107253671
0.0970629528 0.9755887389 0.7790117860
0.1140585840 1.0000000000 0.6721937060
0.2784734964 1.0000000000 0.5518730879
0.6322984695 1.0000000000 0.5486032367
0.9477092028 1.0000000000 0.5254002810
1.0000000000 1.0000000000 0.5045089126
1.0000000000 1.0000000000 0.5903112888
0.0601647906 0.8893263340 0.5301623940
0.0816978589 0.9471606612 0.6001887321
0.1081581041 0.9834837914 0.6744387746
0.1446457505 0.9989010692 0.7593073845
0.1828259826 0.9975397587 0.7106359601
0.4396656156 1.0000000000 0.5963374972
0.6522741318 0.9995377660 0.6388136148
0.9250497818 0.9997451901 0.6469837427
1.0000000000 0.9998281002 0.6082198620
0.1330997646 0.2055407166 0.9769874811
0.3395302296 0.1598327011 0.9469760656
0.4487989545 0.1506112516 0.9411956072
0.6018192768 0.1487582773 0.9424775839
0.7682123184 0.1597904712 0.9390106201
0.9434511065 0.1696222425 0.9438850880
0.9339487553 0.1868403405 0.9528616667
0.9751089811 0.3507605791 0.9441024661
0.9656624794 0.3780328333 0.7737786174
0.1230025440 0.2601194382 0.9872037172
0.3244063258 0.2239933908 0.9628041983
0.4470329881 0.2165396214 0.9706793427
0.6030777693 0.2179128826 0.9728790522
0.7756131887 0.2137035728 0.9607720375
0.9420374036 0.2224024236 0.9660915136
0.9597630501 0.2543022037 0.9690151215
0.9762598872 0.3905820549 0.9565198421
0.9772897363 0.4597534239 0.7651641965
0.1549638510 0.4047908783 1.0000000000
0.3090789318 0.3976738155 1.0000000000
0.4365028739 0.3793727756 1.0000000000
0.6054306030 0.3634583354 1.0000000000
0.7668851614 0.3617930412 1.0000000000
0.9632501006 0.3651749790 0.9931169748
0.9805844426 0.3713475168 0.9887970686
0.9944513440 0.4725635350 0.9655939341
1.0000000000 0.5640068054 0.6324926615
0.1036784202 0.5563092232 1.0000000000
0.1241404861 0.5663306713 1.0000000000
0.3797044754 0.5548724532 1.0000000000
0.5693479180 0.5428737402 1.0000000000
0.7435373664 0.5295871496 0.9893184304
0.9650225639 0.5280463099 0.9899734259
1.0000000000 0.5277647972 0.9863634706
1.0000000000 0.5759316683 0.9382305145
1.0000000000 0.6576693058 0.6882606745
0.1014539376 0.6853130460 0.9985381961
0.0000000000 0.7016253471 1.0000000000
0.2090920359 0.7042396069 0.9714951515
0.4996781349 0.6869239807 0.9484996796
0.6891825199 0.6787965894 0.9078209400
0.8828151822 0.6550589800 0.9172607660
1.0000000000 0.6469160914 0.9016745090
0.9965244532 0.6845415235 0.9222670794
1.0000000000 0.7587676048 0.7538502216
0.1525333673 0.8037054539 0.9904457927
0.1078402475 0.8525719643 0.9746644497
0.0000000000 0.8560905457 0.9239933491
0.3599855900 0.8553484082 0.8856076598
0.6025538445 0.8251262903 0.8639776707
0.8384947181 0.8335113525 0.8382830620
1.0000000000 0.8473244905 0.8663281202
1.0000000000 0.8089778423 0.8037952185
0.9972566366 0.8603525162 0.8471366763
0.1268488616 0.8469545841 0.9033520818
0.1639059931 0.9283882976 0.9659988284
0.1421037465 0.9520301819 0.9235751033
0.1623480171 1.0000000000 0.8467319608
0.4901923835 0.9973611832 0.7611140013
0.7778010368 0.9909338951 0.7916709185
0.9927828908 0.9552724361 0.7950565219
1.0000000000 0.9609423876 0.7534242272
1.0000000000 0.9351419210 0.8208785057
0.1007551178 0.8818362355 0.8029189706
0.1170245111 0.9461997151 0.8703578115
0.1085282937 0.9839499593 0.9343493581
0.0000000000 1.0000000000 0.8794729710
0.3444926143 1.0000000000 0.8028509021
0.6285288334 1.0000000000 0.7652543783
0.9349149466 1.0000000000 0.7317392230
1.0000000000 1.0000000000 0.7202374935
1.0000000000 1.0000000000 0.7774084806
0.0888216794 0.9106348157 0.7004907727
0.1055451259 0.9607419968 0.7683911324
0.1179130152 0.9888656735 0.8346268535
0.1370526701 0.9991633892 0.8950924873
0.1741202474 0.9978938103 0.8058046103
0.4760520160 0.9995872378 0.8004672527
0.6946202517 0.9999728799 0.7793759108
0.9184150696 1.0000000000 0.8070350885
1.0000000000 0.9999665618 0.7664079666
0.2247449905 0.3320422173 0.9901504517
0.4237971306 0.2944684625 0.9836058021
0.5105731487 0.2716975808 0.9689695835
0.6435769796 0.2661321461 0.9605879188
0.7969432473 0.2633527815 0.9553036690
0.9533949494 0.2703408897 0.9492210746
0.9606884122 0.3065489829 0.9551883936
0.9841722846 0.4344381988 0.9909207821
0.9800745845 0.4473567307 0.8954736590
0.2614163756 0.3666101098 0.9941785336
0.4482289851 0.3112276793 0.9884802699
0.5030802488 0.3180350363 0.9729725122
0.6425677538 0.3107289970 0.9674700499
0.8005469441 0.3161967993 0.9593558311
0.9603354335 0.3127429485 0.9568699598
0.9781698585 0.3455965519 0.9693775177
0.9954666495 0.4662069976 1.0000000000
0.9903890491 0.5295992494 0.9217213988
0.2480183095 0.4562144279 0.9982891083
0.3884912431 0.4426387548 0.9924592972
0.4881269038 0.4346005023 0.9905675054
0.6300731897 0.4252912700 0.9780947566
0.7929245234 0.4197819829 0.9819182158
0.9602023363 0.4326552153 0.9814774394
1.0000000000 0.4425458610 0.9883170128
1.0000000000 0.5334832668 1.0000000000
0.9984106421 0.6628373861 1.0000000000
0.2316758782 0.5913487673 0.9996244311
0.3383192718 0.5776180625 1.0000000000
0.4419702888 0.5744528770 1.0000000000
0.6012810469 0.5620464087 1.0000000000
0.7645146847 0.5570399761 1.0000000000
0.9536331892 0.5591241121 1.0000000000
1.0000000000 0.5710399151 1.0000000000
1.0000000000 0.5940399766 1.0000000000
1.0000000000 0.7389444113 1.0000000000
0.2006833851 0.7980046868 0.9956146479
0.1300701052 0.7284886837 1.0000000000
0.3528243005 0.7057884336 1.0000000000
0.5414577723 0.7003357410 1.0000000000
0.7080556750 0.6865861416 1.0000000000
0.9243062735 0.6806461811 1.0000000000
1.0000000000 0.6804802418 1.0000000000
1.0000000000 0.6954568624 1.0000000000
1.0000000000 0.8121985197 0.9435921311
0.2483059019 0.8732314706 0.9981346726
0.3235207498 1.0000000000 1.0000000000
0.1696139425 0.8742399812 1.0000000000
0.4333802760 0.8504327536 1.0000000000
0.6459471583 0.8482636213 1.0000000000
0.8366193175 0.8315227032 1.0000000000
1.0000000000 0.8482730985 1.0000000000
1.0000000000 0.7982534170 1.0000000000
0.9995086789 0.9105368853 0.9162191153
0.2056429237 0.9002495408 0.9670811296
0.2417740077 0.9805626273 0.9997567534
0.2639632523 1.0000000000 1.0000000000
0.2839548588 0.9982912540 1.0000000000
0.5374578238 0.9865114689 1.0000000000
0.8129286766 0.9754149914 1.0000000000
0.9525215030 0.9536497593 0.9539331198
1.0000000000 0.9633631706 0.9670501947
0.9935424328 0.9342844486 0.9428032041
0.1623859853 0.9192044139 0.9089016914
0.1807598919 0.9755273461 0.9567048550
0.1834811419 0.9998196959 1.0000000000
0.1107943356 1.0000000000 1.0000000000
0.4124237001 1.0000000000 0.9888551831
0.6571196914 1.0000000000 0.9596737623
0.9327024817 1.0000000000 0.9382919669
1.0000000000 1.0000000000 0.8980180621
1.0000000000 0.9996759892 0.9213290215
0.1354894787 0.9357645512 0.8331276774
0.1552607864 0.9774544239 0.8899905682
0.1794773191 0.9960939288 0.9448756576
0.2370377779 0.9995962977 1.0000000000
0.3265636265 0.9990679026 1.0000000000
0.4902696609 0.9997876287 0.9364238381
0.7077158093 0.9994663000 0.9132516980
0.9426743388 0.9996319413 0.9120840430
1.0000000000 1.0000000000 0.8945190907
0.2936557233 0.4013454318 0.9950201511
0.5465952754 0.3454657197 0.9826226234
0.5727638006 0.3685815036 0.9811914563
0.6921041012 0.3480522037 0.9735840559
0.8369535804 0.3464958370 0.9792972207
0.9890708923 0.3419662416 0.9766925573
0.9724544287 0.3611903489 0.9778563976
1.0000000000 0.5093137622 0.9973869324
0.9922314286 0.5189865232 0.9554795623
0.3266013265 0.4220635295 0.9958100915
0.4811497331 0.3901519477 0.9885596037
0.5618893504 0.3819437623 0.9864071608
0.6653101444 0.3414932489 0.9867261648
0.8519089222 0.4131067395 0.9793878198
0.9937018752 0.3338592350 0.9874314666
0.9785656929 0.4476149976 0.9790782928
1.0000000000 0.5332604647 1.0000000000
0.9966197610 0.6002890468 0.9735779762
0.3051245809 0.4856051207 1.0000000000
0.4936565757 0.4520950615 1.0000000000
0.5568419695 0.4790795445 0.9984308481
0.6557332873 0.4418615699 1.0000000000
0.8260432482 0.4442292750 0.9983720183
1.0000000000 0.4257556796 1.0000000000
1.0000000000 0.4679085612 0.9970425963
1.0000000000 0.5875875950 1.0000000000
0.9994702339 0.7380075455 0.9990124106
0.2863845825 0.5795344114 1.0000000000
0.4045602679 0.5945467353 1.0000000000
0.5006512403 0.5785961151 1.0000000000
0.6232377291 0.5608888865 1.0000000000
0.7944277525 0.5514561534 1.0000000000
0.9783923626 0.5668077469 1.0000000000
1.0000000000 0.5615457296 1.0000000000
0.9992571473 0.6328728199 1.0000000000
1.0000000000 0.9635977745 0.9970371723
0.2558333278 0.6840998530 0.9998754263
0.3094735742 0.7185589671 1.0000000000
0.4246980250 0.7120230794 0.9996590614
0.5832883120 0.7123895884 0.9986730814
0.7425307035 0.7017403841 0.9989116192
0.9309386611 0.6849776506 0.9990918040
1.0000000000 0.6761468053 0.9998331666
0.9995337129 0.7141878009 1.0000000000
1.0000000000 0.9276360869 1.0000000000
0.2207135558 0.8216898441 0.9987893701
