darktable/luts/astia_profiled_xt3.cube
# Generated by darktable_lut_creator: https://github.com/wilecoyote2015/darktabe_lut_generator
# Calculated for Higlight clipping, gamut compression=3 in color balance and custon x-t3 input profile; tetrahedral interpolation.
TITLE "Custom Profile for Fuji X-T3"
LUT_3D_SIZE 11
0.0000000000 0.0000000000 0.0000000000
0.0296102278 0.0000000000 0.0000000000
0.1196846962 0.0000000000 0.0000000000
0.2844191194 0.0000000000 0.0000099510
0.4575727880 0.0127085140 0.0008498512
0.5228995681 0.0072620632 0.0004249263
0.6025949717 0.0036310316 0.0002124639
0.6754570007 0.0186915100 0.0471518897
0.7309215069 0.0177837517 0.0890055075
0.7789469361 0.0350002795 0.1414881349
0.8157627583 0.0573869720 0.1881647706
0.0000000000 0.0200098176 0.0000000000
0.0249246340 0.0311908107 0.0000000000
0.1314367354 0.0452177562 0.0000000000
0.3013939559 0.0221611466 0.0001363033
0.4645839930 0.0000000015 0.0039129071
0.5305486321 0.0024206887 0.0014459450
0.6096441746 0.0020172407 0.0005528035
0.6865879893 0.0406549014 0.0517452918
0.7435712814 0.0481429435 0.1021966040
0.7906555533 0.0671789721 0.1531439275
0.8243618011 0.0832743868 0.1947844774
0.0077034621 0.0873497128 0.0060034753
0.0172748212 0.0937005579 0.0000000000
0.1127486080 0.0994296446 0.0000000000
0.2786684334 0.0896992311 0.0000868881
0.4496482909 0.0782388300 0.0003512916
0.5395351052 0.0725361258 0.0005990794
0.6292612553 0.0704401433 0.0003839615
0.7055661678 0.1165667474 0.0511015169
0.7616062760 0.1095136032 0.1006820574
0.8080266118 0.1249515116 0.1553877145
0.8383247256 0.1315684915 0.1956701875
0.0077536851 0.1750008315 0.0318888016
0.0000000015 0.2237104326 0.0001679297
0.0693884343 0.2213968486 0.0001057167
0.2594302893 0.2302362323 0.0000000157
0.4359015822 0.2421109676 0.0005865723
0.5296998024 0.2011709660 0.0003952177
0.6338565946 0.1932196617 0.0002597269
0.7164558768 0.2364991456 0.0488679111
0.7796975970 0.2180863172 0.1031012908
0.8288216591 0.2230736464 0.1599640697
0.8573057055 0.2142249346 0.1989900619
0.0172212850 0.2680782080 0.0728754774
0.0212588385 0.3167151213 0.0234735981
0.0498196706 0.3789149821 0.0008584312
0.2499872893 0.3966817260 0.0000813769
0.4240911305 0.4009044766 0.0000000000
0.5168204904 0.3470446765 0.0001317397
0.6230280399 0.3344220817 0.0001304894
0.7144024968 0.3655098975 0.0399310254
0.7910580039 0.3462208509 0.1004258320
0.8468597531 0.3445602357 0.1606066376
0.8778248429 0.3248965740 0.2033531070
0.0212692618 0.3430413008 0.1492550075
0.0188045334 0.3741584122 0.0942752585
0.0228747353 0.4215581417 0.0317112319
0.1459927559 0.4497790635 0.0105975354
0.3255917728 0.4651152194 0.0035325123
0.4700540006 0.4561362267 0.0012214178
0.5974209905 0.4574631751 0.0004506362
0.7096680999 0.4702284634 0.0174939875
0.7964325547 0.4607480466 0.0843072608
0.8586757183 0.4612886608 0.1489045024
0.8944807649 0.4417305887 0.1990702748
0.0285663158 0.4140043557 0.1731889099
0.0312601179 0.4466977417 0.1453584284
0.0351048037 0.4843893945 0.0787173137
0.0793304816 0.5102161765 0.0315232463
0.2379016876 0.5272844434 0.0116852531
0.4030279815 0.5341530442 0.0043022241
0.5485978723 0.5443738103 0.0015842873
0.6762785316 0.5576329827 0.0276284460
0.7812130451 0.5598375201 0.0833041742
0.8581476808 0.5626518726 0.1298877746
0.9035086632 0.5490629673 0.1822974235
0.0429105908 0.4762980938 0.2114668489
0.0481839180 0.5022194386 0.1979028434
0.0569134392 0.5379078388 0.1526399702
0.0822153613 0.5671076775 0.0927182734
0.1871780753 0.5872732997 0.0452446826
0.3405305147 0.6026638150 0.0199968070
0.4954877794 0.6194117665 0.0149690919
0.6351074576 0.6356959939 0.0403976180
0.7562974095 0.6472157836 0.0898362994
0.8478290439 0.6551377773 0.1282130927
0.9041213989 0.6473206878 0.1753815860
0.0621221177 0.5344699621 0.2366049588
0.0683123618 0.5541710854 0.2274739742
0.0794042423 0.5856716633 0.1963882297
0.0979122221 0.6163825393 0.1464782953
0.1481619626 0.6335465908 0.0840919837
0.2744834125 0.6510944963 0.0425847620
0.4323329031 0.6755099297 0.0244059172
0.5862576365 0.7031347156 0.0383235849
0.7248758674 0.7254188657 0.0799398050
0.8310255408 0.7377397418 0.1225727573
0.8982663155 0.7347658277 0.1722776294
0.0833744779 0.5863521099 0.2602317333
0.0893719569 0.6007972360 0.2543208897
0.1019872949 0.6280512214 0.2340066880
0.1209912226 0.6595378518 0.1977709979
0.1517147571 0.6812453270 0.1418991536
0.2402249426 0.7009313107 0.0868199468
0.3777389824 0.7267503738 0.0529473312
0.5309799314 0.7580915093 0.0538277663
0.6785274148 0.7861868739 0.0869934484
0.7986827493 0.8040692806 0.1310968399
0.8801717758 0.8080180287 0.1811266989
0.1079190969 0.6346794367 0.2801461220
0.1136134192 0.6453979611 0.2763448954
0.1269032210 0.6683382392 0.2632480562
0.1470502019 0.6980845928 0.2383634299
0.1722054929 0.7230281234 0.1967740804
0.2251949906 0.7404973507 0.1371538639
0.3344059885 0.7646992207 0.0883754715
0.4785420895 0.7968450189 0.0725256503
0.6285562515 0.8282415271 0.0965313986
0.7587278485 0.8511160016 0.1407144815
0.8532273173 0.8619351387 0.1929234862
0.0000000000 0.0060522556 0.0565004461
0.0394575074 0.0106203314 0.0440315194
0.1345090866 0.0124666495 0.0306107718
0.2980742455 0.0000000000 0.0000000015
0.4612374008 0.0000000000 0.0000000015
0.5882263780 0.0018156125 0.0000000015
0.6822903156 0.0000000000 0.0000000015
0.7483189702 0.0337519869 0.0940913185
0.7863860130 0.0168759935 0.1308591217
0.8269723654 0.0522168055 0.1939707696
0.8525786400 0.0797736645 0.2348413914
0.0000000000 0.0489832796 0.0639805421
0.0453994647 0.0505860895 0.0439105555
0.1490312517 0.0684134439 0.0435019806
0.3068010509 0.0347761437 0.0000000015
0.4754868150 0.0037794034 0.0000000015
0.6041622162 0.0000000015 0.0000000015
0.6957889199 0.0000000015 0.0000000015
0.7746626735 0.1012559608 0.1075311825
0.8132044673 0.0859901831 0.1658390015
0.8494485021 0.1183937117 0.2157470435
0.8666670322 0.1252572089 0.2430447787
0.0058355648 0.1483387649 0.0180104263
0.0447572097 0.1226900145 0.0344039500
0.1237841174 0.1163125411 0.0110069988
0.2968948185 0.1062887833 0.0000000015
0.4932464063 0.1177630648 0.0000000015
0.6384083033 0.1369488537 0.0000000015
0.7386045456 0.1367670745 0.0000000015
0.8008491397 0.2386052012 0.1011753008
0.8356814384 0.1638311148 0.1487480849
0.8718180656 0.1981619596 0.2123371810
0.8825858235 0.1864795834 0.2368384004
0.0155575918 0.2139423639 0.0894949958
0.0000000015 0.2307994664 0.0000000015
0.0615890883 0.2309809625 0.0000000015
0.2588202059 0.2348487377 0.0000000015
0.4598347545 0.2599886656 0.0000000015
0.6136627793 0.2888658047 0.0000000015
0.7426087856 0.3080479205 0.0000000015
0.8099448085 0.3997110426 0.0952424929
0.8610305786 0.3082462251 0.1597539037
0.8987407088 0.3261831105 0.2214032263
0.9047706723 0.2880326509 0.2413359135
0.0226513296 0.3125186563 0.1632640511
0.0139568439 0.3475199938 0.0693944320
0.0093616182 0.3900704086 0.0000000015
0.2301819324 0.3993126154 0.0000000015
0.4384362996 0.4158906639 0.0000000015
0.5966704488 0.4390585721 0.0000000015
0.7184070945 0.4630019069 0.0000000015
0.8037235141 0.5256084800 0.0707946792
0.8790739179 0.4550662935 0.1582451612
0.9206995368 0.4643861949 0.2214300483
0.9293090701 0.4159045219 0.2504626215
0.0253172368 0.4180043638 0.2256345302
0.0138854990 0.4627188146 0.1100971699
0.0000000030 0.5116010308 0.0000000015
0.1651162356 0.5310973525 0.0000000015
0.4066914320 0.5446620584 0.0000000015
0.5677497387 0.5562487245 0.0000000015
0.6991810203 0.5818312764 0.0000000015
0.8171807528 0.5877124071 0.0121003008
0.8885715604 0.5657947659 0.1350019574
0.9327347875 0.5785576701 0.2017995864
0.9469418526 0.5390064716 0.2449532300
0.0358633697 0.4849674106 0.1971228123
0.0464094989 0.5519304872 0.1686110944
0.0511795543 0.5849122405 0.0590822659
0.0568938814 0.5964800715 0.0052548912
0.3087828159 0.6065219641 0.0000000015
0.5011282563 0.6190384626 0.0000000015
0.6453446150 0.6415051818 0.0000000015
0.7705695629 0.6582967639 0.0638070628
0.8709280491 0.6611316204 0.1379768252
0.9345542789 0.6668293476 0.1574546248
0.9578974247 0.6428063512 0.2179342657
0.0572548620 0.5385918617 0.2497447729
0.0703810528 0.5836624503 0.2368832380
0.0874515995 0.6271147132 0.1812997609
0.1104021594 0.6531988978 0.0939915851
0.2414171547 0.6674278378 0.0313305296
0.4313854277 0.6865651011 0.0104435114
0.5973349214 0.7111977935 0.0233261790
0.7335560322 0.7300432324 0.0785953179
0.8525717854 0.7461138368 0.1458071023
0.9290420413 0.7555456758 0.1649151891
0.9610263705 0.7377613187 0.2156342119
0.0813336447 0.5926418304 0.2617430687
0.0946310535 0.6258238554 0.2479141206
0.1129869446 0.6649360061 0.2090507299
0.1321170777 0.6963681579 0.1503283828
0.1593955755 0.6969839931 0.0605529696
0.3347578049 0.7170731425 0.0236654952
0.5270275474 0.7560234666 0.0156638920
0.6913325787 0.7981982827 0.0501672290
0.8320725560 0.8259060979 0.1116595194
0.9203715324 0.8326625824 0.1595653743
0.9596520066 0.8192370534 0.2188785523
0.1046268344 0.6382342577 0.2838584781
0.1164290532 0.6618685126 0.2752569616
0.1371856928 0.6976847649 0.2513109446
0.1630741358 0.7341797948 0.2128279656
0.1859911084 0.7506515980 0.1438344568
0.2944766581 0.7704541087 0.0759759322
0.4606591761 0.8038098812 0.0476161428
0.6289432645 0.8443894386 0.0702123865
0.7797264457 0.8750503063 0.1272127628
0.8864952922 0.8882811069 0.1837243289
0.9435663223 0.8852190971 0.2400055975
0.1324637234 0.6830068231 0.3000605106
0.1435492039 0.7007172704 0.2945677042
0.1651089638 0.7315654755 0.2793926299
0.1932561398 0.7663776278 0.2540712059
0.2178514749 0.7897544503 0.2100596875
0.2631545365 0.7975324988 0.1278675646
0.4002839029 0.8268499374 0.0750252008
0.5702402592 0.8677445054 0.0753737167
0.7285993099 0.9016926885 0.1300750971
0.8489447236 0.9210371971 0.1945152134
0.9207823277 0.9266714454 0.2569293082
0.0083641894 0.0627332628 0.2186055779
0.0679507777 0.0614943840 0.1842243522
0.1549578756 0.0538663492 0.1667101830
0.3224704862 0.0120307636 0.1109386683
0.4872086644 0.0000000000 0.0758180246
0.6132419109 0.0016156019 0.1081566587
0.7070867419 0.0029629543 0.1433854401
0.7880038619 0.0000000000 0.1747427583
0.8244530559 0.0000000000 0.1676269323
0.8675586581 0.0875576213 0.2570824325
0.8781849146 0.1073305160 0.2757120132
0.0127768070 0.0811044276 0.1914591789
0.0749533921 0.0890506655 0.1818555892
0.1536235958 0.0847980902 0.1680351645
0.3255238533 0.0558598638 0.1170853004
0.4977246523 0.0471120849 0.0984476656
0.6326189637 0.0464288853 0.1180090681
0.7291268706 0.0770996064 0.1903109848
0.8273499012 0.0651626885 0.2214182317
0.8785647154 0.1398385912 0.2591267228
0.9081687927 0.2169741392 0.2874313891
0.8979739547 0.1776042432 0.2785458863
0.0233837496 0.1452704221 0.1751689762
0.0725077540 0.1584908664 0.1794568747
0.1693368554 0.1751538962 0.1798256487
0.3400827944 0.1654393673 0.1295418888
0.5181268454 0.1677937210 0.1084090620
0.6534537673 0.1740142405 0.1359226108
0.7532424927 0.1751102656 0.1727411300
0.8539978266 0.1793375015 0.2082834095
0.8929905891 0.1668979526 0.1792299300
0.9303243756 0.3122610748 0.2725163996
0.9092724323 0.2360195965 0.2551332414
0.0408372097 0.2626889050 0.2504745424
0.0238434095 0.3086400926 0.1550090313
0.1287798584 0.3003981411 0.1202415228
0.3232973814 0.3087568283 0.1024236381
0.5146891475 0.3313086629 0.0884807706
0.6688919067 0.3579683304 0.1386778057
0.7884331346 0.3782530129 0.1861506850
0.8835021853 0.3654768169 0.2149327844
0.9374654293 0.3611965179 0.2352711260
0.9633734822 0.4721411467 0.2921185791
0.9329854846 0.3514353037 0.2657660544
0.0384395532 0.3760936260 0.3309027255
0.0325089134 0.4216901362 0.2081833035
0.0730439052 0.4476711452 0.0569296591
0.2859614491 0.4505526125 0.0425258540
0.4883241057 0.4706809819 0.0654013604
0.6388857961 0.4900191128 0.1111201122
0.7677933574 0.5107458234 0.1643849313
0.8755827546 0.5261111259 0.2002837360
0.9724677801 0.5313440561 0.2441869080
0.9842839241 0.6119090915 0.2846417427
0.9624569416 0.4952947199 0.2886218429
0.0394148789 0.4787755311 0.4035423696
0.0276996493 0.5290353894 0.2608970702
0.0000000030 0.5826122165 0.0660244972
0.2159032226 0.5741768479 0.0130568184
0.4576504230 0.5883278251 0.0398085266
0.6164609194 0.6055642962 0.0936665684
0.7472055554 0.6251783371 0.1272249222
0.8635635376 0.6454647183 0.1730682850
0.9694598913 0.6546055079 0.2346604019
0.9889332652 0.7054920793 0.2489667684
0.9787817001 0.6225572228 0.2825974524
0.0498138927 0.5239678025 0.3124396801
0.0741634294 0.6081605554 0.3366538584
0.0966447815 0.6466556191 0.1719918996
0.1418064237 0.6654746532 0.0000000030
0.4032123089 0.6795926094 0.0006726252
0.6052904129 0.7063944340 0.0220211428
0.7721492052 0.7601739168 0.1557406932
0.8491833806 0.7456727624 0.1793208867
0.9536430836 0.7593033314 0.2151214331
1.0000000000 0.7607987523 0.1325874627
0.9921960235 0.7225832939 0.2513949573
0.0786463544 0.5922163725 0.3023667336
0.1074788123 0.6604650021 0.2922938168
0.1407942027 0.7127695084 0.2479337901
0.1868609786 0.7360017300 0.0954201147
0.3050664365 0.7425625920 0.0000000030
0.5516108274 0.7732288837 0.0000000030
0.7152746916 0.8055230975 0.0595350266
0.8327636719 0.8206351995 0.1486527175
0.9532314539 0.8471666574 0.2208491564
1.0000000000 0.8536939621 0.1914838403
0.9961395264 0.8149320483 0.2640531957
0.1054124236 0.6466917992 0.2737413943
0.1321784854 0.7011672258 0.2451160699
0.1568781585 0.7418694496 0.1979383230
0.1729621142 0.7709694505 0.1479428560
0.1046525091 0.7271559238 0.0000000030
0.4134923816 0.7676702142 0.0000000030
0.6489897966 0.8397995830 0.0000000030
0.8134142160 0.9085283279 0.0562424771
0.9523132443 0.9334062934 0.1390042156
1.0000000000 0.9165360332 0.2021214217
0.9975580573 0.8872874379 0.2814360559
0.1279200315 0.6838266850 0.3059738874
0.1500292718 0.7215474248 0.2939983010
0.1821410805 0.7662496567 0.2696251571
0.2199196368 0.8084865212 0.2368445396
0.2355036139 0.8207909465 0.1581224352
0.3626811206 0.8436374068 0.0604278632
0.5604733825 0.8849520087 0.0512086041
0.7348380685 0.9311601520 0.1128538027
0.8781635165 0.9548554420 0.1997663975
0.9593878388 0.9571304917 0.2643948495
0.9845517278 0.9481392503 0.3174138963
0.1603005975 0.7277793884 0.3162625432
0.1817548424 0.7572765350 0.3083856106
0.2145919800 0.7962944508 0.2922992706
0.2515852749 0.8333876729 0.2699929774
0.2743072212 0.8522341847 0.2322733849
0.2771354914 0.8323888779 0.0975670815
0.4770379364 0.8792074323 0.0495918989
0.6814935803 0.9319942594 0.0808835700
0.8358312249 0.9622831941 0.1876388192
0.9317396283 0.9731378555 0.2697462142
0.9698359370 0.9737579226 0.3362671137
0.0107214991 0.0757764354 0.5314903259
0.0710806400 0.0696422681 0.4816899002
0.1712897569 0.0600369200 0.4365635514
0.3617702425 0.0534112602 0.4085259736
0.5234308839 0.0320541710 0.3823785186
0.6421941519 0.0159454197 0.3863567114
0.7303146124 0.0130619556 0.3939180374
0.8294223547 0.0253369790 0.4041814804
0.8688278794 0.0064115352 0.4112241864
0.8700540066 0.0456987321 0.3161889315
0.8888111115 0.1271034181 0.2943416238
0.0180923101 0.1100989580 0.4878474772
0.0729859695 0.1024855077 0.4595824182
0.1700281799 0.1040941924 0.4326764941
0.3651651740 0.1178578138 0.4051023126
0.5337927938 0.1204436645 0.3828873634
0.6662850380 0.1459347159 0.3925913274
0.7615317702 0.1330329776 0.3999306262
0.8627713323 0.1065599173 0.3945115209
0.9247819185 0.0987709537 0.4244481921
0.9156174064 0.1988227367 0.3306511045
0.9075681567 0.2085081041 0.2724942863
0.0412018336 0.2023515552 0.4494927227
0.0744106993 0.2043707669 0.4474707246
0.1826309115 0.2161744535 0.4190464318
0.3698646724 0.2294466197 0.3961637616
0.5428894162 0.2362790108 0.3782338798
0.6701312065 0.2499843985 0.3818328083
0.7808934450 0.2491881698 0.3917983472
0.8726515770 0.2477326095 0.4145428240
0.9318831563 0.2744994164 0.4346483946
0.9346090555 0.2977441549 0.3462006450
0.8995189071 0.2181934565 0.2143374532
0.0752844661 0.3341561556 0.4212456048
0.0565238930 0.3554771543 0.4282854497
0.1874639541 0.3690166771 0.4194497168
0.3852889538 0.3900616765 0.3935518861
0.5634458065 0.4047898352 0.3865019679
0.6873691678 0.4032687843 0.3764372766
0.7918208838 0.3997371197 0.3951675296
0.8934988379 0.4102373421 0.4017401934
0.9701325297 0.3935037553 0.4410420954
0.9683710337 0.4433178008 0.3564428985
0.9263105392 0.3461452127 0.2500464022
0.0419725329 0.4439017773 0.5340502858
0.0006394245 0.5087592006 0.4126112461
0.1513085663 0.5221196413 0.4023722708
0.3574805260 0.5211086273 0.3721095026
0.5416451097 0.5292022228 0.3600298464
0.6762134433 0.5410353541 0.3545289338
0.7974427342 0.5586497188 0.3722215295
0.9002254605 0.5489456654 0.4009038210
0.9985563159 0.5771582127 0.4324288964
0.9914508462 0.5988910794 0.3607715964
0.9701013565 0.5225397944 0.3154577613
0.0521054268 0.5311976075 0.6188273430
0.0505900271 0.5828037858 0.5084834099
0.0749455839 0.6374219060 0.3793510497
0.3029262125 0.6326172352 0.3278331459
0.5097540021 0.6371051073 0.3093541265
0.6684010625 0.6568647027 0.3434172869
0.7760454416 0.6637936831 0.3685235083
0.8904485106 0.6830695271 0.3846207261
0.9932992458 0.6884919405 0.4079986215
0.9973397851 0.7010721564 0.3796524405
0.9849548936 0.6668849587 0.3102037609
0.0666883886 0.5679852962 0.5027799010
0.0981458426 0.6487905979 0.5770725608
0.1481279135 0.6918799281 0.4499512017
0.2261378318 0.7258139849 0.2929632962
0.4771184325 0.7344682813 0.2827706635
0.6364435554 0.7361321449 0.3110657036
0.8049742579 0.7917520404 0.3756560981
0.8755826950 0.7763676047 0.4165987074
0.9817333817 0.7780418396 0.4040150642
1.0000000000 0.7860310078 0.4158055484
0.9978062510 0.7843937874 0.3389998972
0.0867228583 0.6161679626 0.4179106057
0.1148338318 0.6883022785 0.4485852420
0.1388768256 0.7556512356 0.4763893187
0.1137100682 0.7999680638 0.2862603366
0.3976410031 0.8131640553 0.2186053991
0.6296198964 0.8324576020 0.2604617476
0.7415965796 0.8268143535 0.3081229031
0.8712163568 0.8593418002 0.4005070329
0.9758803248 0.8712874055 0.4229965806
1.0000000000 0.8710205555 0.4069844484
0.9962225556 0.8685188890 0.3492807448
0.1108660102 0.6622747779 0.3455077112
0.1404627562 0.7239644527 0.3448711336
0.1743759364 0.7824237943 0.3409120142
0.2273728102 0.8497507572 0.3484084308
0.2882425487 0.8809074759 0.1529418826
0.5489751101 0.8976679444 0.1044313833
0.7256334424 0.9255456924 0.2358364612
0.8497638702 0.9342226386 0.3317305446
0.9613571763 0.9368119836 0.4026921391
1.0000000000 0.9402566552 0.4114246368
0.9965346456 0.9303941727 0.3781335652
0.1504276544 0.7209615707 0.3382063508
0.1899892986 0.7796483040 0.3309049606
0.2395158410 0.8353321552 0.3169388175
0.3046557605 0.8882405758 0.2929655910
0.3819386959 0.9267304540 0.2375227660
0.4390473366 0.9424509406 0.0231611561
0.6697490811 0.9714190364 0.0931979567
0.8306266069 1.0000000000 0.2311103195
0.9473390579 1.0000000000 0.3474411666
1.0000000000 1.0000000000 0.3912967741
0.9967092872 1.0000000000 0.4064107537
0.1926811635 0.7717321515 0.3265511692
0.2349346727 0.8225027323 0.3148959875
0.2798800468 0.8653572202 0.2988869846
0.3202442527 0.8953822851 0.2808351517
0.3358327150 0.9025239348 0.2687046826
0.1944181323 0.8012950420 0.0000000119
0.5935049653 0.9202814102 0.0000000119
0.8326048851 0.9856153727 0.0802050009
0.9478366375 1.0000000000 0.2822664678
1.0000000000 1.0000000000 0.3572049439
0.9932163954 0.9999967217 0.4216412306
0.0169994775 0.1696446389 0.9007531404
0.0995887741 0.1438557655 0.8097674847
0.2123485059 0.1268520057 0.7457745671
0.3925247192 0.1157049239 0.6775181293
0.5555977821 0.1128556430 0.6394783854
0.6776126027 0.1277464777 0.6152689457
0.7669541240 0.1174828261 0.6059855223
0.8631133437 0.0902190432 0.6052210927
0.9100428820 0.0925660655 0.5936564803
0.9308946133 0.2392687201 0.5503606796
0.9184496999 0.2200648040 0.4361065924
0.0138154114 0.2176078558 0.8395430446
0.0979585201 0.2039323449 0.7835022807
0.2103552073 0.1965113431 0.7309262753
0.3962391317 0.2167975754 0.6641991735
0.5635807514 0.2247270793 0.6287308335
0.6910436153 0.2523427904 0.6023385525
0.7964884639 0.2786082327 0.6113407612
0.8996769786 0.2663918436 0.5964499116
0.9418661594 0.2421994954 0.6017792821
0.9584203362 0.3413162529 0.5664123893
0.9356434941 0.2938222885 0.4636175632
0.0316863880 0.2821727097 0.7645326257
0.0957686976 0.2884598374 0.7505546212
0.2080163956 0.2931752801 0.7131425142
0.3971536756 0.2948998213 0.6470757723
0.5663205981 0.3124231398 0.6120584011
0.6980147958 0.3225477636 0.6058691144
0.7947253585 0.3248709440 0.5926608443
0.8992256522 0.3296255171 0.6028890014
0.9627727866 0.3303052485 0.6030242443
0.9682655334 0.3967259824 0.5529867411
0.9409419298 0.3316424787 0.5519459844
0.0564217493 0.3997071683 0.7001091838
0.0753739178 0.4041637778 0.7022189498
0.1994927824 0.4139795899 0.6763787270
0.3935342729 0.4264793694 0.6182196736
0.5620283484 0.4380942881 0.5863691568
0.6950804591 0.4502656460 0.5811284781
0.8063436151 0.4581640065 0.5791972876
0.9046496749 0.4657739699 0.5903031826
0.9913492799 0.4683882296 0.5822105408
0.9852415919 0.5122040510 0.5482870340
0.9819722176 0.4726403952 0.5321723223
0.0499937125 0.4887900352 0.7682940960
0.0324786082 0.5271427035 0.6775747538
0.1665595323 0.5374177694 0.6421583891
0.3808357120 0.5490278602 0.5957168937
0.5564756393 0.5647187233 0.5695576072
0.6896262765 0.5776714087 0.5609045625
0.8034738898 0.5947703719 0.5605421066
0.9038122892 0.5875511169 0.5673074126
0.9984695911 0.5895363092 0.5752652287
0.9975705743 0.6107632518 0.5503926873
0.9975205660 0.6017777324 0.5430466533
0.0637537166 0.5668873191 0.8139483929
0.0761850774 0.6022303104 0.7334879041
0.1159836724 0.6466987729 0.6293858290
0.3385069668 0.6566450000 0.5820114613
0.5427091122 0.6659290195 0.5545867085
0.6829906106 0.6766344309 0.5534682870
0.7957404852 0.6893012524 0.5506511331
0.8965439200 0.6989961267 0.5559126735
0.9940071702 0.6999465227 0.5504652858
1.0000000000 0.7031322718 0.5399973989
1.0000000000 0.7037480474 0.5354691148
0.0753872320 0.6021868587 0.6965038180
0.0957195833 0.6716880202 0.7727830410
0.1433003098 0.7124037743 0.6775392890
0.2721401751 0.7486836314 0.5684626102
0.5076647997 0.7573346496 0.5299980044
0.6716066003 0.7672504783 0.5271481276
0.7943889499 0.7825529575 0.5428601503
0.8725842237 0.7762827873 0.5296522379
0.9790272117 0.7873228788 0.5439143777
1.0000000000 0.7886124849 0.5392487645
1.0000000000 0.7841504812 0.5393080711
0.0946306884 0.6433511376 0.5841742158
0.1217819750 0.7116987109 0.6381082535
0.1547925025 0.7751057148 0.6929564476
0.1803645045 0.8245072365 0.5521553755
0.4439984560 0.8380555511 0.5102950335
0.6529594660 0.8450739384 0.4976463020
0.7620414495 0.8416080475 0.5103769898
0.8776387572 0.8634979725 0.4982560575
0.9525928497 0.8549133539 0.5170302391
1.0000000000 0.8635635376 0.5360063910
0.9999945760 0.8671596646 0.5355285406
0.1202051342 0.6845751405 0.4798506200
0.1551187038 0.7480995655 0.5098699927
0.2031113952 0.8086354136 0.5466305017
0.2801657617 0.8683767319 0.6060230732
0.3557218313 0.9101945162 0.4871578813
0.5908631682 0.9170877337 0.4588158131
0.7104099393 0.9230912924 0.4453606308
0.8314709663 0.9271416664 0.4893498719
0.9452943802 0.9258671403 0.5312207937
1.0000000000 0.9374267459 0.5265907049
0.9981942177 0.9244849086 0.5579571128
0.1573368758 0.7326490879 0.4158107936
0.2013778239 0.7924105525 0.4293754101
0.2590254843 0.8494836688 0.4473513067
0.3344492614 0.9044833779 0.4784846306
0.4185262620 0.9568329453 0.5364652276
0.5117543340 1.0000000000 0.4143761098
0.7591149807 1.0000000000 0.4969246984
0.8918851614 0.9994515777 0.5127597451
0.9762973785 1.0000000000 0.5155105591
1.0000000000 1.0000000000 0.5442528725
0.9982209206 0.9962562919 0.5720242262
0.1985166818 0.7787215710 0.3741832078
0.2455319911 0.8317834735 0.3801877201
0.3002834618 0.8804371357 0.3962917626
0.3619449437 0.9264705777 0.4426370561
0.4311412871 0.9795462489 0.5685912967
0.4632613063 0.9986281395 0.4504871666
0.6451896429 1.0000000000 0.2929066718
0.7721090913 1.0000000000 0.3484728932
0.8682070374 1.0000000000 0.4047867060
0.9790906906 0.9998086095 0.4842968881
0.9990873933 1.0000000000 0.4994931817
0.0225370321 0.2862705290 1.0000000000
0.1509900391 0.2738161981 1.0000000000
0.2623302042 0.2523440123 0.9558752179
