darktable/luts/astia.cube
TITLE "Generated by darktable_lut_creator
LUT_3D_SIZE 9
0.0000000000 0.0000000000 0.0000000000
0.0021213770 0.0000000000 0.0000000000
0.2468475252 0.0000000000 0.0000000000
0.4206233621 0.0000000000 0.0000000000
0.5912008882 0.0031136535 0.0000000000
0.7206588984 0.0000000000 0.0668904260
0.8242326975 0.0000000000 0.2630405128
0.8413069248 0.0000000000 0.2473887801
0.8732246161 0.0927944854 0.2657993138
0.0000000000 0.0000000000 0.0000000000
0.0414279066 0.0531508960 0.0000000000
0.2347604632 0.0120322173 0.0000000000
0.4784010649 0.0000000000 0.0000000000
0.6229010224 0.0000000000 0.0000000000
0.7304247618 0.0000000000 0.0817180350
0.8195334673 0.0000000000 0.1822881103
0.8584700823 0.0081423000 0.2321393192
0.9051423669 0.1855889708 0.2842098475
0.0000000000 0.1398181319 0.0000000000
0.0000000000 0.1407162696 0.0000000000
0.1475690305 0.1699351817 0.0000000000
0.4783492684 0.1547102779 0.0000000000
0.6636936069 0.1582485735 0.0000000000
0.7996355295 0.1556186378 0.1027067602
0.9044081569 0.1629922837 0.2552310824
0.9223483801 0.2836039960 0.2468770444
0.9501860738 0.3785266876 0.2895838320
0.0114101944 0.2960213721 0.0373531170
0.0000000000 0.4437288046 0.0000000000
0.0752660930 0.3871065080 0.0000000000
0.4081473351 0.3954770565 0.0000000000
0.6152048111 0.3983289003 0.0000000000
0.8414525390 0.4662482440 0.0954997391
0.9578621984 0.4610256553 0.2756647766
0.9592971206 0.4039066136 0.2969051003
0.9779975414 0.5180333853 0.2981966436
0.0162148904 0.4258410931 0.0899068117
0.0007955167 0.5248211622 0.0302998219
0.0000000000 0.5977565646 0.0000020960
0.3183442652 0.5863541961 0.0000023683
0.5857868791 0.5755763054 0.0000000000
0.7394139171 0.6035941243 0.0000000000
0.9435008764 0.6503590345 0.2262472361
0.9783959985 0.6570704579 0.2931881845
0.9901920557 0.6692361236 0.3297517002
0.0234292131 0.5335229039 0.1515429467
0.0269346088 0.6045623422 0.0671458766
0.0781517699 0.6601710320 0.0000006987
0.2344553024 0.7097742558 0.0000000000
0.5531712770 0.7251415849 0.0000000000
0.7546798587 0.7598387003 0.0362560861
0.9166272283 0.7654480934 0.1532954425
0.9941929579 0.7855585217 0.2857071161
0.9972106218 0.7982274890 0.4011555612
0.0310608447 0.6099069715 0.1417380869
0.0386924781 0.6862910390 0.1319332123
0.0509683006 0.7319707870 0.0502528995
0.0170240570 0.7666440606 0.0119308159
0.4555698633 0.8373767734 0.0000000000
0.7186993361 0.8609754443 0.0722146332
0.8753575087 0.9023383856 0.2571061552
1.0000000000 0.9288461804 0.2986064851
0.9910989404 0.9163473845 0.3691203296
0.0627907887 0.6818941832 0.1327873319
0.0945207328 0.7538813353 0.1238365769
0.1503489912 0.8214716911 0.1157399416
0.2281968147 0.8757304549 0.0446668863
0.4160014987 0.9612919688 0.0000000000
0.6733109355 0.9825260639 0.0431656018
0.9339029789 1.0000000000 0.1292952299
1.0000000000 1.0000000000 0.3654408753
1.0000000000 1.0000000000 0.3952455819
0.1142949462 0.7428960800 0.1230027303
0.1657991111 0.8038979173 0.1132181287
0.2370775044 0.8539144993 0.1025996804
0.3238060176 0.8863572478 0.0894594193
0.4556691349 0.9082098603 0.0623091906
0.6741485596 0.9849293828 0.1869275719
0.7648358345 1.0000000000 0.3895957768
0.9694671035 1.0000000000 0.4135474563
1.0000000000 0.9999191761 0.4713910222
0.0000000000 0.0000000000 0.0262757447
0.0887924209 0.0086799320 0.0692347512
0.2167059183 0.0000000000 0.0000000000
0.4565111995 0.0000000000 0.0000000000
0.6122195721 0.0010824496 0.0094818724
0.7220723629 0.0000000000 0.1213773265
0.8125265241 0.0000000000 0.2590800822
0.8329150677 0.0000000000 0.2863659263
0.8709702492 0.0876308084 0.2943572104
0.0000000000 0.0967815071 0.1016523242
0.0831134245 0.0856779218 0.0745859891
0.2445062399 0.0468626134 0.0136065064
0.4830892980 0.0000000000 0.0000000000
0.6149082780 0.0000000000 0.0143721849
0.7436642051 0.0000000000 0.1483667791
0.8415723443 0.0000000000 0.2475521564
0.8601752520 0.0175117869 0.2620138526
0.9067709446 0.1700979471 0.3309063911
0.0000000000 0.0447063334 0.0000000000
0.0000000000 0.1885880828 0.0010063038
0.1827531457 0.1839649528 0.0000000000
0.4878546596 0.1664993614 0.0000000000
0.6801065803 0.1815210581 0.0309616216
0.7895208001 0.1384952813 0.1696915179
0.8946634531 0.1169041023 0.2730109394
0.9207165241 0.2504367232 0.3053572774
0.9502124786 0.3339426816 0.3236778378
0.0342305824 0.3045171499 0.1120593548
0.0000000000 0.4318154752 0.0000000000
0.0497971885 0.3857881427 0.0000000000
0.4161831141 0.3926118314 0.0000000000
0.6433607936 0.4251709878 0.0000000000
0.8417475224 0.4699841440 0.1601972580
0.9524113536 0.4432092905 0.2634259164
0.9711200595 0.4974400401 0.3256829679
0.9705824256 0.4634062350 0.3453750312
0.0364389606 0.4566807747 0.2020674944
0.0023865500 0.5329781771 0.0908973739
0.0000000000 0.5965850949 0.0000000000
0.3070568144 0.5746687055 0.0000000000
0.6020044088 0.5930423737 0.0000000000
0.7821073532 0.6229379773 0.0722179636
0.9542941451 0.6507601738 0.2600229681
1.0000000000 0.6662607789 0.3160555065
0.9887543917 0.6666370034 0.3516351581
0.0271381363 0.5701652765 0.2975761592
0.0018565430 0.6286948919 0.1711370945
0.0000000000 0.6729823351 0.0000000000
0.1998920143 0.7113395333 0.0000000000
0.5549119711 0.7348271608 0.0000000000
0.7524198294 0.7572463751 0.0505486578
0.9376689792 0.7942120433 0.2334886789
1.0000000000 0.8002320528 0.3245058358
0.9952584505 0.7963809967 0.3583458364
0.0321245007 0.6341374516 0.2392383814
0.0381745249 0.7223401666 0.2784008682
0.0577290654 0.7690971494 0.1388271749
0.0711396486 0.7934834361 0.0000000000
0.4730187356 0.8462033272 0.0000000000
0.7255658507 0.8786538839 0.0387887768
0.9091103673 0.9134027362 0.2200503051
1.0000000000 0.9172682762 0.3487966955
0.9974960089 0.9005855322 0.3903818727
0.0654803291 0.6978922486 0.1967349648
0.1015257016 0.7776451707 0.2181791514
0.1718818694 0.8567139506 0.2523000240
0.2515648901 0.8992553353 0.1220698357
0.3652988374 0.9531883001 0.0000000000
0.6798973680 0.9716655612 0.0985465944
0.9008466005 1.0000000000 0.2038832009
1.0000000000 1.0000000000 0.3368959725
0.9996288419 0.9964804649 0.4057572186
0.1154245660 0.7517586350 0.1625234336
0.1664984226 0.8144876957 0.1678326279
0.2321704626 0.8619199395 0.1721006185
0.2875520289 0.8751314282 0.1614021808
0.2768572569 0.7784082294 0.0000000000
0.5842989087 0.9722621441 0.1280213594
0.7718542814 1.0000000000 0.4041662216
0.9488541484 0.9997540712 0.4174695909
1.0000000000 1.0000000000 0.4795061648
0.0161113925 0.0697780848 0.3259440362
0.0706694275 0.0569667295 0.2664965093
0.2745581865 0.0203962289 0.2644784749
0.4971850514 0.0000000000 0.2150751352
0.6434184909 0.0000000000 0.2762796283
0.7606342435 0.0000000000 0.3456277251
0.8312053680 0.0000000000 0.3952295184
0.8844627142 0.0459495410 0.4139778912
0.9140426517 0.1783961058 0.3541564941
0.0027727664 0.0825230405 0.2916359603
0.0962634385 0.0959091187 0.2793798447
0.2683964670 0.0709275231 0.2736923397
0.5012296438 0.0000000000 0.1962006390
0.6405338049 0.0000000000 0.2730186880
0.7611244321 0.0000000000 0.3191104531
0.8552864790 0.0000000000 0.3948680460
0.8941126466 0.1209509894 0.4510258734
0.9866949916 0.4016079903 0.3541343510
0.0396848843 0.2403959930 0.3533641100
0.0452671833 0.2693569064 0.2989447713
0.2865121365 0.2872183919 0.2857839167
0.5582678914 0.2730422616 0.2515106499
0.6939263940 0.2322401255 0.2775580287
0.8051671982 0.2027732730 0.3281961083
0.9272425175 0.2107375264 0.4301179647
0.8875482678 0.1119279340 0.3077858388
1.0000000000 0.5860602856 0.6148175001
0.1026917472 0.4370296299 0.3361780643
0.0000000000 0.5028994679 0.2302817851
0.1822261363 0.4754346013 0.1914448142
0.4960211813 0.4792214632 0.2004947215
0.6991963983 0.4775473773 0.2371187806
0.8510298133 0.4828714728 0.3191999793
0.9663662314 0.4175705016 0.4332438707
0.9785578847 0.5166494250 0.4500940144
0.9964947701 0.4893669486 0.4641641974
0.0726997480 0.5325469971 0.4032457769
0.0071596499 0.5705339909 0.2726921141
0.0214789491 0.6473894119 0.1534695774
0.3938812315 0.6384650469 0.1372474730
0.6627179980 0.6529367566 0.1926598847
0.8309199214 0.6740380526 0.2926177382
0.9461035132 0.6476368904 0.3553414941
1.0000000000 0.7139152288 0.4814215004
0.9982665777 0.6329794526 0.4268703759
0.0431189090 0.6251201034 0.5195239186
0.0031830790 0.6801241040 0.4225139320
0.0000000000 0.7711291313 0.3497287035
0.2758583724 0.7674848437 0.1198355034
0.6062789559 0.7642695308 0.1456626505
0.8216527104 0.8225088716 0.3425575495
0.9375991225 0.7939685583 0.3320046663
1.0000000000 0.8042078614 0.4474361837
0.9994954467 0.7952826619 0.4513638616
0.0433937907 0.6761620045 0.4280002117
0.0549379699 0.7692283988 0.5252383351
0.1020475402 0.8408257365 0.4164815247
0.1937299222 0.8939663172 0.2506058216
0.5140264630 0.8931414485 0.1395481825
0.7528839707 0.8996986151 0.2777833045
0.9174600244 0.9247446060 0.4057721794
1.0000000000 0.9102905989 0.3961400092
0.9982471466 0.8880776167 0.4612580240
0.0766041800 0.7300917506 0.3459584713
0.1209384277 0.8162209988 0.4131401777
0.2063516378 0.9017894268 0.4960030615
0.3182561994 0.9510943294 0.3662095070
0.4424263835 0.9987589121 0.2544900179
0.7162886858 1.0000000000 0.2327756137
0.9266650081 1.0000000000 0.2921904325
1.0000000000 1.0000000000 0.4277417660
1.0000000000 0.9996527433 0.4878492057
0.1245676056 0.7755637169 0.2722035348
0.1816740781 0.8448407054 0.3081287444
0.2575853765 0.9038133621 0.3434134722
0.3342339694 0.9477307796 0.3621366918
0.3369844854 0.9106703401 0.0711350217
0.6303067803 1.0000000000 0.3585803509
0.7627704740 1.0000000000 0.4661688805
0.9366819859 0.9999366403 0.5049461722
0.9995259047 1.0000000000 0.5372108221
0.0102131758 0.0746474639 0.6555510759
0.1010117382 0.0669172406 0.6422544122
0.3033706546 0.0701474473 0.6050367951
0.5433772802 0.0568814278 0.5722963214
0.6717069745 0.0257303454 0.5427606702
0.7856082916 0.0255229753 0.5588926077
0.8748970032 0.0000000000 0.5772264004
0.9164907932 0.1810628176 0.5916856527
0.9276936054 0.2148442715 0.5039761066
0.0164071750 0.1404748410 0.6725462079
0.1042474508 0.1273946315 0.6637279391
0.2956602871 0.1135315225 0.6009931564
0.5493770838 0.1194654256 0.5768184066
0.6809081435 0.0974949375 0.5397871137
0.7927365303 0.0597849153 0.5637859106
0.9100759029 0.0824988484 0.5779016018
0.9371491671 0.2444431931 0.5915891528
0.9525473714 0.2850738466 0.5660861731
0.0314391889 0.3204644620 0.6606553793
0.0525973737 0.3129137754 0.6541712880
0.3106802404 0.3240994513 0.6033150554
0.5629832149 0.3197644949 0.5472366214
0.7153638601 0.2947792411 0.5518893003
0.8425146937 0.3033440113 0.5655291080
0.9457646608 0.2691718638 0.5955211520
0.9646975994 0.4472752512 0.6246697903
0.9810480475 0.3426904082 0.5430527329
0.2683903575 0.5677934289 0.4248883724
0.0000000000 0.5077911019 0.6251110435
0.2376704961 0.5279164314 0.5872427821
0.5345789194 0.5227254033 0.5234695077
0.7233999372 0.5258054733 0.5237509608
0.8592492938 0.4992698431 0.5318481326
0.9735388160 0.5243697762 0.5796791911
1.0000000000 0.3433248401 0.5147463679
0.9827814698 0.8131989837 0.6819843650
0.1082478538 0.5900774598 0.6008672118
0.0000000000 0.5613130927 0.4343250096
0.0978832468 0.6734344959 0.5703905225
0.4540392756 0.6828690171 0.5084787011
0.6996983886 0.6862663627 0.4905703068
0.8429756761 0.6969749928 0.5280796885
0.9901929498 0.6610398889 0.5290004015
1.0000000000 0.7019925714 0.5920177698
1.0000000000 0.6637188792 0.5656750202
0.0534739010 0.6626891494 0.7328121066
0.0023895872 0.6987091899 0.6451209188
0.0000000000 0.7998068333 0.5865625739
0.3381982744 0.7979788780 0.4966091216
0.6365690231 0.7889774442 0.4566185176
0.8244075775 0.8166196346 0.4473030269
0.9626958966 0.8259260654 0.5306576490
1.0000000000 0.7948244214 0.5367813110
0.9976179600 0.8100701571 0.5985317826
0.0521503277 0.7085288167 0.6325106621
0.0595832951 0.7867352366 0.7367196083
0.1124126911 0.8573818207 0.6491100788
0.2265499383 0.9204120040 0.5194426179
0.5656474233 0.9197968841 0.4590337873
0.7754438519 0.9104889035 0.4876899719
0.9114255905 0.9042696357 0.4893369377
1.0000000000 0.9102886319 0.5480090976
0.9942333102 0.8942615986 0.5974261165
0.0850596055 0.7591407299 0.5322872996
0.1264242977 0.8388015628 0.6183926463
0.1987511516 0.9134482741 0.7053182125
0.3186123073 0.9605576396 0.5935326815
0.4649801850 1.0000000000 0.4691424370
0.7315014005 1.0000000000 0.4434797764
0.9280496836 1.0000000000 0.4605156481
1.0000000000 1.0000000000 0.5245735645
1.0000000000 0.9910653830 0.5883301497
0.1338791698 0.8022946715 0.4339918196
0.1920103282 0.8721795678 0.4974845946
0.2679325640 0.9328964353 0.5659323931
0.3474611342 0.9814276695 0.6490654945
0.3905614018 1.0000000000 0.5504438281
0.6233776808 1.0000000000 0.4976275265
0.7571365237 0.9999809861 0.5700138807
0.9078692198 1.0000000000 0.6168297529
0.9996388555 1.0000000000 0.6241955757
0.0177827235 0.1952178925 0.9741674662
0.1452968419 0.1782756150 0.9323738217
0.3403312862 0.1697694957 0.8522086740
0.5548351407 0.1687747538 0.7848183513
0.7123345137 0.1744869202 0.7679127455
0.8234371543 0.1690167338 0.7551925778
0.9269688725 0.1745786667 0.7551600337
0.9448366761 0.2870204449 0.7168878913
0.9460235238 0.2940363288 0.6322196126
0.0212650448 0.2366472036 0.9780800939
0.1494343430 0.2290681750 0.9297191501
0.3464675546 0.2320738882 0.8526998758
0.5570396185 0.2212781608 0.7856690884
0.7210542560 0.2318331450 0.7631669641
0.8356834650 0.2225082219 0.7508479953
0.9333292842 0.1987683475 0.7538678646
0.9593346119 0.3259911537 0.7326838970
0.9655403495 0.3802442551 0.6757947803
0.0276397839 0.3697358370 0.9439453483
0.1089313850 0.3801974952 0.9142867327
0.3142526150 0.3772131205 0.8490067124
0.5678634048 0.3686010540 0.7695399523
0.7283538580 0.3779824078 0.7659835815
0.8539877534 0.3720844090 0.7405216098
0.9614181519 0.3575093448 0.7461247444
0.9968018532 0.4714165628 0.7333950996
0.9847390652 0.5296677947 0.7286143303
0.0755808949 0.5655785799 0.9020551443
0.0000000000 0.5278034806 0.8886076212
0.2771759331 0.5497218370 0.8119987249
0.5334562659 0.5548073053 0.7505382895
0.7394995689 0.5559799671 0.7174376249
0.8514561653 0.5605727434 0.7331300378
0.9957223535 0.5497037172 0.7326982021
1.0000000000 0.5480200648 0.7379749417
0.9990727305 0.7248223424 0.7056213021
0.0563532002 0.6411259174 0.9433881640
0.0000000000 0.6850830317 0.9286760688
0.1242502704 0.6741065979 0.8024601340
0.4879834652 0.6873953938 0.7192203403
0.6949635744 0.6929789782 0.6936194301
0.8410012722 0.6861898899 0.6834837198
0.9698757529 0.6957371235 0.7000064850
1.0000000000 0.6990922093 0.7198607922
0.9990165234 0.7223676443 0.7022062540
0.0497842617 0.6992807388 0.9524481893
0.0071687619 0.7350075245 0.9144751430
0.0000000000 0.7870395780 0.8148245811
0.3656900525 0.8016400933 0.7163490653
0.6634065509 0.8103131056 0.6715586185
0.8110810518 0.8097411990 0.6700364351
0.9483494163 0.8010203838 0.6366178989
1.0000000000 0.8054472804 0.6986868382
0.9974387288 0.8174397349 0.7107959986
0.0552940667 0.7373080254 0.8336288929
0.0639476106 0.8041145205 0.9159278274
0.1106881425 0.8519265652 0.8413251042
0.2234598398 0.8837825060 0.7318417430
0.5751883984 0.9045355916 0.6492249370
0.7670698166 0.8978227377 0.6225228906
0.9126029015 0.9148703814 0.6284333467
1.0000000000 0.9123317003 0.6813178658
0.9955095053 0.8861929178 0.7151033878
0.0862957165 0.7838519216 0.7228201032
0.1185334548 0.8551071286 0.8025441170
0.1652284563 0.9224053025 0.8733119369
0.2643068135 0.9612607956 0.7920129895
0.4713985026 1.0000000000 0.6609790921
0.7358530760 1.0000000000 0.6250470877
0.9394547343 1.0000000000 0.6399641037
1.0000000000 1.0000000000 0.6510383487
1.0000000000 0.9842417240 0.7048498988
0.1362805963 0.8257853985 0.6131058335
0.1886668950 0.8912096620 0.6825056076
0.2554569244 0.9463422894 0.7474880815
0.3332097828 0.9837252498 0.8032199740
0.4434149563 0.9984016418 0.6755374670
0.6199784875 1.0000000000 0.6589771509
0.7716561556 0.9996477962 0.6798393130
0.9179840088 1.0000000000 0.7082430720
1.0000000000 1.0000000000 0.7064875960
0.0178908240 0.3057199121 1.0000000000
0.2233479321 0.2965237200 0.9975609183
0.3842865527 0.2959154844 0.9977559447
0.5883826613 0.2966544330 0.9645820856
0.7324105501 0.3018105030 0.9376615286
0.8590452075 0.3009457886 0.9303132892
0.9694997072 0.3073011935 0.9017759562
0.9800068736 0.4209736288 0.8519349694
0.9699797630 0.3970053494 0.7475852966
0.0391049124 0.3408747613 1.0000000000
0.1997384876 0.3401305079 1.0000000000
0.3733176291 0.3305628300 1.0000000000
0.5834240913 0.3374616504 0.9597451687
0.7311984897 0.3360084891 0.9355569482
0.8576515317 0.3448303342 0.9249703288
0.9708842635 0.3296355605 0.8925458789
0.9867487550 0.4517346323 0.8409123421
0.9839088321 0.4760061204 0.7586013675
0.0277813636 0.4344110489 1.0000000000
0.1597672105 0.4350389540 1.0000000000
0.3642236292 0.4441972375 1.0000000000
0.5791006088 0.4510568380 0.9533891678
0.7385901213 0.4466474950 0.9246715903
0.8677551746 0.4560264945 0.9076411724
0.9906527400 0.4559187889 0.9035614729
1.0000000000 0.5396317840 0.8609766960
0.9994373322 0.5960393548 0.7590969801
0.0431608185 0.5690242648 1.0000000000
0.0652633086 0.5721763372 1.0000000000
0.2855252624 0.5757429004 1.0000000000
0.5595725775 0.5891046524 0.9259099364
0.7374123931 0.5911374688 0.8914511800
0.8630664945 0.5982941985 0.8811262250
0.9945509434 0.6027148366 0.8726259470
1.0000000000 0.6216127872 0.8367620111
0.9946377873 0.7308547497 0.7803169489
0.0934787020 0.6727162004 0.9994333386
0.0000000000 0.6786473989 1.0000000000
0.1846888214 0.6926596761 0.9879146814
0.5008136630 0.7012594342 0.9098999500
0.6990059614 0.7074700594 0.8540635705
0.8322891593 0.7082681060 0.8257616758
0.9697399735 0.7066906095 0.8244127035
1.0000000000 0.7123306990 0.8320648074
0.9977062345 0.8084192276 0.8112671971
0.0858308375 0.7217088342 0.9994813800
0.0215062853 0.7328998446 0.9999246001
0.0000000000 0.7766228914 1.0000000000
0.3990904689 0.8023282290 0.9080228209
0.6634381413 0.8091092110 0.8271619678
0.8213582039 0.8206117153 0.8201845884
0.9790892005 0.8475169539 0.8329836130
1.0000000000 0.8062895536 0.7833473086
0.9982302189 0.8568766713 0.8472722769
0.0717036128 0.7614753842 0.9416978359
0.0739859268 0.8254093528 0.9919832349
0.1086045876 0.8849574924 0.9773090482
0.2552745044 0.8964518905 0.9319272041
0.5823156834 0.8969241977 0.8087551594
0.7983983755 0.9205635786 0.8086348176
0.9126325846 0.9124484062 0.7987425327
1.0000000000 0.9146033525 0.7940283418
0.9942896962 0.9022796750 0.8227467537
0.0874675289 0.8078362942 0.8638532162
0.1044032574 0.8781816959 0.9270417094
0.1206904054 0.9540286064 0.9865977764
0.0980621725 1.0000000000 0.9832181334
0.4960139990 1.0000000000 0.8295168877
0.7391232848 1.0000000000 0.7699645162
0.9207086563 1.0000000000 0.7656712532
1.0000000000 0.9993044138 0.7679978013
1.0000000000 0.9815840721 0.8061480522
0.1318888217 0.8482463956 0.7702766061
0.1719183773 0.9111175537 0.8338708282
0.2226849943 0.9639613628 0.8920650482
0.2919076681 0.9915132523 0.9421092868
0.4505287409 0.9945708513 0.8431096077
0.6163768172 1.0000000000 0.8006954789
0.7733286619 0.9997143149 0.7819585204
0.9228464365 1.0000000000 0.7963371873
1.0000000000 1.0000000000 0.7882773280
0.0891703367 0.4115857780 0.9975382090
0.2864502668 0.4157273769 0.9865277410
0.4417454302 0.4129286706 0.9800832868
0.6077370048 0.4149434268 0.9815661907
0.7503839731 0.4161512554 0.9988412857
0.8727296591 0.4221051931 0.9892077446
0.9891492724 0.4493456185 0.9990541339
0.9988019466 0.5331140161 0.9697828293
0.9878060222 0.5029279590 0.8458809257
0.0562312976 0.4375759363 0.9989143014
0.2979905903 0.4429375529 0.9975644946
0.4201848805 0.4452195764 0.9929844737
0.6099479198 0.4496234953 1.0000000000
0.7480269074 0.4490186870 1.0000000000
0.8699076772 0.4572188854 1.0000000000
1.0000000000 0.4931429029 1.0000000000
1.0000000000 0.5557989478 0.9772556424
0.9946362972 0.5786644220 0.8202745318
0.0536902212 0.5214250088 0.9991654754
0.2360963523 0.5200085044 0.9980887771
0.3981900811 0.5277388096 1.0000000000
0.6005378962 0.5246517658 1.0000000000
0.7544787526 0.5405371785 1.0000000000
0.8777476549 0.5431033373 1.0000000000
0.9976507425 0.5443160534 1.0000000000
1.0000000000 0.6138709784 0.9586347342
1.0000000000 0.7041882277 0.7249664664
0.0667823553 0.6169115305 0.9986554384
0.1397373527 0.6104117036 0.9994422197
0.3487741649 0.6224734783 1.0000000000
0.5751353502 0.6283870935 1.0000000000
0.7356594205 0.6331939101 1.0000000000
0.8638044596 0.6414719224 1.0000000000
0.9899858832 0.6476625204 1.0000000000
1.0000000000 0.6544785500 0.9616571665
0.9981267452 0.7850852609 0.5934185386
0.2372752726 0.7704770565 0.9982999563
0.0562986247 0.7069828510 0.9993209243
0.2386837155 0.7091484070 1.0000000000
0.5284788609 0.7296884656 1.0000000000
0.7106778026 0.7328736186 1.0000000000
0.8466097713 0.7391213775 0.9832252860
0.9700518250 0.7425913811 0.9890197515
1.0000000000 0.7480224967 0.9629544020
0.9968699813 0.8279068470 0.7811937928
0.1425075382 0.7595105767 0.9990860820
0.0645188540 0.7434290051 0.9997736812
0.1372579336 0.8027710319 1.0000000000
0.4335972667 0.8138833642 1.0000000000
0.6782670617 0.8271962404 0.9899157882
0.8157137632 0.8266157508 0.9457681775
0.9652708173 0.8513215780 0.9424488544
1.0000000000 0.8166113496 0.9387572408
0.9957232475 0.8828623295 0.8602426052
0.1020193622 0.7931188941 0.9798333645
0.0918469205 0.8583707213 0.9987161756
0.0705392808 0.9817976356 1.0000000000
0.3126070797 0.9030221701 1.0000000000
0.6087045074 0.9176055789 0.9888991714
0.8081392646 0.9212262034 0.9457480907
0.9203171134 0.9218995571 0.9221675396
1.0000000000 0.9175276756 0.9140190482
0.9888101220 0.9076595902 0.9042338729
0.1022350267 0.8351718783 0.9395648837
0.1172182038 0.9045602679 0.9750080109
0.1554044485 0.9771283269 0.9992661476
0.2062254399 1.0000000000 1.0000000000
0.5178207159 0.9964892268 0.9838187695
0.7447560430 0.9975181222 0.9241257310
0.9037752748 0.9950577021 0.9111440778
1.0000000000 1.0000000000 0.8745470643
1.0000000000 0.9763122797 0.9018994570
0.1362868845 0.8710687757 0.8780200481
0.1747368127 0.9297880530 0.9242186546
0.2350738496 0.9736862183 0.9637770653
0.3271320760 0.9799690247 1.0000000000
0.4848970771 0.9728304744 1.0000000000
0.6153803468 0.9980360866 0.9035427570
0.7801287174 1.0000000000 0.8651427031
0.9198994040 1.0000000000 0.8813980818
1.0000000000 1.0000000000 0.8741872907
0.0577359907 0.4960778952 0.9992687702
0.3592135906 0.5018070936 1.0000000000
0.4523096979 0.4975440800 1.0000000000
0.6346925497 0.5086160898 0.9986435175
0.7676743865 0.5172891021 0.9929717183
0.8979098201 0.5141125917 0.9968216419
1.0000000000 0.5102550983 0.9985368848
0.9976604581 0.6177656054 1.0000000000
0.9940112233 0.5930656791 0.9141100049
0.0548454896 0.5180264115 1.0000000000
0.2858227193 0.5022736192 0.9999921322
0.4345214665 0.5123015642 1.0000000000
0.6133570075 0.5005338788 0.9946225882
0.7628486156 0.5322473645 0.9969199896
0.8975931406 0.5519585013 0.9998070598
1.0000000000 0.5125951767 0.9959553480
1.0000000000 0.6272363663 1.0000000000
0.9965672493 0.6585034132 0.8964492679
0.0199537650 0.5411098003 1.0000000000
0.2526461482 0.5533004999 0.9984494448
0.4142686427 0.5637642145 0.9994681478
0.6064895988 0.5707430243 1.0000000000
0.7684757113 0.5982642770 0.9975405335
0.8864933252 0.5783352256 0.9993128777
1.0000000000 0.6040673256 0.9998384714
0.9969866872 0.6529431939 1.0000000000
0.9950654507 0.7696094513 0.8690733314
0.0000000000 0.6270185113 0.9993413687
0.1755907089 0.6249004006 1.0000000000
0.3664446771 0.6542500257 0.9975779057
0.5871812701 0.6534981728 0.9970679283
0.7304253578 0.6538712382 1.0000000000
0.8679557443 0.6709300280 1.0000000000
0.9905341864 0.6564260721 1.0000000000
0.9985117316 0.6963728070 1.0000000000
0.9882097244 0.9516969323 0.8822534084
0.0000000000 0.6938166022 0.9980996847
0.0291495528 0.7251040936 0.9980269670
0.2858455479 0.7313759923 1.0000000000
0.5200119615 0.7400116324 0.9988010526
0.7194430828 0.7519943714 1.0000000000
0.8422899842 0.7526587844 1.0000000000
0.9748418927 0.7574772239 1.0000000000
1.0000000000 0.7932612300 1.0000000000
0.9947745204 0.8413382173 0.9004638791
0.1257284433 0.7646258473 0.9991846085
