darktable/luts/astia_profiled_xt3.cube
# Generated by darktable_lut_creator: https://github.com/wilecoyote2015/darktabe_lut_generator
# Calculated for Higlight clipping, gamut compression=3 in color balance and custon x-t3 input profile; tetrahedral interpolation.
TITLE "Custom Profile for Fuji X-T3"
LUT_3D_SIZE 6
0.0000000000 0.0000000000 0.0000000000
0.1196846962 0.0000000000 0.0000000000
0.4575727880 0.0127085140 0.0008498512
0.6025949717 0.0036310316 0.0002124639
0.7309215069 0.0177837517 0.0890055075
0.8157627583 0.0573869720 0.1881647706
0.0077034621 0.0873497128 0.0060034753
0.1127486080 0.0994296446 0.0000000000
0.4496482909 0.0782388300 0.0003512916
0.6292612553 0.0704401433 0.0003839615
0.7616062760 0.1095136032 0.1006820574
0.8383247256 0.1315684915 0.1956701875
0.0172212850 0.2680782080 0.0728754774
0.0498196706 0.3789149821 0.0008584312
0.4240911305 0.4009044766 0.0000000000
0.6230280399 0.3344220817 0.0001304894
0.7910580039 0.3462208509 0.1004258320
0.8778248429 0.3248965740 0.2033531070
0.0285663158 0.4140043557 0.1731889099
0.0351048037 0.4843893945 0.0787173137
0.2379016876 0.5272844434 0.0116852531
0.5485978723 0.5443738103 0.0015842873
0.7812130451 0.5598375201 0.0833041742
0.9035086632 0.5490629673 0.1822974235
0.0621221177 0.5344699621 0.2366049588
0.0794042423 0.5856716633 0.1963882297
0.1481619626 0.6335465908 0.0840919837
0.4323329031 0.6755099297 0.0244059172
0.7248758674 0.7254188657 0.0799398050
0.8982663155 0.7347658277 0.1722776294
0.1079190969 0.6346794367 0.2801461220
0.1269032210 0.6683382392 0.2632480562
0.1722054929 0.7230281234 0.1967740804
0.3344059885 0.7646992207 0.0883754715
0.6285562515 0.8282415271 0.0965313986
0.8532273173 0.8619351387 0.1929234862
0.0083641894 0.0627332628 0.2186055779
0.1549578756 0.0538663492 0.1667101830
0.4872086644 0.0000000000 0.0758180246
0.7070867419 0.0029629543 0.1433854401
0.8244530559 0.0000000000 0.1676269323
0.8781849146 0.1073305160 0.2757120132
0.0233837496 0.1452704221 0.1751689762
0.1693368554 0.1751538962 0.1798256487
0.5181268454 0.1677937210 0.1084090620
0.7532424927 0.1751102656 0.1727411300
0.8929905891 0.1668979526 0.1792299300
0.9092724323 0.2360195965 0.2551332414
0.0384395532 0.3760936260 0.3309027255
0.0730439052 0.4476711452 0.0569296591
0.4883241057 0.4706809819 0.0654013604
0.7677933574 0.5107458234 0.1643849313
0.9724677801 0.5313440561 0.2441869080
0.9624569416 0.4952947199 0.2886218429
0.0498138927 0.5239678025 0.3124396801
0.0966447815 0.6466556191 0.1719918996
0.4032123089 0.6795926094 0.0006726252
0.7721492052 0.7601739168 0.1557406932
0.9536430836 0.7593033314 0.2151214331
0.9921960235 0.7225832939 0.2513949573
0.1054124236 0.6466917992 0.2737413943
0.1568781585 0.7418694496 0.1979383230
0.1046525091 0.7271559238 0.0000000030
0.6489897966 0.8397995830 0.0000000030
0.9523132443 0.9334062934 0.1390042156
0.9975580573 0.8872874379 0.2814360559
0.1603005975 0.7277793884 0.3162625432
0.2145919800 0.7962944508 0.2922992706
0.2743072212 0.8522341847 0.2322733849
0.4770379364 0.8792074323 0.0495918989
0.8358312249 0.9622831941 0.1876388192
0.9698359370 0.9737579226 0.3362671137
0.0169994775 0.1696446389 0.9007531404
0.2123485059 0.1268520057 0.7457745671
0.5555977821 0.1128556430 0.6394783854
0.7669541240 0.1174828261 0.6059855223
0.9100428820 0.0925660655 0.5936564803
0.9184496999 0.2200648040 0.4361065924
0.0316863880 0.2821727097 0.7645326257
0.2080163956 0.2931752801 0.7131425142
0.5663205981 0.3124231398 0.6120584011
0.7947253585 0.3248709440 0.5926608443
0.9627727866 0.3303052485 0.6030242443
0.9409419298 0.3316424787 0.5519459844
0.0499937125 0.4887900352 0.7682940960
0.1665595323 0.5374177694 0.6421583891
0.5564756393 0.5647187233 0.5695576072
0.8034738898 0.5947703719 0.5605421066
0.9984695911 0.5895363092 0.5752652287
0.9975205660 0.6017777324 0.5430466533
0.0753872320 0.6021868587 0.6965038180
0.1433003098 0.7124037743 0.6775392890
0.5076647997 0.7573346496 0.5299980044
0.7943889499 0.7825529575 0.5428601503
0.9790272117 0.7873228788 0.5439143777
1.0000000000 0.7841504812 0.5393080711
0.1202051342 0.6845751405 0.4798506200
0.2031113952 0.8086354136 0.5466305017
0.3557218313 0.9101945162 0.4871578813
0.7104099393 0.9230912924 0.4453606308
0.9452943802 0.9258671403 0.5312207937
0.9981942177 0.9244849086 0.5579571128
0.1985166818 0.7787215710 0.3741832078
0.3002834618 0.8804371357 0.3962917626
0.4311412871 0.9795462489 0.5685912967
0.6451896429 1.0000000000 0.2929066718
0.8682070374 1.0000000000 0.4047867060
0.9990873933 1.0000000000 0.4994931817
0.0727165043 0.3494813442 0.9987065792
0.3178875744 0.3737164438 0.9955409765
0.6128208041 0.3349823654 0.9740929604
0.8208580613 0.3410361409 0.9260553718
0.9905733466 0.3466516733 0.8862652779
0.9732359052 0.4385658801 0.7146770954
0.0365822576 0.4651118517 1.0000000000
0.2757489085 0.4686774015 1.0000000000
0.5995942950 0.4644464552 0.9466795921
0.8269763589 0.4920219779 0.8903595209
1.0000000000 0.5182083249 0.8749424219
0.9921402335 0.5936526656 0.7423103452
0.0595921874 0.5984168649 1.0000000000
0.2016120702 0.6036857367 0.9939097166
0.5778862238 0.6245248914 0.8845515251
0.8035104871 0.6448977590 0.8370919228
0.9971178770 0.6625651121 0.8223205209
1.0000000000 0.7238447666 0.7470445037
0.0682014599 0.6735283732 0.9470482469
0.0968995467 0.7502251863 0.9823338985
0.5325180888 0.7761258483 0.8369497061
0.7920648456 0.7990826368 0.8023509979
0.9745035768 0.8128237128 0.7846630812
0.9969574213 0.8274502158 0.7826770544
0.1287883222 0.7305113673 0.7738719583
0.2317706496 0.8326668739 0.8620520234
0.3996560276 0.9096369147 0.8255959153
0.7427045107 0.9295225143 0.7586957216
0.9501362443 0.9409300685 0.7572249770
0.9950837493 0.9383885264 0.7722408175
0.2127246857 0.8049778938 0.5929648280
0.3107939959 0.9057049155 0.6830839515
0.3728807867 0.9892290235 0.8619189858
0.6154890656 1.0000000000 0.7174842358
0.8459033966 0.9999316335 0.7199484110
0.9998107553 1.0000000000 0.7379260063
0.1965203881 0.5016823411 0.9987385869
0.4537939131 0.5088731050 0.9989219308
0.6718645692 0.5351203084 1.0000000000
0.8665652275 0.5401156545 0.9964708090
1.0000000000 0.5942577720 1.0000000000
0.9944414496 0.6135298014 0.8999380469
0.0710123405 0.6438614130 0.9995760918
0.3645158112 0.6436212659 0.9991435409
0.6409444809 0.6308598518 1.0000000000
0.8483918905 0.6279790998 0.9995212555
0.9989248514 0.6386249065 0.9941745400
0.9947900772 0.7052383423 0.8762748837
0.0586164743 0.6826931238 0.9993461370
0.2524520755 0.6948356032 1.0000000000
0.5984265208 0.7041158676 0.9984906316
0.8197311163 0.7182909846 1.0000000000
1.0000000000 0.7368934155 1.0000000000
0.9912692904 0.8134094477 0.7984115481
0.1054595634 0.7427490354 0.9936036468
0.1535625607 0.7924508452 0.9996111393
0.5493127108 0.8143465519 1.0000000000
0.7970913649 0.8330344558 1.0000000000
0.9700186253 0.8408971429 1.0000000000
0.9925083518 0.8826104403 0.8871497512
0.1280118078 0.7749937177 0.9378073812
0.1593770981 0.8625281453 0.9830700755
0.4478970170 0.9366068840 1.0000000000
0.7720292807 0.9433369637 0.9925388098
0.9445424080 0.9529744983 0.9573630691
0.9944642782 0.9484042525 0.9364025593
0.2145224363 0.8351373672 0.8190605044
0.3056713045 0.9254129529 0.9020102024
0.4336082041 0.9822691083 0.9997262359
0.6144729853 0.9927654862 0.9338270426
0.8705392480 0.9998090267 0.9023677111
0.9995269775 1.0000000000 0.9062335491
0.4386005700 0.6690949202 0.9994897842
0.5765989423 0.6626748443 0.9992238879
0.7203776836 0.6579318047 0.9983372092
0.8400943279 0.6915090680 0.9991479516
0.9585188031 0.6563450694 0.9996449351
0.9892641902 0.7094517350 0.9705455899
0.3913432062 0.7797767520 0.9995853305
0.6051787734 0.7808336616 0.9982800484
0.7577562928 0.8063362837 0.9996870756
0.8615680933 0.8075968623 0.9998412132
0.9715576768 0.8105946779 1.0000000000
0.9969095588 0.7752368450 0.9617126584
0.3086790442 0.8121759295 0.9994166493
0.5114741921 0.8201855421 1.0000000000
0.7014119029 0.8152856827 0.9995707273
0.8534551263 0.8387536407 1.0000000000
0.9559129477 0.8736259937 1.0000000000
0.9960743785 0.8224086761 0.9537195563
0.2629627883 0.8336995244 0.9982373714
0.4107238650 0.8869215846 1.0000000000
0.6681528687 0.8906947374 0.9990156889
0.8319116235 0.8887878060 0.9995520115
0.9388719201 0.9155351520 1.0000000000
0.9976778626 0.8161774278 0.9694457650
0.2099101543 0.8389825821 0.9863460660
0.3275126815 0.9249947667 0.9972417951
0.5952155590 0.9694242477 1.0000000000
0.8086210489 0.9644946456 1.0000000000
0.9317702651 0.9545802474 0.9977478981
1.0000000000 0.9449281096 0.9931455851
0.2411113828 0.8720026612 0.9405122399
0.3547885716 0.9451498389 0.9781105518
0.4670230448 0.9715822935 0.9987567067
0.6782791018 0.9871791601 0.9997210503
0.8841405511 0.9958394170 1.0000000000
1.0000000000 1.0000000000 1.0000000000
