darktable/luts/astia.cube
TITLE "Generated by darktable_lut_creator
LUT_3D_SIZE 5
0.0000000000 0.0000000000 0.0000000000
0.2468475252 0.0000000000 0.0000000000
0.5912008882 0.0031136535 0.0000000000
0.8242326975 0.0000000000 0.2630405128
0.8732246161 0.0927944854 0.2657993138
0.0000000000 0.1398181319 0.0000000000
0.1475690305 0.1699351817 0.0000000000
0.6636936069 0.1582485735 0.0000000000
0.9044081569 0.1629922837 0.2552310824
0.9501860738 0.3785266876 0.2895838320
0.0162148904 0.4258410931 0.0899068117
0.0000000000 0.5977565646 0.0000020960
0.5857868791 0.5755763054 0.0000000000
0.9435008764 0.6503590345 0.2262472361
0.9901920557 0.6692361236 0.3297517002
0.0310608447 0.6099069715 0.1417380869
0.0509683006 0.7319707870 0.0502528995
0.4555698633 0.8373767734 0.0000000000
0.8753575087 0.9023383856 0.2571061552
0.9910989404 0.9163473845 0.3691203296
0.1142949462 0.7428960800 0.1230027303
0.2370775044 0.8539144993 0.1025996804
0.4556691349 0.9082098603 0.0623091906
0.7648358345 1.0000000000 0.3895957768
1.0000000000 0.9999191761 0.4713910222
0.0161113925 0.0697780848 0.3259440362
0.2745581865 0.0203962289 0.2644784749
0.6434184909 0.0000000000 0.2762796283
0.8312053680 0.0000000000 0.3952295184
0.9140426517 0.1783961058 0.3541564941
0.0396848843 0.2403959930 0.3533641100
0.2865121365 0.2872183919 0.2857839167
0.6939263940 0.2322401255 0.2775580287
0.9272425175 0.2107375264 0.4301179647
1.0000000000 0.5860602856 0.6148175001
0.0726997480 0.5325469971 0.4032457769
0.0214789491 0.6473894119 0.1534695774
0.6627179980 0.6529367566 0.1926598847
0.9461035132 0.6476368904 0.3553414941
0.9982665777 0.6329794526 0.4268703759
0.0433937907 0.6761620045 0.4280002117
0.1020475402 0.8408257365 0.4164815247
0.5140264630 0.8931414485 0.1395481825
0.9174600244 0.9247446060 0.4057721794
0.9982471466 0.8880776167 0.4612580240
0.1245676056 0.7755637169 0.2722035348
0.2575853765 0.9038133621 0.3434134722
0.3369844854 0.9106703401 0.0711350217
0.7627704740 1.0000000000 0.4661688805
0.9995259047 1.0000000000 0.5372108221
0.0177827235 0.1952178925 0.9741674662
0.3403312862 0.1697694957 0.8522086740
0.7123345137 0.1744869202 0.7679127455
0.9269688725 0.1745786667 0.7551600337
0.9460235238 0.2940363288 0.6322196126
0.0276397839 0.3697358370 0.9439453483
0.3142526150 0.3772131205 0.8490067124
0.7283538580 0.3779824078 0.7659835815
0.9614181519 0.3575093448 0.7461247444
0.9847390652 0.5296677947 0.7286143303
0.0563532002 0.6411259174 0.9433881640
0.1242502704 0.6741065979 0.8024601340
0.6949635744 0.6929789782 0.6936194301
0.9698757529 0.6957371235 0.7000064850
0.9990165234 0.7223676443 0.7022062540
0.0552940667 0.7373080254 0.8336288929
0.1106881425 0.8519265652 0.8413251042
0.5751883984 0.9045355916 0.6492249370
0.9126029015 0.9148703814 0.6284333467
0.9955095053 0.8861929178 0.7151033878
0.1362805963 0.8257853985 0.6131058335
0.2554569244 0.9463422894 0.7474880815
0.4434149563 0.9984016418 0.6755374670
0.7716561556 0.9996477962 0.6798393130
1.0000000000 1.0000000000 0.7064875960
0.0891703367 0.4115857780 0.9975382090
0.4417454302 0.4129286706 0.9800832868
0.7503839731 0.4161512554 0.9988412857
0.9891492724 0.4493456185 0.9990541339
0.9878060222 0.5029279590 0.8458809257
0.0536902212 0.5214250088 0.9991654754
0.3981900811 0.5277388096 1.0000000000
0.7544787526 0.5405371785 1.0000000000
0.9976507425 0.5443160534 1.0000000000
1.0000000000 0.7041882277 0.7249664664
0.2372752726 0.7704770565 0.9982999563
0.2386837155 0.7091484070 1.0000000000
0.7106778026 0.7328736186 1.0000000000
0.9700518250 0.7425913811 0.9890197515
0.9968699813 0.8279068470 0.7811937928
0.1020193622 0.7931188941 0.9798333645
0.0705392808 0.9817976356 1.0000000000
0.6087045074 0.9176055789 0.9888991714
0.9203171134 0.9218995571 0.9221675396
0.9888101220 0.9076595902 0.9042338729
0.1362868845 0.8710687757 0.8780200481
0.2350738496 0.9736862183 0.9637770653
0.4848970771 0.9728304744 1.0000000000
0.7801287174 1.0000000000 0.8651427031
1.0000000000 1.0000000000 0.8741872907
0.1395989060 0.6323829889 0.9980853200
0.6259377599 0.6763988733 0.9963703752
0.7949588895 0.6867722869 0.9999054670
0.9473872185 0.7565569282 1.0000000000
0.9951466918 0.6446423531 0.9520724416
0.2161530703 0.6985027194 0.9986833334
0.5903908014 0.7045043707 1.0000000000
0.7950980663 0.7519754171 0.9996382594
0.9470311999 0.8129972219 0.9998517632
0.9941741824 0.7418391109 0.9357251525
0.3086703420 0.8074011207 0.9994024038
0.5685867667 0.8136895895 0.9996079803
0.7720503211 0.8154649138 0.9996201992
0.9281799793 0.8576576114 0.9995913506
1.0000000000 0.5022101402 0.9361003041
0.3071255386 0.8820503354 0.9942447543
0.4028031826 0.9402131438 0.9992259741
0.7106674910 0.9339219928 1.0000000000
0.9168912172 0.9284513593 0.9979994297
1.0000000000 0.8798629045 0.9915057421
0.2254678756 0.9098522067 0.9703006148
0.3215500414 0.9695066810 0.9943148494
0.5087864399 0.9794954062 0.9996225238
0.8180658221 0.9931402206 1.0000000000
1.0000000000 1.0000000000 0.9997260571
