darktable/luts/provia.cube
TITLE "Generated by darktable_lut_creator
LUT_3D_SIZE 9
0.0000000000 0.0000000000 0.0000000000
0.0028048977 0.0000000000 0.0000000000
0.2616838217 0.0000000000 0.0000000000
0.4198598266 0.0000000000 0.0000000000
0.6362712979 0.0000000000 0.0000000000
0.7622989416 0.0000000000 0.0125936661
0.8830843568 0.0403288119 0.1272792071
0.8858447671 0.1708569974 0.0764394104
0.9057692885 0.2144649327 0.1308771968
0.0000000000 0.0000000000 0.0000000000
0.0388143882 0.0576698557 0.0000000000
0.2441835850 0.0373055488 0.0000000000
0.4580831528 0.0074586347 0.0000000000
0.6521482468 0.0000000000 0.0000000000
0.7813588381 0.0204853714 0.0223546661
0.8678918481 0.1068425179 0.1113002822
0.8704955578 0.1371997744 0.1158642098
0.9256938100 0.2580728829 0.1853149682
0.0000000000 0.2084822357 0.0000000000
0.0000000000 0.1443508863 0.0000000000
0.1483901441 0.1802092493 0.0000000000
0.4689532816 0.1801211834 0.0000000000
0.6805295348 0.2085049152 0.0000000000
0.8442903757 0.2240484655 0.0566969812
0.9257864952 0.2634374499 0.1326511800
0.9360313416 0.3068836033 0.1431006193
0.9655141234 0.4034196138 0.2437183559
0.0009991759 0.3059715927 0.0387235917
0.0000000000 0.4164250493 0.0000000000
0.0193605423 0.3492874205 0.0000000000
0.3738881946 0.3620654345 0.0000000000
0.6290166378 0.3790300786 0.0000000000
0.8206129074 0.4223175645 0.0000000000
0.9793993235 0.4725208580 0.1854887158
0.9179682136 0.5189708471 0.0405115336
0.9947375655 0.4486395121 0.3061819077
0.0019998301 0.4213341177 0.0837501213
0.0000000000 0.5064107776 0.0239507407
0.0000000000 0.5865458846 0.0000000000
0.2175442874 0.5513265729 0.0000000000
0.5743563175 0.5545639992 0.0000000000
0.7692036033 0.5876469612 0.0000000000
0.9139145613 0.6072198749 0.0794527009
0.9549285769 0.6488122344 0.1577276886
0.9465451241 0.6053600311 0.1784653217
0.0059918924 0.5447587371 0.1281282455
0.0083370153 0.6226841807 0.0497548394
0.0242915750 0.6954457760 0.0000000000
0.0728747249 0.7222968936 0.0000000000
0.4715872705 0.7069827914 0.0000000000
0.7338980436 0.7420641184 0.0000000000
0.8996952772 0.7525582314 0.0631586388
0.9857435822 0.7956425548 0.2669174075
0.9753325582 0.8007763624 0.2060102075
0.0073181950 0.6325950623 0.1119177267
0.0086444980 0.7204313278 0.0957072079
0.0094761848 0.7768742442 0.0313533023
0.0000000298 0.8127522469 0.0000000000
0.3100177348 0.8364796638 0.0000000000
0.6955546141 0.8517649770 0.0047730505
0.8557056189 0.8678381443 0.1206487194
0.9722197652 0.8932583332 0.1286032945
1.0000000000 0.9048009515 0.3671346009
0.0185357369 0.7080442309 0.1004874259
0.0297532771 0.7834933996 0.0890571177
0.0508620553 0.8465554714 0.0824070349
0.0849019289 0.8833837509 0.0288493857
0.1686971784 0.9281250238 0.0000000000
0.5991383791 0.9588783383 0.0238515288
0.8736141920 0.9735658169 0.0931775421
1.0000000000 1.0000000000 0.2325560153
1.0000000000 0.9866915941 0.3517496586
0.0375263393 0.7640357018 0.0901293382
0.0565169454 0.8200271130 0.0797712505
0.0832806155 0.8565608263 0.0704853833
0.1156991720 0.8665662408 0.0585637391
0.2024518102 0.8596135974 0.0206240639
0.4386582375 0.9208726287 0.0618721917
0.7480839491 0.9936571121 0.2890781164
0.9691863060 1.0000000000 0.3209557831
1.0000000000 1.0000000000 0.4364731610
0.0000000000 0.0000000000 0.0222937539
0.1081229523 0.0138746100 0.0821400732
0.2148247808 0.0000000000 0.0310916305
0.4594679475 0.0000000000 0.0168713108
0.6349404454 0.0000000000 0.0302179679
0.7796643972 0.0000000000 0.0947979838
0.8434196115 0.0138298348 0.1603821218
0.8866497278 0.1395850331 0.1848309487
0.9111635685 0.1958830804 0.1706901789
0.0000000000 0.1050255597 0.0974201784
0.0912299156 0.0931364670 0.0820152164
0.2553955019 0.0627012253 0.0776328146
0.4703097939 0.0081338286 0.0286546201
0.6428854465 0.0056616664 0.0336498097
0.7974516153 0.0275119245 0.0900797248
0.8822365999 0.0835184455 0.1506850272
0.8941383958 0.1879332066 0.1830611229
0.9410716891 0.2335992754 0.1963623762
0.0000000000 0.0679366887 0.0000000000
0.0000000000 0.1956584454 0.0253672376
0.1952490509 0.2040126920 0.0019214377
0.4815075696 0.2035779506 0.0049137920
0.7053818703 0.2181574553 0.0691123754
0.8382033110 0.2330200821 0.1132421494
0.9459266663 0.2400071472 0.1944394708
0.8952553272 0.3278742433 0.1837797612
1.0000000000 0.3814949989 0.2647173405
0.0029975278 0.2930074930 0.1161707714
0.0000000000 0.3844590485 0.0000000000
0.0268042833 0.3754136860 0.0000000000
0.4006198347 0.3803296089 0.0000000000
0.6518644094 0.4033105671 0.0000000000
0.8526768088 0.4390611947 0.0981087759
0.9604917765 0.4594961405 0.1417849362
0.9515761137 0.5062171817 0.2702240348
0.9856757522 0.4951541722 0.1835839748
0.0050003142 0.4516199529 0.1885760278
0.0000000000 0.5162612796 0.0718522221
0.0000000000 0.5767667890 0.0000000000
0.2111157477 0.5635243654 0.0000000000
0.6005270481 0.5745493174 0.0000000000
0.7707254887 0.5885448456 0.0199814215
0.9540967941 0.6360451579 0.1591461897
0.9614925981 0.6376200914 0.1554438174
0.9725716710 0.6493638754 0.2424019426
0.0076388321 0.5902578235 0.2508797944
0.0007194713 0.6661958694 0.1253137738
0.0000000000 0.7774946094 0.0000000000
0.0666204691 0.7140780687 0.0000000000
0.4945758581 0.7314299941 0.0000000000
0.7436956167 0.7418268919 0.0033874288
0.9222739339 0.7718929648 0.1195973158
0.9974779487 0.7917717099 0.2172895819
0.9855358005 0.8019088507 0.2695522606
0.0076924395 0.6615294814 0.1896036714
0.0081202919 0.7617356181 0.2060134858
0.0041369488 0.8224247098 0.0940599069
0.0000000000 0.8429529667 0.0000000000
0.3057240844 0.8333727121 0.0000000000
0.6918097734 0.8620913029 0.0000000000
0.8744500279 0.8895019889 0.1387093961
1.0000000000 0.9109283686 0.2310840487
0.9982546568 0.9048709273 0.3129155338
0.0194184594 0.7259287238 0.1502624750
0.0320272036 0.8082124591 0.1606963426
0.0582080483 0.8794083595 0.1870184392
0.0860085860 0.9092741013 0.0865481570
0.1441973150 0.9479861259 0.0000000000
0.5857939720 0.9464657307 0.0225870684
0.8617247939 0.9850253463 0.1281096935
1.0000000000 1.0000000000 0.1961228549
1.0000000000 0.9940309525 0.3277807534
0.0362728909 0.7735951543 0.1210611388
0.0518738739 0.8308210373 0.1227915958
0.0670774803 0.8642234802 0.1279072016
0.0597437806 0.8567013144 0.1262177676
0.0000000000 0.7298431396 0.0000000000
0.3992297947 0.9472536445 0.0553593263
0.7335590720 1.0000000000 0.3042502999
0.9004762173 1.0000000000 0.3886980712
1.0000000000 1.0000000000 0.4117100537
0.0668663234 0.0842970163 0.2967230976
0.0895528346 0.0662448108 0.2554430962
0.2879879177 0.0396144278 0.2717359960
0.4922509193 0.0041374592 0.2520056069
0.6771315932 0.0002496775 0.2630640268
0.7992922068 0.0287361201 0.2881457806
0.8859907985 0.0974924639 0.3304939270
0.9108865261 0.2082392573 0.3474189043
0.9260132313 0.2653070390 0.2869779468
0.0506334305 0.0995294005 0.2661078274
0.1187500134 0.1140611768 0.2734634578
0.2932527959 0.0977499709 0.2803620398
0.4890788794 0.0509120524 0.2429360449
0.6910091639 0.0746303275 0.2694113553
0.8189885616 0.0811266750 0.2770937979
0.9060865641 0.1236324981 0.3361431062
0.9203804135 0.2178324312 0.3527829349
0.9559895992 0.3917987645 0.3428247571
0.0191691052 0.2673602402 0.2872441411
0.0634124577 0.2788294852 0.2790250480
0.2899310589 0.2891339064 0.2897223830
0.5463116765 0.2801167071 0.2998677194
0.7147173882 0.2517316043 0.2764949799
0.8598940969 0.2644412816 0.3042776287
0.9434062243 0.2892667055 0.3346481919
0.9385964870 0.3637284040 0.3629149795
0.9780236483 0.3686234057 0.3437188268
0.0089925835 0.4266267717 0.3485123217
0.0000000000 0.4634396434 0.1794938743
0.1599670649 0.4617230296 0.2070919275
0.4701001942 0.4614867866 0.2242825031
0.7149164081 0.4674348235 0.2454456240
0.8783068657 0.4755811691 0.2865826786
0.9955972433 0.4961095452 0.3683607578
0.9835518599 0.5230401754 0.3414245248
0.9850970507 0.5515004396 0.4059874415
0.0120034143 0.5455910563 0.3777050972
0.0000000000 0.5875578523 0.2155566663
0.0000000000 0.6401599050 0.1143885106
0.3237640262 0.6290794611 0.1450317204
0.6428244114 0.6340432167 0.1968202442
0.8454471827 0.6643655896 0.2492363453
0.9593812227 0.6323078275 0.2858101130
1.0000000000 0.6952658892 0.3735798597
0.9960219860 0.6687102914 0.3939553499
0.0171967093 0.6529576778 0.4387495518
0.0021584139 0.7048316598 0.3040891290
0.0000000000 0.7596805096 0.1850622892
0.1364810020 0.7820630074 0.0855103135
0.5495619774 0.7580232024 0.1337395906
0.8153578043 0.8189476728 0.3029568493
0.9339531660 0.7927521467 0.2745419145
1.0000000000 0.8214327097 0.3764784634
1.0000000000 0.8011122942 0.4218380749
0.0147978691 0.7036911845 0.3423399925
0.0195044558 0.7965862155 0.3986667693
0.0124108763 0.8468264937 0.2821797132
0.0000000000 0.8845558167 0.1443107277
0.3786658347 0.8963713050 0.1072424054
0.7303912640 0.8833025098 0.2265992016
0.9134865403 0.9283362627 0.3458856046
1.0000000000 0.9110959172 0.3314203918
1.0000000000 0.9054131508 0.4310159683
0.0265176948 0.7555760741 0.2686241865
0.0453367569 0.8371083140 0.3132701218
0.0844786167 0.9065262675 0.3804472685
0.1138284802 0.9368832707 0.2596444786
0.1756941676 0.9595395327 0.1299184263
0.6371777058 0.9886925817 0.1998336464
0.9068180919 1.0000000000 0.2332655042
1.0000000000 1.0000000000 0.3553489745
1.0000000000 0.9882942438 0.4271172285
0.0407972597 0.7951135635 0.2079930753
0.0596011989 0.8561694026 0.2342938632
0.0815929547 0.9005787969 0.2668198645
0.0932227597 0.9309867024 0.2921051383
0.0000000000 0.8715707064 0.0337534696
0.4550020695 0.9935121536 0.2940353453
0.7012978792 1.0000000000 0.4513506889
0.9018868804 1.0000000000 0.4715903699
0.9992685914 1.0000000000 0.5062147975
0.0653245524 0.1063311100 0.5363344550
0.1741242707 0.1013617143 0.5502576232
0.3363405764 0.1056826636 0.5421239734
0.5488609076 0.1003953069 0.5456876755
0.7124813795 0.0985592157 0.5302709341
0.8445573449 0.1257287264 0.5419809818
0.9239585400 0.1657657623 0.5617380142
0.9436348677 0.2810596526 0.5780946612
0.9470495582 0.3235267401 0.4692904949
0.0889046267 0.1741133183 0.5596426129
0.1646260172 0.1645518243 0.5606428385
0.3305832744 0.1490630358 0.5466759205
0.5571547151 0.1588443816 0.5505465269
0.7198302746 0.1442170143 0.5265633464
0.8567844033 0.1628642082 0.5450860858
0.9245463610 0.2065851092 0.5632615089
0.9424679875 0.3120310307 0.5534131527
0.9715004563 0.4242135584 0.5427987576
0.0785302594 0.3209077716 0.5497184396
0.1045436561 0.3212321997 0.5450156927
0.3351288140 0.3311439455 0.5453864932
0.5573340654 0.3173719049 0.5409814715
0.7422118187 0.3020482659 0.5321424603
0.8788051605 0.3286556005 0.5429038405
0.9657860398 0.3106672466 0.5736711025
0.9572097063 0.4268066287 0.5740320683
1.0000000000 0.4920290411 0.5639261007
0.0078086457 0.5490804911 0.5787988901
0.0000000000 0.5057137012 0.5102277398
0.2467379719 0.5205751061 0.5249636769
0.5201632977 0.5129531622 0.5149806738
0.7354676723 0.5065708756 0.5241783857
0.8872735500 0.5045193434 0.5231733918
0.9974850416 0.5361933708 0.5565432906
1.0000000000 0.5606959462 0.5725451112
0.9897776842 0.5755134225 0.5756437778
0.0270176604 0.6225885153 0.5690462589
0.0000000000 0.6590740681 0.3527876139
0.0424766988 0.6894988418 0.4662603736
0.4125714302 0.6749674082 0.4699902534
0.6853360534 0.6786904931 0.4766434431
0.8661494851 0.6910679936 0.5266702175
0.9772893190 0.6767196655 0.5210955143
1.0000000000 0.7061010599 0.5948588848
1.0000000000 0.7077701688 0.5222656727
0.0374283008 0.7084503174 0.6344544888
0.0064752414 0.7672567368 0.5116484165
0.0000000000 0.8609714508 0.4344574809
0.2387538701 0.8205759525 0.4351982772
0.5960443020 0.8007102013 0.4366254508
0.8277593851 0.8262409568 0.4291850328
0.9897999763 0.8395570517 0.5201195478
1.0000000000 0.8004003167 0.5153322220
1.0000000000 0.8197103143 0.5718182325
0.0320567489 0.7500806451 0.5288419724
0.0439440757 0.8381004333 0.6097314954
0.0372326300 0.8962431550 0.5171661377
0.0159549713 0.9289251566 0.3897365928
0.4701813459 0.9350472689 0.4431115091
0.7601422071 0.9187563658 0.4716334641
0.9030845165 0.9101006985 0.4682651758
1.0000000000 0.9147781730 0.5382331014
0.9986706376 0.9002664089 0.5821868181
0.0435778499 0.7920053005 0.4349908829
0.0721591040 0.8703592420 0.5075064301
0.1271964908 0.9358689785 0.5995175838
0.1657912880 0.9665544629 0.5047042966
0.2610396147 1.0000000000 0.4214862883
0.6748864055 1.0000000000 0.4110602140
0.9314223528 1.0000000000 0.4391636252
1.0000000000 0.9987596869 0.4763164818
1.0000000000 0.9888912439 0.5840758681
0.0566402264 0.8253559470 0.3504263461
0.0855455697 0.8889489174 0.4082950652
0.1248764098 0.9403180480 0.4830849469
0.1658397764 0.9845063090 0.5829174519
0.1030176282 1.0000000000 0.5462092161
0.4832047224 1.0000000000 0.4574968517
0.6901794672 1.0000000000 0.5684569478
0.8871630430 1.0000000000 0.6227347851
0.9979251027 1.0000000000 0.6159952283
0.1201530471 0.2169103175 0.8018585443
0.2565075159 0.2064545900 0.7919133902
0.3896891475 0.1926996708 0.7852312326
0.5883910656 0.1989668906 0.7729108334
0.7542786598 0.2077094913 0.7787568569
0.8742014170 0.2233987451 0.7699257135
0.9478173256 0.2593988776 0.7804286480
0.9627571702 0.3747881949 0.7317056656
0.9699355960 0.4580603540 0.6352298260
0.1300139576 0.2577432990 0.7997328043
0.2491231561 0.2468819916 0.7926989198
0.3954864740 0.2401407659 0.7809416056
0.5859687328 0.2373656183 0.7764481306
0.7632743120 0.2527861595 0.7716352940
0.8813494444 0.2637740076 0.7746527195
0.9743331075 0.2857642174 0.7710720301
0.9645013809 0.3226169348 0.7357639670
1.0000000000 0.6758660674 0.7046932578
0.1345733702 0.3807518780 0.7836062908
0.2039229125 0.3880176544 0.7851601839
0.3669679761 0.3755457997 0.7782305479
0.5835962892 0.3643704951 0.7639850378
0.7648866773 0.3746212721 0.7775778174
0.8906770945 0.3842038214 0.7601550817
0.9812775254 0.4093648791 0.7624128461
0.9891195297 0.4753495753 0.7430401444
1.0000000000 0.5853716135 0.6862416267
0.0634526014 0.5596168637 0.7070756555
0.0691795647 0.5354715586 0.7336460352
0.3041992188 0.5460539460 0.7424845695
0.5421507359 0.5446636081 0.7372449636
0.7554644346 0.5421086550 0.7351508141
0.8913248777 0.5509096384 0.7462599874
1.0000000000 0.5594115853 0.7504513264
1.0000000000 0.6049064398 0.7751516700
1.0000000000 0.6628160477 0.6954837441
0.0732443333 0.6596110463 0.7755522728
0.0000000000 0.7206189036 0.6815274358
0.1469345391 0.7016375065 0.6978448033
0.4647335410 0.6964384913 0.6945765615
0.6976655126 0.6943663359 0.6974413395
0.8624235392 0.6918655634 0.6970036626
0.9892702699 0.7044879198 0.7327951789
1.0000000000 0.7087861896 0.7125387192
0.9988610744 0.7393366098 0.7385936379
0.0787919983 0.7355055809 0.8226687908
0.0194257237 0.7817247510 0.7477000356
0.0000000000 0.8383100033 0.6604484320
0.3147642612 0.8304620385 0.6609163880
0.6381587982 0.8264160752 0.6730820537
0.8204303980 0.8179653287 0.6797710657
0.9429524541 0.8008965254 0.6384166479
1.0000000000 0.8345395327 0.7305440903
0.9981939197 0.8212149143 0.7282048464
0.0663243681 0.7787958980 0.7172968984
0.0881243572 0.8508014679 0.8003799915
0.0957429186 0.8988328576 0.7273042798
0.1016782522 0.9341043234 0.6409264803
0.5052595139 0.9240371585 0.6201362610
0.7529557943 0.9104565978 0.6279948950
0.9104591012 0.9220839143 0.6620168686
1.0000000000 0.9155141711 0.6856891513
0.9992327690 0.9002695084 0.7535464764
0.0742839649 0.8198192716 0.6157146096
0.1129496694 0.8886566162 0.6948562264
0.1785655618 0.9448092580 0.7766823769
0.2203793079 0.9707382321 0.7028900981
0.3167417645 1.0000000000 0.6251262426
0.6970923543 1.0000000000 0.6360235810
0.9302603602 0.9976446629 0.6371180415
1.0000000000 1.0000000000 0.6637120247
1.0000000000 0.9869093299 0.7118113041
0.0854057670 0.8522772193 0.5171232820
0.1252931207 0.9116564393 0.5852289200
0.1773841381 0.9573639035 0.6525353789
0.2287104130 0.9869645238 0.6978388429
0.1862274110 1.0000000000 0.5132669806
0.5001786947 0.9993233085 0.6350054741
0.7245862484 1.0000000000 0.6824582815
0.9074737430 1.0000000000 0.7258499861
0.9973942637 1.0000000000 0.7250332832
0.1749535054 0.3079637289 0.9708878398
0.3493860960 0.2947727442 0.9597188830
0.4611004591 0.2965606451 0.9536341429
0.6290591955 0.2889329791 0.9525605440
0.7809538245 0.3091669083 0.9520756602
0.9058364034 0.3274063170 0.9498686790
0.9791808128 0.3506886363 0.9442335367
0.9864158630 0.4390521944 0.8892137408
0.9854505062 0.4638086557 0.7775856853
0.1830386072 0.3455731869 0.9774479866
0.3380045891 0.3383179009 0.9591907263
0.4424689412 0.3223956227 0.9612109661
0.6285583377 0.3347144127 0.9462715387
0.7836732864 0.3336590230 0.9495698214
0.9092499614 0.3667933941 0.9414012432
0.9865638018 0.3841327131 0.9500975013
0.9929561019 0.4863322079 0.8889750838
1.0000000000 0.4943134487 0.8083134890
0.1771251559 0.4461303353 0.9592352509
0.2965897918 0.4413582981 0.9636275768
0.4356912374 0.4409562051 0.9518660307
0.6179000139 0.4343940020 0.9461683035
0.7799508572 0.4493287504 0.9342826605
0.9183781147 0.4553523064 0.9350941181
1.0000000000 0.4755263329 0.9461280107
1.0000000000 0.5639275908 0.8895319700
1.0000000000 0.5553758144 0.8097379208
0.1535955966 0.5762324929 0.9417229295
0.1855991036 0.5873346925 0.9315777421
0.3742067814 0.5839576125 0.9258396626
0.5813856125 0.5844886899 0.9117264748
0.7679806948 0.5809785128 0.9108431339
0.9016501904 0.5890413523 0.9129136801
1.0000000000 0.6035892963 0.9126592875
1.0000000000 0.6278213263 0.8797278404
0.9983893633 0.7310726047 0.7462152243
0.1562803984 0.6985973716 0.9380538464
0.0000000000 0.7150151730 0.8779865503
0.2459831387 0.7203254700 0.8662996292
0.5105266571 0.7169288993 0.8683248162
0.7168331146 0.7170834541 0.8590080142
0.8663901687 0.7170069218 0.8534055948
0.9764429331 0.7111527920 0.8531507254
1.0000000000 0.7525929809 0.8784447908
0.9995459914 0.7803208828 0.8076271415
0.1437059492 0.7651810050 0.9447541833
0.0582771711 0.7862453461 0.9011242390
0.0367945731 0.8379216194 0.8332842588
0.3839308023 0.8353469968 0.8336923122
0.6567180753 0.8254793286 0.8186254501
0.8386541009 0.8368045688 0.8370177150
0.9919314384 0.8650141954 0.8690754175
1.0000000000 0.8118153214 0.8157767057
0.9989935160 0.8751244545 0.8741978407
0.1197449192 0.8052746654 0.8627288938
0.1492044181 0.8718469143 0.9261357188
0.1855505258 0.9240843654 0.8805380464
0.1846551299 0.9343314171 0.8083299994
0.5448811054 0.9234897494 0.7965512872
0.8026875257 0.9312285781 0.8192547560
0.9234073162 0.9193133116 0.8300408125
1.0000000000 0.9200024009 0.8281599879
0.9988240600 0.9104299545 0.8427889347
0.1182016805 0.8445158005 0.7729083896
0.1605761796 0.9084534645 0.8402815461
0.2195744663 0.9648568630 0.8998528123
0.2427179068 0.9781104922 0.8426173329
0.3872978985 1.0000000000 0.7883379459
0.7157915831 1.0000000000 0.7842508554
0.9132094383 1.0000000000 0.7959449291
1.0000000000 0.9954890609 0.7991020679
1.0000000000 0.9790893197 0.8420885205
0.1246873364 0.8756979108 0.6783912182
0.1704545617 0.9303006530 0.7451420426
0.2254943848 0.9707919955 0.8099158406
0.2795245647 0.9901552796 0.8773594499
0.3139564693 0.9952695966 0.8626598716
0.5123042464 1.0000000000 0.7721966505
0.7384036183 0.9999843240 0.7866430283
0.9060375690 1.0000000000 0.8238184452
0.9967427850 1.0000000000 0.8161370158
0.2376625836 0.4191060364 1.0000000000
0.4424491227 0.4040250480 1.0000000000
0.5311507583 0.4016609788 0.9922021627
0.6764965057 0.4035277367 0.9845995903
0.8087686300 0.4121716619 0.9888344407
0.9254082441 0.4275684953 0.9883804917
1.0000000000 0.4682843387 0.9946790934
0.9985412955 0.5466701388 0.9957652688
0.9936544299 0.5303882957 0.8654472232
0.2540419102 0.4462798834 1.0000000000
0.4335556030 0.4290021062 1.0000000000
0.5261625648 0.4322551191 1.0000000000
0.6718813777 0.4324474633 0.9961736798
0.8092591763 0.4455106556 1.0000000000
0.9206748009 0.4738791287 1.0000000000
1.0000000000 0.4923324585 1.0000000000
1.0000000000 0.5618196726 1.0000000000
0.9969713092 0.5806862116 0.8229907155
0.2484377772 0.5261762142 1.0000000000
0.3943004310 0.5275985003 1.0000000000
0.4992330968 0.5167219639 1.0000000000
0.6620446444 0.5161243081 1.0000000000
0.8069819808 0.5205789804 1.0000000000
0.9248219728 0.5491201878 1.0000000000
1.0000000000 0.5572993159 1.0000000000
1.0000000000 0.6256554127 0.9874434471
0.9909137487 0.6859254837 0.6606588364
0.2529202402 0.6399855614 1.0000000000
0.3202024102 0.6342023611 1.0000000000
0.4511621594 0.6329528093 1.0000000000
0.6233245134 0.6278429031 1.0000000000
0.7843019366 0.6308208704 1.0000000000
0.9063866138 0.6427828074 1.0000000000
1.0000000000 0.6570757031 1.0000000000
1.0000000000 0.6887198687 0.9899437428
0.9951738119 0.7736735344 0.7718154192
0.3152455986 0.8045443296 0.9944521785
0.2034593374 0.7534322739 1.0000000000
0.3502629995 0.7457627654 1.0000000000
0.5665881038 0.7506272793 0.9980783463
0.7488955259 0.7468069792 0.9905099869
0.8775990605 0.7491921782 0.9853562713
0.9899646044 0.7537387609 0.9916919470
1.0000000000 0.7687234879 0.9654531479
0.9990444183 0.8391486406 0.8128067255
0.2165602893 0.8107002378 0.9950844646
0.1380369365 0.8057992458 0.9921019673
0.2106514722 0.8587567210 0.9763059020
0.4540300667 0.8468030691 0.9554740191
0.6963275671 0.8508717418 0.9642888904
0.8383749723 0.8446606398 0.9468768835
0.9828428030 0.8721952438 0.9613755941
1.0000000000 0.8406794071 0.9479936361
0.9990883470 0.8949199319 0.9038679004
0.1800302416 0.8403952718 0.9515194297
0.2037855238 0.9052109122 0.9967448711
0.3352018595 1.0000000000 1.0000000000
0.3134914339 0.9436536431 0.9505233765
0.6103356481 0.9383307099 0.9423306584
0.8246832490 0.9349447489 0.9366542697
0.9294196963 0.9311016202 0.9306682348
1.0000000000 0.9314646721 0.9312508702
0.9948562980 0.9182581902 0.9293456078
0.1655013710 0.8734192848 0.8874125481
0.1982722282 0.9353466630 0.9378097653
0.2304549664 0.9923756719 0.9764030576
0.1562006772 1.0000000000 0.9311839342
0.4600769877 1.0000000000 0.9083918333
0.7389368415 1.0000000000 0.9024094343
0.9076405168 0.9914537072 0.9147940874
1.0000000000 0.9972778559 0.8937079906
1.0000000000 0.9784691930 0.9225594997
0.1650269479 0.8999722004 0.8094151616
0.2048921138 0.9507994652 0.8624417186
0.2459495664 0.9867511392 0.9043733478
0.2818993330 0.9970857501 0.9268012047
0.3667984605 0.9920384288 0.8639425039
0.5546669364 1.0000000000 0.8681591749
0.7741218209 1.0000000000 0.8712915778
0.9224781990 1.0000000000 0.8947882056
0.9989883900 1.0000000000 0.8933604956
0.2953467667 0.4883456230 0.9961803555
0.5681482553 0.4853429794 0.9871057868
0.5715196133 0.4720751941 0.9945421815
0.7233670950 0.4940218031 0.9926846027
0.8410425186 0.4922706187 0.9961083531
0.9575098753 0.5381013751 1.0000000000
1.0000000000 0.5123520494 0.9965456128
0.9989240170 0.6312107444 0.9993203282
0.9968397021 0.6064003110 0.9175685048
0.3165602684 0.5114095211 0.9983906746
0.5085377693 0.5131971836 0.9937430024
0.5737453699 0.4918380678 0.9957067370
0.7264311314 0.5250768661 0.9954434633
0.8328341246 0.5348654985 0.9961871505
0.9734481573 0.4948408604 0.9975953698
1.0000000000 0.5519776344 1.0000000000
0.9998790622 0.6498692632 1.0000000000
0.9979405403 0.6576018333 0.8879380822
0.3063467741 0.5719829798 0.9992918372
0.5023570061 0.5586874485 0.9985291958
0.5530058742 0.5712399483 0.9985625148
0.6965893507 0.5536406040 0.9984926581
0.8262026906 0.5871725082 1.0000000000
0.9494313002 0.5896613002 1.0000000000
1.0000000000 0.6101999283 0.9979790449
1.0000000000 0.6757958531 1.0000000000
0.9969713092 0.7422499657 0.8408237100
0.2936632037 0.6675907373 1.0000000000
0.3688633144 0.6688721180 0.9991807342
0.5227037072 0.6669123173 0.9978877902
0.6513989568 0.6579952240 1.0000000000
0.7993916869 0.6623088121 1.0000000000
0.9225695133 0.6718702316 1.0000000000
1.0000000000 0.6800618172 1.0000000000
1.0000000000 0.7271350622 1.0000000000
1.0000000000 0.8650285006 0.8618124127
0.1696609557 0.7420215011 0.9965127707
0.2845804095 0.7765349150 1.0000000000
0.4264231920 0.7750835419 1.0000000000
0.6138640046 0.7752654552 1.0000000000
0.7717121243 0.7723374367 1.0000000000
0.8903510571 0.7754371166 1.0000000000
1.0000000000 0.7714999914 1.0000000000
1.0000000000 0.7973011136 1.0000000000
1.0000000000 0.8665632010 0.9277949929
0.1963983327 0.8217572570 0.9986991882
