darktable/luts/provia_profiled_xt3.cube
# Generated by darktable_lut_creator: https://github.com/wilecoyote2015/darktabe_lut_generator
# Calculated for Higlight clipping, gamut compression=3 in color balance and custon x-t3 input profile; tetrahedral interpolation.
TITLE "Custom Profile for Fuji X-T3"
LUT_3D_SIZE 11
0.0000000000 0.0000000000 0.0000000000
0.0305131488 0.0000000000 0.0000000000
0.1357724667 0.0038165534 0.0000000000
0.2897117138 0.0019751880 0.0000000000
0.4801026285 0.0092184162 0.0004850445
0.5462981462 0.0054099183 0.0002425230
0.6370528936 0.0027049591 0.0001212622
0.7189333439 0.0392259024 0.0274473187
0.7736384273 0.0564246327 0.0357810296
0.8075553179 0.0633926764 0.0289192013
0.8358033895 0.0895214230 0.0440423563
0.0000000000 0.0209003780 0.0000000000
0.0243457742 0.0331749171 0.0000000000
0.1413380355 0.0500792414 0.0000000000
0.2964745760 0.0333479531 0.0000000000
0.4528464377 0.0118028093 0.0000000000
0.5434960723 0.0253982749 0.0000808415
0.6449151039 0.0270480663 0.0000673684
0.7281339765 0.0774537101 0.0292575378
0.7826633453 0.0910392180 0.0378086120
0.8166022301 0.0947552398 0.0396398008
0.8426328301 0.1125919819 0.0531338118
0.0032170310 0.0905593038 0.0035443429
0.0096510928 0.1004216075 0.0000000000
0.1205475330 0.1136934683 0.0000000000
0.2793655992 0.1184112728 0.0000000000
0.4555928707 0.1293233633 0.0000000000
0.5512741208 0.1095203757 0.0000269477
0.6567264199 0.1063233390 0.0000314392
0.7379834652 0.1537744254 0.0310279354
0.7936100364 0.1572417617 0.0453150570
0.8294757009 0.1537661552 0.0570651777
0.8540951610 0.1587259322 0.0683440343
0.0059936563 0.1717513651 0.0311939716
0.0000000015 0.2094936371 0.0001470328
0.0549556427 0.2109843642 0.0000017108
0.2350945473 0.2222820967 0.0004160822
0.4216233790 0.2312452644 0.0003515483
0.5348681808 0.2101247162 0.0001261658
0.6479139328 0.2066045851 0.0000525355
0.7356004715 0.2526491582 0.0281238649
0.8006818295 0.2508063018 0.0489824675
0.8423185349 0.2383807153 0.0711473972
0.8676671982 0.2291571051 0.0863377750
0.0102118300 0.2551977932 0.0695632622
0.0028823989 0.2836551368 0.0217273701
0.0000000030 0.3005982637 0.0001563805
0.1612604707 0.3196288943 0.0008412021
0.3493955135 0.3419996500 0.0005329121
0.4954614639 0.3241991699 0.0002196932
0.6223419905 0.3201961219 0.0000907434
0.7179753184 0.3586133420 0.0212642383
0.7958157659 0.3542864025 0.0464129783
0.8478313088 0.3368639648 0.0769553259
0.8783134818 0.3183821738 0.0991137549
0.0178099107 0.3348657787 0.1359295994
0.0103210276 0.3576454222 0.0841997862
0.0034403445 0.3851319849 0.0281187221
0.0846141055 0.4043129981 0.0096533084
0.2615391314 0.4218612611 0.0033954075
0.4352317154 0.4259971678 0.0012050340
0.5875508785 0.4333016872 0.0004319263
0.6950005889 0.4559625387 0.0072320555
0.7862213254 0.4556148052 0.0402443111
0.8484320045 0.4437364042 0.0750142634
0.8852396607 0.4224358499 0.1032344401
0.0211256724 0.4079134464 0.1536002606
0.0183071923 0.4376491308 0.1260153204
0.0115119480 0.4661690891 0.0667150021
0.0320420228 0.4837876558 0.0259340014
0.1738401502 0.5016610026 0.0097764703
0.3567165434 0.5106013417 0.0036605019
0.5286261439 0.5229360461 0.0013641432
0.6596289277 0.5406776071 0.0130320368
0.7665109634 0.5473041534 0.0395707265
0.8392221928 0.5449326634 0.0583407395
0.8851494789 0.5282612443 0.0902908444
0.0266802274 0.4739593267 0.1816362590
0.0257845875 0.4995914698 0.1666602939
0.0213841554 0.5329286456 0.1236468181
0.0207927208 0.5606051087 0.0653045848
0.1096095070 0.5773248076 0.0301751252
0.2742809951 0.5893675685 0.0129945772
0.4548509121 0.6040297151 0.0076702964
0.6085895896 0.6206440926 0.0199251268
0.7355343699 0.6327444911 0.0431506746
0.8253397346 0.6377459168 0.0483186245
0.8821617961 0.6279547215 0.0786219314
0.0310405828 0.5368322134 0.1967781633
0.0305943135 0.5573224425 0.1860918850
0.0278413203 0.5894154906 0.1550080925
0.0240702201 0.6208672523 0.1061233878
0.0620901585 0.6343938708 0.0580441505
0.1898562908 0.6447271705 0.0284553599
0.3688745201 0.6638360620 0.0145951658
0.5421230197 0.6863843799 0.0166993085
0.6913290620 0.7075940967 0.0338331833
0.8007755876 0.7187814116 0.0504380576
0.8720707297 0.7160944939 0.0821303949
0.0372900590 0.5928324461 0.2117646933
0.0375989415 0.6081171632 0.2047362477
0.0374975130 0.6366260052 0.1838567108
0.0373035967 0.6692252159 0.1485627890
0.0550217591 0.6881944537 0.1040863395
0.1374430060 0.7000825405 0.0620825104
0.2895992696 0.7188203335 0.0361895561
0.4647928178 0.7431247234 0.0311471242
0.6293087006 0.7685001493 0.0451852493
0.7599611878 0.7856249809 0.0671561658
0.8498914242 0.7904541492 0.0997353196
0.0465173721 0.6440993547 0.2253122628
0.0476615541 0.6553301215 0.2209711671
0.0500819273 0.6791101098 0.2076892853
0.0537854992 0.7093787193 0.1840932816
0.0648854226 0.7320916057 0.1507830471
0.1074905172 0.7429585457 0.1037549153
0.2229086608 0.7590231299 0.0652592704
0.3872946203 0.7835941911 0.0469708852
0.5597332120 0.8118425012 0.0549785048
0.7084509730 0.8343023658 0.0786088854
0.8173649907 0.8462643623 0.1153090671
0.0000000000 0.0071305218 0.0488994010
0.0467829518 0.0141779296 0.0475478582
0.1490947157 0.0245403424 0.0520628057
0.2951089740 0.0040507955 0.0154994475
0.4596469700 0.0007176466 0.0000000015
0.6124936342 0.0016014201 0.0000000015
0.7278076410 0.0000000000 0.0000000015
0.8008138537 0.0757468492 0.0547733754
0.8283435106 0.0736233667 0.0441147424
0.8414722085 0.0703607202 0.0220573731
0.8640514612 0.1156501770 0.0591655076
0.0000000000 0.0529191568 0.0550756790
0.0508608110 0.0553392842 0.0490583628
0.1613140255 0.0770691782 0.0640273765
0.3011173904 0.0471750610 0.0256673899
0.4695822001 0.0381375253 0.0000000015
0.6313437223 0.0589820966 0.0000000015
0.7541962266 0.0530409664 0.0000000015
0.8205534816 0.1660871506 0.0602579303
0.8462176919 0.1392392963 0.0483872704
0.8595881462 0.1298338324 0.0521915853
0.8754928708 0.1534992903 0.0757192746
0.0000000000 0.1503559500 0.0106330290
0.0422825553 0.1332654655 0.0406486765
0.1367305964 0.1324310750 0.0399155542
0.3013143539 0.1386169940 0.0219104029
0.4878456295 0.1528213024 0.0041626985
0.6547334790 0.1738394797 0.0000000015
0.7739901543 0.1824015677 0.0000000015
0.8290899396 0.2775462270 0.0637948290
0.8601832986 0.2269116640 0.0671086237
0.8782147765 0.2093014717 0.0862406716
0.8901768327 0.2098196894 0.0948331133
0.0147639355 0.2152011544 0.0898905396
0.0000000015 0.2318128049 0.0000000015
0.0679525137 0.2403124720 0.0000000015
0.2632685900 0.2512965798 0.0000000015
0.4542894065 0.2707470059 0.0000000015
0.6317068934 0.2896084785 0.0000000015
0.7521472573 0.3033656776 0.0000000015
0.8209039569 0.3975684941 0.0532911271
0.8728349209 0.3425280154 0.0735084713
0.8967981339 0.3105697036 0.1073945537
0.9065878391 0.2903646827 0.1195218861
0.0217594337 0.3101868927 0.1557684392
0.0086471923 0.3408734500 0.0648787022
0.0000000030 0.3744774759 0.0000000015
0.2021461129 0.3835465014 0.0000000015
0.4185147285 0.4044257998 0.0000000015
0.6021206975 0.4204730690 0.0000000015
0.7236505747 0.4297845364 0.0000000015
0.7959833145 0.5029947758 0.0355781056
0.8687900901 0.4534394741 0.0689922273
0.9053597450 0.4179247618 0.1133056208
0.9194419980 0.3891254365 0.1340481639
0.0254079904 0.4145337641 0.2022959441
0.0102707744 0.4544154108 0.0949423686
0.0000000030 0.4971523583 0.0000000015
0.0891414955 0.5081781149 0.0000000015
0.3506078422 0.5192710757 0.0000000015
0.5486945510 0.5319311023 0.0000000015
0.7050790191 0.5537117124 0.0000000015
0.7794755697 0.5759726167 0.0000000015
0.8678476810 0.5565955043 0.0670879036
0.9112434387 0.5387304425 0.1078431681
0.9289736152 0.5051890016 0.1355753094
0.0244414341 0.4809611440 0.1712709218
0.0234748777 0.5473884940 0.1402458996
0.0127883069 0.5757262111 0.0460109673
0.0000000119 0.5808809400 0.0014336932
0.2279392928 0.5993340611 0.0000000015
0.4610778093 0.6041459441 0.0000000015
0.6416109800 0.6249051094 0.0000000015
0.7552599907 0.6431343555 0.0304999128
0.8536826968 0.6456201673 0.0654358342
0.9027236104 0.6437575221 0.0604372174
0.9309866428 0.6174152493 0.1092973575
0.0322347842 0.5400052071 0.2096722573
0.0323663354 0.5871658921 0.1923293024
0.0268559288 0.6330254078 0.1375651509
0.0089519843 0.6650990844 0.0463329516
0.1341956407 0.6697081923 0.0154443188
0.3565168679 0.6801764369 0.0051481077
0.5616455078 0.6997854710 0.0086521683
0.7112889290 0.7172250152 0.0390730463
0.8315023780 0.7302852273 0.0699561611
0.9012625217 0.7355607152 0.0434644632
0.9359960556 0.7178569436 0.0972563401
0.0354009382 0.5997050405 0.2119200677
0.0349577777 0.6355437636 0.1948371679
0.0315454900 0.6779952645 0.1552856117
0.0235766191 0.7125812173 0.0980575010
0.0525907539 0.7049894929 0.0378339402
0.2331976891 0.7104199529 0.0143273501
0.4619162977 0.7427513003 0.0076598399
0.6489048600 0.7746729851 0.0155776301
0.7963299155 0.8036534190 0.0416495651
0.8856579661 0.8110042214 0.0691623613
0.9332747459 0.8015472889 0.1173311993
0.0435395390 0.6488326788 0.2267512083
0.0449124575 0.6741965413 0.2163521498
0.0470522754 0.7123453617 0.1918257624
0.0503430553 0.7501824498 0.1557082683
0.0656715184 0.7609640956 0.1056520939
0.1674509495 0.7673258781 0.0537058227
0.3624803126 0.7925424576 0.0318909883
0.5626561642 0.8241694570 0.0405525118
0.7318041921 0.8547818065 0.0705754384
0.8497993946 0.8695933223 0.1058451906
0.9176424146 0.8696429729 0.1499193907
0.0557446852 0.6953662634 0.2388598323
0.0588683523 0.7137739062 0.2328649908
0.0650867149 0.7453742623 0.2182399780
0.0739709735 0.7798007131 0.1960277408
0.0858490095 0.7987017035 0.1641695052
0.1201431230 0.7967014313 0.0983991921
0.2716361880 0.8152904510 0.0558333434
0.4741823673 0.8486347795 0.0445062630
0.6625964046 0.8834332824 0.0727793798
0.8056585193 0.9054396749 0.1136919856
0.8937525749 0.9140365124 0.1675830036
0.0456128828 0.0725693181 0.2058079094
0.0860497653 0.0698716938 0.1879310161
0.1750997901 0.0619226024 0.1808589101
0.3232878149 0.0300251767 0.1594626904
0.4899700880 0.0161203016 0.1459629834
0.6373135448 0.0093930941 0.1290266067
0.7528775930 0.0146090295 0.1064075008
0.8540803194 0.0611533970 0.1040621996
0.8558732271 0.0714998841 0.0334561095
0.8546009064 0.0670980737 0.0000000030
0.8866306543 0.1609396338 0.0962736458
0.0490297154 0.0953734964 0.1846072227
0.0929870903 0.1017725840 0.1870096028
0.1721481234 0.0971412808 0.1820034236
0.3268949986 0.0795189366 0.1644909382
0.4948074222 0.0898127481 0.1561404169
0.6567248106 0.1071504280 0.1490880400
0.7812932134 0.1442826688 0.1329672337
0.8783742785 0.1676742584 0.1169789582
0.8897561431 0.1780073941 0.0407891273
0.8910745978 0.1799014807 0.0861301199
0.9028390050 0.2150138766 0.1158007383
0.0350212008 0.1600996256 0.1714756191
0.0811418146 0.1724124402 0.1828089058
0.1849879473 0.1894612312 0.1921802610
0.3379976749 0.1860633790 0.1761562377
0.5088744164 0.1936335564 0.1696059257
0.6733912826 0.2061147690 0.1580856293
0.7958046198 0.2236615568 0.1350171119
0.8923756480 0.2526686192 0.1380933672
0.9052423835 0.2639494836 0.0891437680
0.9148728251 0.2711589336 0.1394218057
0.9168229103 0.2666583061 0.1225394085
0.0442918055 0.2634347379 0.2590385973
0.0215630066 0.3045560718 0.1558731049
0.1367072463 0.2986047864 0.1447359622
0.3172184825 0.3127569556 0.1569233388
0.5061081052 0.3322367370 0.1573562026
0.6809900999 0.3520538807 0.1610713154
0.8056776524 0.3779809475 0.1526023895
0.9145812392 0.3863450289 0.1242952794
0.9374174476 0.4031039178 0.1001256630
0.9393447042 0.3798796237 0.1624345332
0.9327886105 0.3507046700 0.1563379914
0.0418671705 0.3744860590 0.3125360906
0.0259415712 0.4163300097 0.1946361065
0.0562617071 0.4338937402 0.0791068301
0.2644397616 0.4405312240 0.0873514563
0.4650684893 0.4547283351 0.1137905121
0.6374253035 0.4730663896 0.1258372962
0.7840347886 0.4933583736 0.1397097409
0.8848239779 0.5032272339 0.1067343131
0.9375520349 0.5147956014 0.0978901163
0.9504910111 0.4897650778 0.1635300815
0.9463785291 0.4590868652 0.1693169922
0.0441937633 0.4789990187 0.3561769724
0.0221651271 0.5252204537 0.2199484259
0.0000000030 0.5729067922 0.0423361808
0.1527218670 0.5682420135 0.0186591018
0.4167926311 0.5780449510 0.0647346377
0.6027776599 0.5869046450 0.0918475166
0.7518214583 0.6075167060 0.1113520563
0.8750889897 0.6263473630 0.1073784605
0.9552773833 0.6403744817 0.1322714835
0.9605229497 0.6416709423 0.1431359947
0.9562353492 0.5877112746 0.1648346037
0.0386669151 0.5239946842 0.2690774202
0.0473655462 0.6120238900 0.2797843516
0.0383649059 0.6491451859 0.1365991980
0.0236725900 0.6736308932 0.0000000030
0.3206081390 0.6789820790 0.0000000030
0.5618826747 0.6984534264 0.0167360231
0.7589077950 0.7449396849 0.1262574643
0.8446935415 0.7285253406 0.0914997384
0.9379402399 0.7371307611 0.0987196788
0.9432446957 0.7469218969 0.0080326488
0.9612626433 0.7032992244 0.1318795234
0.0400281325 0.5990493298 0.2480735928
0.0413893461 0.6741039753 0.2270697653
0.0354131423 0.7361841202 0.1743551940
0.0000000119 0.7813909650 0.0000000030
0.1656956524 0.7446914315 0.0000000030
0.4742771983 0.7666751742 0.0000000030
0.6868087053 0.7942749262 0.0208083969
0.8169614077 0.8087551594 0.0780670568
0.9295354486 0.8280105591 0.1053596213
0.9695616364 0.8326393962 0.0000000030
0.9757389426 0.8005949855 0.1390072256
0.0385670923 0.6594048738 0.2141678780
0.0371060520 0.7197603583 0.1802621633
0.0328227617 0.7654167414 0.1334545612
0.0302323829 0.7946493626 0.0925539359
0.0000000060 0.7326792479 0.0000000030
0.2904854715 0.7460939884 0.0000000030
0.5909057260 0.8180483580 0.0000000030
0.7735092044 0.8640426397 0.0000000030
0.9085824490 0.9060021639 0.0394149050
0.9593813419 0.8937985301 0.1223730445
0.9781700969 0.8757806420 0.1855748892
0.0516781360 0.6979602575 0.2415823340
0.0562400557 0.7382132411 0.2274680734
0.0646988824 0.7848443389 0.2038395554
0.0804002658 0.8256209493 0.1772415638
0.0940807462 0.8277201653 0.1234140620
0.2034836560 0.8305935860 0.0411380269
0.4580737650 0.8675501943 0.0343073048
0.6765832901 0.9052929282 0.0741889179
0.8364266753 0.9365225434 0.1295242459
0.9319360256 0.9429939389 0.1777977794
0.9698531628 0.9377883077 0.2265817970
0.0679498315 0.7418998480 0.2509684563
0.0759479180 0.7717587948 0.2433829755
0.0893395171 0.8100035787 0.2300292104
0.1064831391 0.8438455462 0.2141349763
0.1179045439 0.8553402424 0.1908286959
0.1071293950 0.8240767121 0.0773222446
0.3322851360 0.8566275239 0.0372098535
0.5882546902 0.9064446092 0.0371329300
0.7818027139 0.9468832612 0.1032564268
0.9045795798 0.9632924199 0.1624514014
0.9579568505 0.9670268893 0.2391376346
0.0666484460 0.1057841480 0.4519102871
0.1130043194 0.0965972543 0.4190824926
0.2133308649 0.0863735005 0.3958103657
0.3715128601 0.0854477510 0.3943769336
0.5312245488 0.0762414113 0.3843307495
0.6744154096 0.0785523504 0.3749981225
0.7842062712 0.0947228447 0.3678699136
0.8822826147 0.1159345582 0.3568592072
0.8994829655 0.1305713803 0.3486063778
0.9065088630 0.2053618729 0.2200961113
0.9186603427 0.2547811866 0.1925472915
0.0735953227 0.1405419111 0.4167330265
0.1077398732 0.1314742565 0.4040444493
0.2115628272 0.1341074407 0.3913618326
0.3759899139 0.1513706446 0.3933215737
0.5387572050 0.1599551737 0.3836828470
0.6944003701 0.1807626039 0.3866508007
0.8067706227 0.2107595950 0.3722560108
0.9057201147 0.2099321932 0.3511683941
0.9298316836 0.2489523739 0.3739747703
0.9288666844 0.2945989370 0.2176012248
0.9308118224 0.3042005301 0.1649984568
0.0746021271 0.2192814648 0.3853482306
0.1011547074 0.2231585532 0.3904427290
0.2119693309 0.2343544066 0.3810437024
0.3732814789 0.2444514185 0.3861886263
0.5384018421 0.2503703535 0.3803092539
0.6918703318 0.2640691400 0.3737113774
0.8170858026 0.2773127854 0.3620916605
0.9173379540 0.2944768071 0.3711060882
0.9507793784 0.3202929497 0.3384999633
0.9483014345 0.3696258068 0.2429915518
0.9327569604 0.3138021529 0.1123956814
0.0762911960 0.3256485164 0.4497671127
0.0714704394 0.3548371196 0.3704295158
0.2045119256 0.3651918173 0.3795341253
0.3768753111 0.3824846745 0.3839837015
0.5506672859 0.3952298164 0.3878822923
0.6961917281 0.3945648372 0.3698932230
0.8199709058 0.4044350088 0.3731421828
0.9334499836 0.4203293920 0.3544194400
0.9707350135 0.4402148426 0.3713544905
0.9657437801 0.4653760791 0.2477561533
0.9421981573 0.4055761099 0.1840400249
0.0553681441 0.4436934292 0.4839335680
0.0000000015 0.5105402470 0.3489283919
0.1426136643 0.5068843365 0.3525552452
0.3313011229 0.5046163797 0.3521145284
0.5166171789 0.5126927495 0.3594484627
0.6782317758 0.5237327218 0.3544480801
0.8153877258 0.5399514437 0.3510017693
0.9182323217 0.5571808815 0.3618592620
1.0000000000 0.5808945894 0.3565845788
0.9745764136 0.5746199489 0.2302655876
0.9558562040 0.5367908478 0.1880828887
0.0685489923 0.5372905135 0.5360464454
0.0405538045 0.5864246488 0.4228729904
0.0256741494 0.6316335201 0.2984462976
0.2460388392 0.6235210896 0.2945073247
0.4662126303 0.6249710321 0.3076862097
0.6503124833 0.6417304277 0.3377428353
0.7868710160 0.6526839733 0.3498504758
0.9029169679 0.6718540788 0.3381772935
0.9885273576 0.6798806787 0.3521749377
0.9930787683 0.6896220446 0.2687098086
0.9618045688 0.6623760462 0.1820507795
0.0629275069 0.5743305087 0.4293097556
0.0815666094 0.6617061496 0.4828054011
0.0914221331 0.7008979917 0.3674614131
0.1257562786 0.7319561839 0.2328491211
0.4027518630 0.7338723540 0.2614937425
0.5968426466 0.7324520946 0.2955771983
0.8005148768 0.7915506959 0.3466477990
0.8792274594 0.7779199481 0.3678129315
0.9800534844 0.7852990031 0.3500709832
0.9999849200 0.7871347070 0.3036940396
0.9843077064 0.7752645016 0.2227713317
0.0555219352 0.6259962320 0.3476101458
0.0636101589 0.7046088576 0.3654471636
0.0678745136 0.7780163288 0.3864663541
0.0000000119 0.8242637515 0.2091932893
0.2731874287 0.8206949830 0.1688131392
0.5640112162 0.8341494799 0.2301860005
0.7183215618 0.8253398538 0.2825615108
0.8716022372 0.8628591895 0.3660685420
0.9682942629 0.8740930557 0.3683388233
1.0000000000 0.8746146560 0.3369194567
0.9963925481 0.8658462167 0.2851421535
0.0496423841 0.6761121750 0.2774337828
0.0548381172 0.7429353595 0.2705233991
0.0637981370 0.8044369221 0.2658609152
0.0906971321 0.8698777556 0.2776618004
0.1040315479 0.8873354793 0.1097979769
0.4186363816 0.8942426443 0.0628060848
0.6664873958 0.9155650139 0.1685829312
0.8306263089 0.9292839766 0.2588132322
0.9527791739 0.9393599629 0.3521678448
1.0000000000 0.9427540302 0.3277042210
0.9993897676 0.9329484701 0.2953444421
0.0647891834 0.7365156412 0.2689967752
0.0799359828 0.7969191670 0.2605597377
0.1050338447 0.8509029746 0.2505960464
0.1462695450 0.8973690271 0.2353312075
0.2018419504 0.9248602986 0.1930006146
0.2258847505 0.9179667234 0.0000000119
0.5798320174 0.9540088177 0.0617838800
0.7981668115 0.9842860103 0.1882594526
0.9241141677 0.9982726574 0.2749689221
1.0000000000 0.9986609221 0.2814960480
0.9994534254 0.9945903420 0.3163727224
0.0842215270 0.7858394980 0.2603545785
0.1036538631 0.8351633549 0.2517124116
0.1273717433 0.8734074831 0.2428650856
0.1497096419 0.8959120512 0.2351341248
0.1531497538 0.8944550157 0.2349370569
0.0000000000 0.7862963080 0.0000000119
0.4316521585 0.8782556653 0.0000000119
0.7558956146 0.9574134946 0.0000000119
0.9207267761 0.9976828098 0.1431121081
1.0000000000 1.0000000000 0.2063000351
0.9994379282 1.0000000000 0.3283796906
0.1010436118 0.2013579458 0.7242753506
0.1879813373 0.1810723394 0.6865113974
0.2788156569 0.1625578552 0.6522192359
0.4222325087 0.1539403051 0.6287581325
0.5773733258 0.1593242139 0.6208269000
0.7132456303 0.1672202349 0.6071158051
0.8154155612 0.1656531990 0.5986664295
0.9134266973 0.1839086413 0.5909059048
0.9370155931 0.2345901281 0.5826135278
0.9446903467 0.3054501712 0.5130568147
0.9389378428 0.3079657853 0.3693514764
0.1052922904 0.2414636165 0.6866502166
0.1736474931 0.2307481170 0.6619721651
0.2690211833 0.2255176306 0.6379368305
0.4187069833 0.2418211251 0.6178377867
0.5778360367 0.2454367131 0.6080492735
0.7207840085 0.2666646540 0.6151289940
0.8300441504 0.2845885456 0.5971880555
0.9373147488 0.2972602248 0.5899813175
0.9604797363 0.3503600657 0.5793706179
0.9642347693 0.3890062571 0.5399668813
0.9534626007 0.3636660278 0.4024503231
0.1001807004 0.2977008224 0.6319272518
0.1538145542 0.3017699420 0.6289126873
0.2635628879 0.3025172651 0.6199483871
0.4110689461 0.3026265502 0.6035679579
0.5725612640 0.3152662516 0.5971079469
0.7216102481 0.3274878263 0.5946477652
0.8330333233 0.3437500000 0.5819201469
0.9393633008 0.3657974005 0.5991318822
0.9665098786 0.3916202486 0.5802859664
0.9742811322 0.4424494803 0.5181677938
0.9653412700 0.3977912664 0.5023856759
0.0828010291 0.4028268754 0.5935236812
0.1168008596 0.4063194990 0.5908720493
0.2390203178 0.4139761925 0.5921799541
0.4000939429 0.4216186404 0.5793881416
0.5589963794 0.4270684719 0.5762795210
0.7093191743 0.4378864765 0.5801256299
0.8323515058 0.4587934017 0.5707610846
0.9365853071 0.4804931581 0.5771649480
0.9919875264 0.5047937632 0.5669322014
0.9869986773 0.5358463526 0.5126060843
0.9830986261 0.5058822036 0.5089105368
0.0898132399 0.4948914945 0.6531051993
0.0534813851 0.5298464894 0.5611161590
0.1853533387 0.5377901196 0.5575724840
0.3723844290 0.5405153632 0.5550332665
0.5449444056 0.5515013337 0.5563850999
0.6932864785 0.5654838681 0.5579885244
0.8246067762 0.5834298134 0.5649999380
0.9284540415 0.5907292366 0.5511091352
0.9967145920 0.5917127132 0.5581677556
0.9963993430 0.6293861270 0.4821671247
1.0000000000 0.6325095892 0.5225024223
0.1097250208 0.5817534328 0.7013328075
0.0959872678 0.6171001792 0.6212442517
0.1017535776 0.6642390490 0.5318789482
0.3115318418 0.6619607806 0.5244866610
0.5095475316 0.6626633406 0.5289703608
0.6747319102 0.6716196537 0.5453276634
0.8124716878 0.6868301630 0.5458934903
0.9103485346 0.7007446289 0.5412511230
1.0000000000 0.7046328187 0.5475209355
0.9989490509 0.7210932970 0.4695226848
1.0000000000 0.7219663858 0.5088269711
0.0951254740 0.6179599762 0.5962414742
0.1127238944 0.6977958679 0.6580818295
0.1228359640 0.7391042113 0.5710887909
0.2079704851 0.7714917660 0.4912266135
0.4519973993 0.7667753696 0.4943742752
0.6470987797 0.7718995214 0.5118452311
0.7967984676 0.7895043492 0.5303118229
0.8802716732 0.7811433673 0.5277195573
0.9847167730 0.7993139029 0.5372692347
1.0000000000 0.8088958859 0.5136537552
1.0000000000 0.8121680021 0.5145115256
0.0822752938 0.6603512168 0.4930920303
0.0961784795 0.7370973229 0.5354244709
0.1122013852 0.8088873029 0.5827443004
0.0755072460 0.8534671068 0.4439929724
0.3493090868 0.8568659425 0.4560174048
0.5967198014 0.8570302725 0.4795991778
0.7535952330 0.8520631194 0.4966732562
0.8821192384 0.8721190095 0.4860421419
0.9570720196 0.8666236401 0.4951268137
1.0000000000 0.8749343157 0.5143133998
1.0000000000 0.8801507354 0.5314634442
0.0734951198 0.7029491067 0.3968583345
0.0885676816 0.7723839879 0.4200492203
0.1146864519 0.8371194005 0.4541997910
0.1680598259 0.8980340362 0.5139941573
0.2089502364 0.9307827950 0.4014161229
0.4830423295 0.9285234809 0.4126909375
0.6641404033 0.9329748750 0.4216414690
0.8135298491 0.9298329353 0.4665670991
0.9339371920 0.9293114543 0.5159865022
1.0000000000 0.9384765029 0.5116685033
1.0000000000 0.9315420389 0.5493971109
0.0802383795 0.7508397698 0.3387220800
0.1024308503 0.8130547404 0.3503110409
0.1387888789 0.8698609471 0.3703241050
0.1966463327 0.9215605855 0.4061764181
0.2756095827 0.9692788720 0.4692038596
0.3555359244 0.9970787168 0.3692826629
0.7157610059 1.0000000000 0.4827723801
0.8925296068 0.9982529879 0.5070449114
0.9566724300 0.9975296259 0.5063505769
1.0000000000 0.9981735349 0.5259288549
1.0000000000 0.9892471433 0.5671004653
0.0950324014 0.7943677902 0.3035304844
0.1206373200 0.8464241028 0.3115148246
0.1558272243 0.8910540938 0.3325209618
0.2013210803 0.9298937321 0.3843736947
0.2576073110 0.9722084999 0.5118105412
0.1948480755 0.9576038122 0.4051788449
0.4737416506 0.9886435866 0.1881651729
0.7162742615 1.0000000000 0.2945868373
0.8375070095 1.0000000000 0.3586088121
0.9542207718 1.0000000000 0.4483918250
1.0000000000 1.0000000000 0.4555389881
0.1614404917 0.2873330414 0.9447068572
0.2804023027 0.2896181047 0.9019590616
0.3488958478 0.2565269470 0.8620217443
