darktable/luts/provia.cube
TITLE "Generated by darktable_lut_creator
LUT_3D_SIZE 5
0.0000000000 0.0000000000 0.0000000000
0.2616838217 0.0000000000 0.0000000000
0.6362712979 0.0000000000 0.0000000000
0.8830843568 0.0403288119 0.1272792071
0.9057692885 0.2144649327 0.1308771968
0.0000000000 0.2084822357 0.0000000000
0.1483901441 0.1802092493 0.0000000000
0.6805295348 0.2085049152 0.0000000000
0.9257864952 0.2634374499 0.1326511800
0.9655141234 0.4034196138 0.2437183559
0.0019998301 0.4213341177 0.0837501213
0.0000000000 0.5865458846 0.0000000000
0.5743563175 0.5545639992 0.0000000000
0.9139145613 0.6072198749 0.0794527009
0.9465451241 0.6053600311 0.1784653217
0.0073181950 0.6325950623 0.1119177267
0.0094761848 0.7768742442 0.0313533023
0.3100177348 0.8364796638 0.0000000000
0.8557056189 0.8678381443 0.1206487194
1.0000000000 0.9048009515 0.3671346009
0.0375263393 0.7640357018 0.0901293382
0.0832806155 0.8565608263 0.0704853833
0.2024518102 0.8596135974 0.0206240639
0.7480839491 0.9936571121 0.2890781164
1.0000000000 1.0000000000 0.4364731610
0.0668663234 0.0842970163 0.2967230976
0.2879879177 0.0396144278 0.2717359960
0.6771315932 0.0002496775 0.2630640268
0.8859907985 0.0974924639 0.3304939270
0.9260132313 0.2653070390 0.2869779468
0.0191691052 0.2673602402 0.2872441411
0.2899310589 0.2891339064 0.2897223830
0.7147173882 0.2517316043 0.2764949799
0.9434062243 0.2892667055 0.3346481919
0.9780236483 0.3686234057 0.3437188268
0.0120034143 0.5455910563 0.3777050972
0.0000000000 0.6401599050 0.1143885106
0.6428244114 0.6340432167 0.1968202442
0.9593812227 0.6323078275 0.2858101130
0.9960219860 0.6687102914 0.3939553499
0.0147978691 0.7036911845 0.3423399925
0.0124108763 0.8468264937 0.2821797132
0.3786658347 0.8963713050 0.1072424054
0.9134865403 0.9283362627 0.3458856046
1.0000000000 0.9054131508 0.4310159683
0.0407972597 0.7951135635 0.2079930753
0.0815929547 0.9005787969 0.2668198645
0.0000000000 0.8715707064 0.0337534696
0.7012978792 1.0000000000 0.4513506889
0.9992685914 1.0000000000 0.5062147975
0.1201530471 0.2169103175 0.8018585443
0.3896891475 0.1926996708 0.7852312326
0.7542786598 0.2077094913 0.7787568569
0.9478173256 0.2593988776 0.7804286480
0.9699355960 0.4580603540 0.6352298260
0.1345733702 0.3807518780 0.7836062908
0.3669679761 0.3755457997 0.7782305479
0.7648866773 0.3746212721 0.7775778174
0.9812775254 0.4093648791 0.7624128461
1.0000000000 0.5853716135 0.6862416267
0.0732443333 0.6596110463 0.7755522728
0.1469345391 0.7016375065 0.6978448033
0.6976655126 0.6943663359 0.6974413395
0.9892702699 0.7044879198 0.7327951789
0.9988610744 0.7393366098 0.7385936379
0.0663243681 0.7787958980 0.7172968984
0.0957429186 0.8988328576 0.7273042798
0.5052595139 0.9240371585 0.6201362610
0.9104591012 0.9220839143 0.6620168686
0.9992327690 0.9002695084 0.7535464764
0.0854057670 0.8522772193 0.5171232820
0.1773841381 0.9573639035 0.6525353789
0.1862274110 1.0000000000 0.5132669806
0.7245862484 1.0000000000 0.6824582815
0.9973942637 1.0000000000 0.7250332832
0.2376625836 0.4191060364 1.0000000000
0.5311507583 0.4016609788 0.9922021627
0.8087686300 0.4121716619 0.9888344407
1.0000000000 0.4682843387 0.9946790934
0.9936544299 0.5303882957 0.8654472232
0.2484377772 0.5261762142 1.0000000000
0.4992330968 0.5167219639 1.0000000000
0.8069819808 0.5205789804 1.0000000000
1.0000000000 0.5572993159 1.0000000000
0.9909137487 0.6859254837 0.6606588364
0.3152455986 0.8045443296 0.9944521785
0.3502629995 0.7457627654 1.0000000000
0.7488955259 0.7468069792 0.9905099869
0.9899646044 0.7537387609 0.9916919470
0.9990444183 0.8391486406 0.8128067255
0.1800302416 0.8403952718 0.9515194297
0.3352018595 1.0000000000 1.0000000000
0.6103356481 0.9383307099 0.9423306584
0.9294196963 0.9311016202 0.9306682348
0.9948562980 0.9182581902 0.9293456078
0.1650269479 0.8999722004 0.8094151616
0.2459495664 0.9867511392 0.9043733478
0.3667984605 0.9920384288 0.8639425039
0.7741218209 1.0000000000 0.8712915778
0.9989883900 1.0000000000 0.8933604956
0.3842927516 0.6649911404 0.9989269376
0.7143628001 0.7017953992 0.9992135167
0.8520794511 0.7193205953 0.9976295829
0.9889924526 0.7946661711 1.0000000000
0.9986055493 0.6424930692 0.9514291286
0.4141016901 0.7274601460 0.9987162352
0.6706010103 0.7097862959 1.0000000000
0.8409194946 0.7205619216 0.9995008111
0.9772313833 0.8110434413 0.9994315505
0.9989904761 0.7415764928 0.9276154637
0.4308997691 0.8555059433 0.9991010427
0.6168215275 0.8464781046 0.9994252324
0.8186802268 0.8365061283 0.9994080663
0.9587872028 0.8592350483 0.9998628497
1.0000000000 0.6154593229 0.9670839906
0.3329589069 0.9227601886 0.9922555089
0.4349552393 0.9681661129 0.9993762970
0.7474914789 0.9511200190 1.0000000000
0.9347496033 0.9350737333 0.9974872470
1.0000000000 0.8932791352 0.9903423190
0.2485034913 0.9415733218 0.9471735954
0.3303929865 0.9951183796 0.9778003693
0.4789676964 1.0000000000 0.9903689027
0.8322778344 1.0000000000 0.9888277650
1.0000000000 1.0000000000 1.0000000000
