darktable/luts/provia_profiled_xt3.cube
# Generated by darktable_lut_creator: https://github.com/wilecoyote2015/darktabe_lut_generator
# Calculated for Higlight clipping, gamut compression=3 in color balance and custon x-t3 input profile; tetrahedral interpolation.
TITLE "Custom Profile for Fuji X-T3"
LUT_3D_SIZE 6
0.0000000000 0.0000000000 0.0000000000
0.1357724667 0.0038165534 0.0000000000
0.4801026285 0.0092184162 0.0004850445
0.6370528936 0.0027049591 0.0001212622
0.7736384273 0.0564246327 0.0357810296
0.8358033895 0.0895214230 0.0440423563
0.0032170310 0.0905593038 0.0035443429
0.1205475330 0.1136934683 0.0000000000
0.4555928707 0.1293233633 0.0000000000
0.6567264199 0.1063233390 0.0000314392
0.7936100364 0.1572417617 0.0453150570
0.8540951610 0.1587259322 0.0683440343
0.0102118300 0.2551977932 0.0695632622
0.0000000030 0.3005982637 0.0001563805
0.3493955135 0.3419996500 0.0005329121
0.6223419905 0.3201961219 0.0000907434
0.7958157659 0.3542864025 0.0464129783
0.8783134818 0.3183821738 0.0991137549
0.0211256724 0.4079134464 0.1536002606
0.0115119480 0.4661690891 0.0667150021
0.1738401502 0.5016610026 0.0097764703
0.5286261439 0.5229360461 0.0013641432
0.7665109634 0.5473041534 0.0395707265
0.8851494789 0.5282612443 0.0902908444
0.0310405828 0.5368322134 0.1967781633
0.0278413203 0.5894154906 0.1550080925
0.0620901585 0.6343938708 0.0580441505
0.3688745201 0.6638360620 0.0145951658
0.6913290620 0.7075940967 0.0338331833
0.8720707297 0.7160944939 0.0821303949
0.0465173721 0.6440993547 0.2253122628
0.0500819273 0.6791101098 0.2076892853
0.0648854226 0.7320916057 0.1507830471
0.2229086608 0.7590231299 0.0652592704
0.5597332120 0.8118425012 0.0549785048
0.8173649907 0.8462643623 0.1153090671
0.0456128828 0.0725693181 0.2058079094
0.1750997901 0.0619226024 0.1808589101
0.4899700880 0.0161203016 0.1459629834
0.7528775930 0.0146090295 0.1064075008
0.8558732271 0.0714998841 0.0334561095
0.8866306543 0.1609396338 0.0962736458
0.0350212008 0.1600996256 0.1714756191
0.1849879473 0.1894612312 0.1921802610
0.5088744164 0.1936335564 0.1696059257
0.7958046198 0.2236615568 0.1350171119
0.9052423835 0.2639494836 0.0891437680
0.9168229103 0.2666583061 0.1225394085
0.0418671705 0.3744860590 0.3125360906
0.0562617071 0.4338937402 0.0791068301
0.4650684893 0.4547283351 0.1137905121
0.7840347886 0.4933583736 0.1397097409
0.9375520349 0.5147956014 0.0978901163
0.9463785291 0.4590868652 0.1693169922
0.0386669151 0.5239946842 0.2690774202
0.0383649059 0.6491451859 0.1365991980
0.3206081390 0.6789820790 0.0000000030
0.7589077950 0.7449396849 0.1262574643
0.9379402399 0.7371307611 0.0987196788
0.9612626433 0.7032992244 0.1318795234
0.0385670923 0.6594048738 0.2141678780
0.0328227617 0.7654167414 0.1334545612
0.0000000060 0.7326792479 0.0000000030
0.5909057260 0.8180483580 0.0000000030
0.9085824490 0.9060021639 0.0394149050
0.9781700969 0.8757806420 0.1855748892
0.0679498315 0.7418998480 0.2509684563
0.0893395171 0.8100035787 0.2300292104
0.1179045439 0.8553402424 0.1908286959
0.3322851360 0.8566275239 0.0372098535
0.7818027139 0.9468832612 0.1032564268
0.9579568505 0.9670268893 0.2391376346
0.1010436118 0.2013579458 0.7242753506
0.2788156569 0.1625578552 0.6522192359
0.5773733258 0.1593242139 0.6208269000
0.8154155612 0.1656531990 0.5986664295
0.9370155931 0.2345901281 0.5826135278
0.9389378428 0.3079657853 0.3693514764
0.1001807004 0.2977008224 0.6319272518
0.2635628879 0.3025172651 0.6199483871
0.5725612640 0.3152662516 0.5971079469
0.8330333233 0.3437500000 0.5819201469
0.9665098786 0.3916202486 0.5802859664
0.9653412700 0.3977912664 0.5023856759
0.0898132399 0.4948914945 0.6531051993
0.1853533387 0.5377901196 0.5575724840
0.5449444056 0.5515013337 0.5563850999
0.8246067762 0.5834298134 0.5649999380
0.9967145920 0.5917127132 0.5581677556
1.0000000000 0.6325095892 0.5225024223
0.0951254740 0.6179599762 0.5962414742
0.1228359640 0.7391042113 0.5710887909
0.4519973993 0.7667753696 0.4943742752
0.7967984676 0.7895043492 0.5303118229
0.9847167730 0.7993139029 0.5372692347
1.0000000000 0.8121680021 0.5145115256
0.0734951198 0.7029491067 0.3968583345
0.1146864519 0.8371194005 0.4541997910
0.2089502364 0.9307827950 0.4014161229
0.6641404033 0.9329748750 0.4216414690
0.9339371920 0.9293114543 0.5159865022
1.0000000000 0.9315420389 0.5493971109
0.0950324014 0.7943677902 0.3035304844
0.1558272243 0.8910540938 0.3325209618
0.2576073110 0.9722084999 0.5118105412
0.4737416506 0.9886435866 0.1881651729
0.8375070095 1.0000000000 0.3586088121
1.0000000000 1.0000000000 0.4555389881
0.2534765303 0.3495919704 1.0000000000
0.4278106391 0.3748105764 0.9950859547
0.6610351801 0.3345045745 0.9723342657
0.8723816276 0.3639545739 0.9516407847
0.9946886301 0.4250521660 0.9356509447
0.9811992645 0.4708320796 0.7170846462
0.1847955585 0.4734696746 0.9961186647
0.3672057092 0.4601502120 0.9827047586
0.6378062367 0.4580365717 0.9418295622
0.8637508154 0.4893324673 0.9189313054
1.0000000000 0.5575123429 0.8755989671
0.9948381782 0.5953373909 0.7698045373
0.1527022272 0.6171559095 0.8929520845
0.2885299921 0.6179959178 0.8917039633
0.5926393270 0.6255764365 0.8723618388
0.8369563222 0.6443436146 0.8568723202
1.0000000000 0.6775625944 0.8581871390
1.0000000000 0.7563329935 0.8031115532
0.1500189900 0.7087153792 0.8447690010
0.1469512880 0.8013079762 0.8243374825
0.5188438892 0.7968343496 0.8122982383
0.8065147400 0.8123385310 0.8158254027
0.9811794758 0.8221117258 0.8110903502
0.9999636412 0.8518068194 0.8156985044
0.1336541772 0.7645063400 0.6730096340
0.1995388120 0.8769897819 0.7692790031
0.3240299225 0.9445160031 0.7709628344
0.7298130989 0.9381428957 0.7677280903
0.9463610053 0.9427688718 0.7913702726
1.0000000000 0.9415947199 0.8060647845
0.1400440931 0.8301358819 0.5086339116
0.2051725835 0.9283602238 0.6047492027
0.2731837630 0.9998524189 0.7844267488
0.4958617091 1.0000000000 0.6886813641
0.8299668431 1.0000000000 0.7323592901
0.9976426959 1.0000000000 0.7654373050
0.3767788708 0.5541121960 0.9989466667
0.6005534530 0.5306728482 0.9948555827
0.7645975947 0.5233870745 0.9975627661
0.9254389405 0.5369395018 0.9984657764
1.0000000000 0.5724672675 1.0000000000
0.9965730309 0.6385810971 0.9150325656
0.3564059734 0.6927698851 0.9998782277
0.5098975301 0.6708803773 1.0000000000
0.7247762084 0.6366640925 1.0000000000
0.8979295492 0.6364210844 0.9998320341
1.0000000000 0.6801021695 1.0000000000
0.9991364479 0.7140555978 0.9144833684
0.2775044143 0.7312070131 0.9994105101
0.4177681506 0.7287162542 0.9998381138
0.6588334441 0.7198103666 1.0000000000
0.8650740981 0.7337958217 1.0000000000
1.0000000000 0.7551747561 1.0000000000
0.9999920130 0.8276622891 0.8351944089
0.2619468272 0.7966244817 0.9768158793
0.2889967859 0.8500446677 1.0000000000
0.5908271074 0.8453608155 1.0000000000
0.8274320364 0.8514876962 0.9982681870
0.9889507890 0.8581301570 1.0000000000
0.9995976090 0.8882630467 0.9236385822
0.2051778585 0.8272337914 0.8829967976
0.2205094844 0.9263095856 0.9541778564
0.4562489092 0.9703759551 0.9869661927
0.7861403823 0.9535123110 0.9659061432
0.9507486224 0.9582401514 0.9601102471
0.9974620342 0.9537047744 0.9450865388
0.1918934435 0.8728918433 0.7449175715
0.2533700764 0.9563301206 0.8382250667
0.3955243826 0.9999834895 0.9563606381
0.5601416230 0.9999982715 0.8911454082
0.8665801883 0.9994897842 0.9036018848
0.9973673224 1.0000000000 0.9219205976
0.5378836393 0.6996910572 0.9991512299
0.6626791358 0.6867611408 0.9983676076
0.7860599160 0.6870257258 0.9963182807
0.8961055875 0.6940515041 0.9992015958
0.9827650189 0.6967281699 0.9997746348
0.9973793626 0.7461876869 0.9775877595
0.5230405331 0.8189131618 0.9991201758
0.6717316508 0.8100273013 0.9993236065
0.8093445897 0.8284428120 0.9993302822
0.8993372917 0.8351694345 1.0000000000
0.9891272187 0.8299224377 1.0000000000
0.9998929501 0.7898564935 0.9743773341
0.4300097823 0.8594497442 0.9988915324
0.5749185085 0.8521828055 0.9992585182
0.7504589558 0.8402828574 0.9989132285
0.8879886866 0.8605844975 1.0000000000
0.9744665623 0.8921037316 0.9993101358
0.9999514222 0.8430145383 0.9714589715
0.3704005480 0.8813353181 0.9954674840
0.4679070413 0.9215921164 0.9999625087
0.6950889826 0.9118444324 0.9992651939
0.8597558141 0.9049333334 0.9993945360
0.9561575651 0.9206534028 0.9999620914
1.0000000000 0.8219873905 0.9898008704
0.3035177290 0.8892278075 0.9700620770
0.3739143312 0.9642047286 0.9934886098
0.6012432575 0.9898746014 1.0000000000
0.8251490593 0.9728757143 1.0000000000
0.9454236627 0.9635329247 0.9984470010
1.0000000000 0.9520558715 0.9944828153
0.2716001272 0.9148964286 0.9028792977
0.3573528826 0.9768180251 0.9556630254
0.4530664384 0.9998509288 0.9864795208
0.6750636101 1.0000000000 0.9885633588
0.8955332637 0.9998249412 0.9917400479
1.0000000000 1.0000000000 1.0000000000
